;TIME:2947.19
;Filament used:3.52621m
;Layer height:0.200
; HEADER_BLOCK_START
; generated by Creality_Print V6.0.5.1840 on 2025-06-08 at 17:52:10
; total layer number: 93
; filament_density: 1.24
; filament_diameter: 1.75
; max_z_height: 18.60
; HEADER_BLOCK_END

; MINX = 72.12
; MINY = 92.04
; MINZ = 0.00
; MAXX = 147.88
; MAXY = 127.96
; MAXZ = 18.60

; THUMBNAIL_BLOCK_START

;
; THUMBNAIL_BLOCK_END

; THUMBNAIL_BLOCK_START

;
; THUMBNAIL_BLOCK_END

; external perimeters extrusion width = 0.42mm
; perimeters extrusion width = 0.45mm
; infill extrusion width = 0.45mm
; solid infill extrusion width = 0.42mm
; top infill extrusion width = 0.42mm
; support material extrusion width = 0.40mm
; first layer extrusion width = 0.60mm

; EXECUTABLE_BLOCK_START
M73 P0 R49
M201 X5000 Y5000 Z500 E5000
M203 X500 Y500 Z30 E100
M204 P5000 R2500 T5000 ; sets acceleration (P, T) and retract acceleration (R), mm/sec^2
M205 X10.00 Y10.00 Z0.40 E5.00 ; sets the jerk limits, mm/sec
;TYPE:Custom
M220 S100 ;Reset Feedrate 
M221 S100 ;Reset Flowrate 
 
M140 S75 ;Set final bed temp 
G28 ;Home 
 
G92 E0 ;Reset Extruder 
G1 Z2.0 F3000 ;Move Z Axis up 
M104 S200 ;Set final nozzle temp 
G1 X-2.1 Y20 Z0.28 F5000.0 ;Move to start position 
M190 S75 ;Wait for bed temp to stabilize 
M109 S200 ;Wait for nozzle temp to stabilize 
G1 X-2.1 Y145.0 Z0.28 F1500.0 E15 ;Draw the first line 
G1 X-2.4 Y145.0 Z0.28 F5000.0 ;Move to side a little 
G1 X-2.4 Y20 Z0.28 F1500.0 E30 ;Draw the second line 
G92 E0  ;Reset Extruder 
G1 E-1.0000 F1800 ;Retract a bit 
M73 P0 R48
M73 P0 R48
G1 Z2.0 F3000 ;Move Z Axis up 
G1 E0.0000 F1800
G90
G21
M83 ; use relative distances for extrusion
" "
G1 E-1.6 F2400
M106 S0
;LAYER_CHANGE
;Z:0.2
;HEIGHT:0.2
;BEFORE_LAYER_CHANGE
;0.2
G92 E0

;_SET_FAN_SPEED_CHANGING_LAYER
M204 P125
M205 X10 Y10
; printing object Stopper id:4672934976198502067 copy 0
M204 T125
G1 Z.4 F9000
G1 X71.335 Y101.969
G1 Z.2
G1 E1.6 F1800
;TYPE:Support
;WIDTH:0.6
G1 F600
G3 X73.713 Y102.703 I-.131 J4.643 E.11085
G3 X76.687 Y102.885 I1.31 J2.977 E.13623
G1 X76.687 Y103.153 E.01177
G2 X75.269 Y103.648 I-.657 J.398 E.09199
G2 X75.389 Y103.939 I.708 J-.121 E.01401
G1 X74.687 Y103.733 E.03219
G3 X74.121 Y105.06 I-.967 J.371 E.07019
G1 X74.121 Y117.561 E.55014
G1 X74.687 Y116.977 E.03578
G1 X74.687 Y117.281 E.01335
G1 X76.132 Y117.866 E.06863
G1 X77.334 Y116.754 E.07207
G3 X77.357 Y115.716 I1.966 J-.476 E.04622
G1 X77.636 Y116.003 E.0176
G1 X78.007 Y115.85 E.01767
G1 X78.731 Y116.597 E.04578
G3 X76.116 Y122.137 I-7.752 J-.271 E.27714
G3 X69.338 Y121.178 I-2.862 J-4.202 E.33049
G1 X68.888 Y121.806 E.03401
G1 X67.879 Y117.453 E.19661
G3 X68.76 Y113.742 I8.919 J.156 E.16918
G1 X69.403 Y112.858 E.04808
G1 X69.225 Y112.37 E.02287
G3 X67.748 Y103.095 I.184 J-4.785 E.57919
G3 X71.252 Y101.965 I3.261 J4.118 E.16551
G1 E-1.6 F2400
;WIPE_START
G1 F600
G1 X69.837 Y102.07
G1 X69.284 Y102.25
;WIPE_END
G1 X72.685 Y109.083 Z.6 F9000
G1 X77.813 Y119.386 Z.6
G1 Z.2
G1 E1.6 F1800
G1 F600
G1 X77.813 Y117.096 E.1008
G2 X77.194 Y117.491 I.158 J.929 E.03321
G1 X77.194 Y120.14 E.11658
G3 X76.575 Y120.993 I-3.934 J-2.206 E.04645
G1 X76.575 Y118.13 E.12597
G1 X76.257 Y118.458 E.0201
G1 X75.956 Y118.336 E.01429
G1 X75.956 Y121.626 E.1448
G3 X75.337 Y121.998 I-1.533 J-1.849 E.0319
G1 X75.337 Y118.085 E.1722
G1 X74.718 Y117.834 E.02939
G1 X74.718 Y122.281 E.19567
G3 X74.099 Y122.474 I-.986 J-2.068 E.02863
G1 X74.099 Y118.304 E.18352
G1 X73.62 Y118.799 E.03032
G1 X73.62 Y104.856 E.61354
G1 X74.099 Y104.362 E.03033
G1 X74.099 Y103.067 E.05698
G3 X74.718 Y103.48 I.305 J.213 E.05077
G1 E-1.6 F2400
;WIPE_START
G1 F600
G1 X74.718 Y102.934
G1 X74.099 Y103.067
G1 X74.099 Y103.887
;WIPE_END
G1 X73.849 Y111.515 Z.6 F9000
G1 X73.48 Y122.775 Z.6
G1 Z.2
G1 E1.6 F1800
G1 F600
G1 X73.48 Y103.151 E.86357
G2 X72.861 Y102.811 I-2.653 J4.102 E.0311
M73 P1 R48
M73 P1 R48
G1 X72.861 Y122.51 E.86686
G1 X72.242 Y122.418 E.02754
G1 X72.242 Y102.62 E.87119
G2 X71.623 Y102.484 I-.685 J1.637 E.02804
G1 X71.623 Y122.23 E.86893
G3 X71.004 Y121.933 I.686 J-2.222 E.03033
G1 X71.004 Y102.456 E.85707
G2 X70.385 Y102.502 I-.182 J1.729 E.02746
G1 X70.385 Y121.516 E.83673
G3 X69.766 Y120.909 I1.41 J-2.055 E.03837
G1 X69.766 Y102.62 E.80478
G1 X69.148 Y102.821 E.02864
G1 X69.148 Y111.859 E.39769
G1 X68.529 Y111.796 E.02738
G1 X68.529 Y103.152 E.38041
G3 X67.91 Y103.569 I-12.563 J-17.947 E.03286
G1 X67.91 Y111.613 E.35395
G3 X67.291 Y111.261 I45.205 J-80.225 E.03133
G1 X67.291 Y103.87 E.32522
G2 X66.672 Y104.331 I1.848 J3.131 E.03401
G1 X66.672 Y110.85 E.28689
G3 X66.053 Y110.276 I.502 J-1.161 E.0379
G1 X66.053 Y104.967 E.23361
G2 X65.434 Y106.017 I2.195 J2.002 E.05401
G1 X65.434 Y109.801 E.16655
G1 E-1.6 F2400
;WIPE_START
G1 F600
G1 X65.434 Y107.801
;WIPE_END
G1 X67.499 Y115.149 Z.6 F9000
G1 X69.148 Y121.013 Z.6
G1 Z.2
G1 E1.6 F1800
G1 F600
G1 X69.148 Y114.086 E.30486
G2 X68.529 Y115.773 I3.78 J2.344 E.07962
G1 X68.529 Y119.147 E.14847
G1 E-1.6 F2400
;WIPE_START
G1 F600
G1 X68.529 Y117.147
;WIPE_END
G1 X75.166 Y116.555 Z.6 F9000
G1 Z.2
G1 E1.6 F1800
;TYPE:Support interface
;WIDTH:0.4
G1 F600
G1 X75.166 Y116.958 E.01136
G1 X76.051 Y117.262 E.02641
G1 X75.166 Y116.377 E.03533
G1 X75.166 Y115.796 E.01639
G1 X74.88 Y116.091 E.01159
G1 X74.6 Y115.811 E.01117
G1 X74.6 Y114.599 E.03419
G1 X76.648 Y116.647 E.0817
G2 X76.714 Y115.501 I-1.005 J-.633 E.0338
G1 X74.6 Y113.387 E.08433
G1 X74.6 Y112.175 E.03419
G1 X77.379 Y114.954 E.11086
G1 X77.379 Y113.742 E.03419
G1 X74.6 Y110.962 E.11086
G1 X74.6 Y109.75 E.03419
G1 X77.379 Y112.529 E.11086
G1 X77.379 Y111.317 E.03419
G1 X74.6 Y108.538 E.11086
G1 X74.6 Y107.326 E.03419
G1 X77.379 Y110.105 E.11086
G1 X77.379 Y108.893 E.03419
G1 X74.6 Y106.114 E.11086
G1 X74.6 Y105.253 E.02428
G1 X74.773 Y105.075 E.00701
G1 X77.379 Y107.681 E.10396
G1 X77.379 Y106.469 E.03419
G1 X75.464 Y104.554 E.0764
G1 X75.836 Y104.552 E.01051
G2 X76.023 Y104.209 I-.084 J-.268 E.01219
G1 X77.379 Y105.531 E.05342
G1 X77.379 Y106.29 E.02141
G1 E-1.6 F2400
;WIPE_START
G1 F600
G1 X77.379 Y105.531
G1 X76.49 Y104.665
;WIPE_END
G1 X76.687 Y104.207 Z.6 F9000
G1 Z.2
G1 E1.6 F1800
;TYPE:Support
;WIDTH:0.6
G1 F600
G1 X76.547 Y104.062 E.00887
G1 X76.687 Y103.908 E.00917
G1 X76.687 Y104.123 E.00947
G1 E-1.6 F2400
;WIPE_START
G1 F600
G1 X76.687 Y103.908
G1 X76.547 Y104.062
G1 X76.687 Y104.207
;WIPE_END
G1 X75.784 Y103.662 Z.6 F9000
G1 Z.2
G1 E1.6 F1800
;TYPE:Support interface
;WIDTH:0.4
G1 F600
G2 X75.947 Y103.808 I.597 J-.501 E.00622
G1 X75.956 Y103.791 E.00055
G2 X76.059 Y103.805 I.067 J-.11 E.00302
G2 X76.298 Y103.53 I-.069 J-.301 E.01096
G2 X76.059 Y103.256 I-.307 J.026 E.01096
G2 X75.758 Y103.491 I-.021 J.284 E.01184
G1 E-1.6 F2400
;WIPE_START
G1 F600
G1 X76.059 Y103.256
G1 X76.298 Y103.53
G1 X76.059 Y103.805
G1 X75.956 Y103.791
G1 X75.947 Y103.808
G1 X75.784 Y103.662
;WIPE_END
G1 X77.666 Y111.058 Z.6 F9000
G1 X78.698 Y115.111 Z.6
G1 Z.2
G1 E1.6 F1800
;TYPE:Support
;WIDTH:0.6
G1 F600
G1 X77.857 Y115.111 E.03697
G1 X77.857 Y114.99 E.00532
G1 X78.696 Y115.027 E.03693
G1 X78.421 Y115.589 F9000
;TYPE:Support interface
;WIDTH:0.4
G1 F600
G1 X78.689 Y115.589 E.00755
G1 X78.688 Y115.865 E.00778
G1 X78.458 Y115.628 E.00933
G1 E-1.6 F2400
;WIPE_START
G1 F600
G1 X78.688 Y115.865
G1 X78.689 Y115.589
G1 X78.421 Y115.589
;WIPE_END
G1 X85.917 Y117.024 Z.6 F9000
G1 X125.693 Y124.635 Z.6
M73 P2 R48
M73 P2 R48
G1 Z.2
G1 E1.6 F1800
G1 F600
G3 X125.166 Y124.348 I.246 J-1.079 E.01714
G1 X125.359 Y124.147 E.00785
G1 X125.87 Y124.658 E.0204
G2 X125.987 Y124.659 I.064 J-.841 E.0033
G3 X126.215 Y124.446 I.374 J.173 E.00902
G2 X126.738 Y124.314 I.189 J-.356 E.01668
G1 X125.978 Y123.554 E.03032
G2 X127.034 Y123.398 I.482 J-.386 E.03634
G1 X127.652 Y124.016 E.02468
G3 X128.344 Y123.496 I1.03 J.649 E.02496
G1 X127.653 Y122.805 E.02756
G2 X128.191 Y122.512 I-.287 J-1.168 E.01747
G3 X128.643 Y123.393 I-.175 J.646 E.03143
G1 X128.639 Y123.411 E.0005
G3 X128.514 Y123.444 I-.107 J-.154 E.00372
G1 E-1.6 F2400
;WIPE_START
G1 F600
G1 X128.639 Y123.411
G1 X128.643 Y123.393
G1 X128.554 Y122.759
G1 X128.351 Y122.469
G1 X128.191 Y122.512
G1 X127.653 Y122.805
G1 X127.711 Y122.862
;WIPE_END
G1 X135.297 Y122.028 Z.6 F9000
G1 X148.829 Y120.54 Z.6
G1 Z.2
G1 E1.6 F1800
;TYPE:Support
;WIDTH:0.6
G1 F600
G3 X150.04 Y124.814 I-.353 J2.408 E.24618
G3 X148.205 Y128.385 I-1.95 J1.255 E.2136
G3 X145.182 Y128.923 I-1.839 J-1.57 E.14639
G3 X142.684 Y128.266 I-.593 J-2.823 E.11783
G2 X141.026 Y128.535 I.882 J10.694 E.07402
G2 X139.668 Y128.623 I-.576 J1.632 E.06153
G3 X138.101 Y128.686 I-.832 J-1.17 E.07301
G1 X137.567 Y128.804 E.02407
G1 X136.416 Y127.819 E.06666
G3 X132.2 Y127.353 I-1.913 J-2.001 E.21266
G3 X129.44 Y127.512 I-1.477 J-1.601 E.13179
G2 X128.5 Y128.235 I.563 J1.704 E.0532
G3 X126.181 Y128.373 I-1.304 J-2.361 E.10568
G3 X124.48 Y128.672 I-1.45 J-3.266 E.07678
G2 X121.282 Y129.787 I-.049 J5.001 E.15205
G3 X117.939 Y128.903 I-.846 J-3.56 E.1585
G3 X116.551 Y127.73 I.924 J-2.501 E.08159
G3 X115.153 Y126.111 I.654 J-1.977 E.09884
G2 X118.052 Y123.54 I-40.584 J-48.678 E.17053
M73 P2 R47
M73 P2 R47
G2 X124.974 Y123.855 I4.071 J-13.255 E.30816
G3 X124.346 Y123.991 I-.386 J-.267 E.03109
G2 X126.362 Y125.086 I1.61 J-.56 E.11076
G1 X126.409 Y124.946 E.00648
G2 X127.107 Y124.703 I-.026 J-1.202 E.03309
G2 X127.794 Y124.77 I.52 J-1.776 E.03052
G3 X129.067 Y123.701 I1.659 J.681 E.07608
G2 X129.011 Y122.61 I-1.601 J-.465 E.04896
G1 X148.144 Y122.61 E.84197
G1 X148.525 Y122.229 E.0237
G1 X148.525 Y120.509 E.07572
G1 X148.745 Y120.532 E.00975
G1 X150.234 Y124.092 F9000
G1 F600
G1 X150.234 Y122.126 E.08653
G2 X149.615 Y121.392 I-1.171 J.359 E.04342
G1 X149.615 Y126.966 E.24528
G3 X148.996 Y127.598 I-1.052 J-.41 E.04001
G1 X148.996 Y122.468 E.22577
G1 X148.377 Y123.087 E.03852
G1 X148.377 Y127.849 E.20955
G2 X147.758 Y128.15 I-.165 J.448 E.03383
G1 X147.758 Y123.111 E.22171
G1 X147.139 Y123.111 E.02724
G1 X147.139 Y128.591 E.24113
G3 X146.52 Y128.731 I-.474 J-.656 E.0287
G1 X146.52 Y123.111 E.24731
G1 X145.901 Y123.111 E.02724
G1 X145.901 Y128.667 E.24448
G3 X145.282 Y128.412 I.866 J-2.976 E.02953
G1 X145.282 Y123.111 E.23324
G1 X144.663 Y123.111 E.02724
G1 X144.663 Y128.463 E.23549
G3 X144.044 Y128.419 I-.159 J-2.13 E.0274
G1 X144.044 Y123.111 E.23355
G1 X143.425 Y123.111 E.02724
G1 X143.425 Y128.17 E.22259
G2 X142.806 Y127.775 I-1.908 J2.312 E.03238
G1 X142.806 Y123.111 E.20523
G1 X142.187 Y123.111 E.02724
G1 X142.187 Y127.722 E.20291
G3 X141.568 Y127.962 I-1.183 J-2.139 E.02929
G1 X141.568 Y123.111 E.21344
G1 X140.949 Y123.111 E.02724
G1 X140.949 Y128.024 E.2162
G3 X140.33 Y127.91 I.053 J-2.029 E.02781
G1 X140.33 Y123.111 E.21119
G1 X139.711 Y123.111 E.02724
G1 X139.711 Y128.039 E.21684
G3 X139.092 Y128.264 I-.874 J-1.443 E.02916
G1 X139.092 Y123.111 E.22673
G1 X138.473 Y123.111 E.02724
G1 X138.473 Y128.277 E.22732
G2 X137.854 Y128.227 I-.353 J.513 E.02861
G1 X137.854 Y123.111 E.22511
G1 X137.235 Y123.111 E.02724
G1 X137.235 Y127.86 E.20896
G1 X136.616 Y127.33 E.03585
G1 X136.616 Y123.111 E.18564
G1 X135.997 Y123.111 E.02724
G1 X135.997 Y127.516 E.19385
G3 X135.378 Y127.931 I-1.007 J-.836 E.03323
G1 X135.378 Y123.111 E.21207
G1 X134.759 Y123.111 E.02724
G1 X134.759 Y128.101 E.21956
G3 X134.14 Y128.091 I-.283 J-1.752 E.02738
G1 X134.14 Y123.111 E.21915
G1 X133.521 Y123.111 E.02724
G1 X133.521 Y127.878 E.20974
G3 X132.902 Y127.412 I.333 J-1.087 E.03478
G1 X132.902 Y123.111 E.18925
G1 X132.283 Y123.111 E.02724
G1 X132.283 Y126.674 E.15676
G1 X131.664 Y127.121 E.03362
M73 P3 R47
M73 P3 R47
G1 X131.664 Y123.111 E.17646
G1 X131.045 Y123.111 E.02724
G1 X131.045 Y127.327 E.18553
G3 X130.426 Y127.333 I-.316 J-.777 E.0279
G1 X130.426 Y123.111 E.18577
G1 X129.807 Y123.111 E.02724
G1 X129.807 Y127.142 E.17737
G2 X129.188 Y127.058 I-.354 J.287 E.03029
G1 X129.188 Y124.222 E.1248
G3 X128.569 Y124.482 I-2.28 J-4.571 E.02956
G1 X128.569 Y127.509 E.13323
G3 X127.95 Y127.914 I-.88 J-.671 E.03317
G1 X127.95 Y125.267 E.11648
G3 X127.331 Y125.264 I-.294 J-3.361 E.02728
G1 X127.331 Y128.081 E.12398
G3 X126.712 Y127.976 I-.069 J-1.461 E.02785
G1 X126.712 Y125.533 E.10747
G3 X126.093 Y125.633 I-1.017 J-4.351 E.02761
G1 X126.093 Y127.839 E.09709
G3 X125.474 Y128.088 I-.724 J-.905 E.02978
G1 X125.474 Y125.591 E.10991
G3 X124.855 Y125.341 I.468 J-2.049 E.0295
G1 X124.855 Y128.174 E.12469
G2 X124.236 Y128.224 I-.236 J.943 E.02781
G1 X124.236 Y124.759 E.15248
G3 X124.084 Y124.517 I1.652 J-1.211 E.0126
G3 X123.617 Y124.566 I-.552 J-3.008 E.02066
G1 X123.617 Y128.305 E.16454
G2 X122.999 Y128.328 I-.292 J.473 E.02891
G1 X122.999 Y124.616 E.16335
G3 X122.38 Y124.641 I-.464 J-3.765 E.02729
G1 X122.38 Y128.579 E.17329
G2 X121.761 Y128.952 I.037 J.762 E.03312
G1 X121.761 Y124.636 E.18991
G3 X121.142 Y124.612 I-.163 J-3.826 E.02729
G1 X121.142 Y129.292 E.20595
G3 X120.523 Y129.427 I-.522 J-.914 E.02831
G1 X120.523 Y124.552 E.21452
G3 X119.904 Y124.478 I.156 J-3.94 E.02746
G1 X119.904 Y129.406 E.21687
G3 X119.285 Y129.213 I.055 J-1.265 E.02885
G1 X119.285 Y124.361 E.21352
G3 X118.666 Y124.235 I.519 J-4.122 E.02783
G1 X118.666 Y128.806 E.20119
G2 X118.047 Y128.385 I-1.024 J.839 E.03341
G1 X118.047 Y124.237 E.18253
G1 X117.428 Y124.827 E.03762
G1 X117.428 Y127.999 E.13959
G2 X116.809 Y127.3 I-1.275 J.506 E.04192
G1 X116.809 Y125.416 E.0829
G3 X116.19 Y125.872 I-1.372 J-1.215 E.03408
G1 X116.19 Y127.229 E.05971
G1 E-1.6 F2400
;WIPE_START
G1 F600
G1 X116.19 Y125.872
G1 X116.708 Y125.491
;WIPE_END
G1 X121.564 Y119.602 Z.6 F9000
G1 X145.629 Y90.42 Z.6
G1 Z.2
G1 E1.6 F1800
G1 F600
G3 X147.209 Y92.03 I-1.401 J2.957 E.10133
G3 X151.635 Y95.054 I1.397 J2.706 E.28839
G3 X151.007 Y96.877 I-2.365 J.205 E.08737
G3 X150.448 Y99.924 I-3.148 J.997 E.14188
G3 X148.34 Y100.496 I-1.694 J-2.071 E.09902
G1 X148.525 Y100.311 E.01154
G1 X148.525 Y97.772 E.11171
G1 X148.144 Y97.391 E.0237
G1 X128.533 Y97.391 E.86302
G2 X117.982 Y96.483 I-6.405 J12.673 E.47754
G1 X114.783 Y93.344 E.19723
G1 X114.244 Y93.349 E.0237
G1 X113.431 Y94.178 E.0511
G1 X113.674 Y93.062 E.05027
G3 X117.431 Y91.833 I2.348 J.82 E.20105
G3 X120.421 Y92.285 I1.189 J2.25 E.14248
G3 X123.385 Y93.259 I.853 J2.4 E.14776
G3 X125.639 Y95.992 I-.301 J2.545 E.17214
G3 X128.949 Y94.585 I2.387 J1.018 E.17484
G3 X130.601 Y94.272 I1.532 J3.568 E.07456
G3 X132.683 Y93.597 I1.697 J1.686 E.10004
G3 X135.8 Y93.266 I1.749 J1.627 E.15048
G3 X139.76 Y92.102 I2.604 J1.542 E.19984
G2 X140.855 Y91.593 I.184 J-1.036 E.0566
G2 X143.017 Y90.509 I-1.114 J-4.919 E.1075
G3 X145.548 Y90.399 I1.401 J3.081 E.11424
G1 X150.852 Y96.656 F9000
G1 F600
G1 X150.852 Y93.521 E.13794
G2 X150.234 Y92.805 I-2.104 J1.195 E.0419
G1 X150.234 Y99.347 E.28785
G3 X149.615 Y99.838 I-.839 J-.421 E.03589
G1 X149.615 Y92.419 E.32646
G2 X148.996 Y92.236 I-.684 J1.169 E.02869
G1 X148.996 Y97.534 E.23314
G1 X148.377 Y96.915 E.03852
G1 X148.377 Y92.213 E.20689
G2 X147.758 Y92.326 I-.105 J1.178 E.02802
G1 X147.758 Y96.89 E.20084
G1 X147.139 Y96.89 E.02724
G1 X147.139 Y92.617 E.18805
G1 X146.967 Y92.697 E.00832
G2 X146.52 Y91.785 I-1.742 J.289 E.04537
G1 X146.52 Y96.89 E.22467
G1 X145.901 Y96.89 E.02724
G1 X145.901 Y91.176 E.25147
G2 X145.282 Y90.847 I-.855 J.866 E.03127
G1 X145.282 Y96.89 E.26591
G1 X144.663 Y96.89 E.02724
G1 X144.663 Y90.697 E.27255
G1 X144.044 Y90.717 E.02725
M73 P4 R47
M73 P4 R47
G1 X144.044 Y96.89 E.27163
G1 X143.425 Y96.89 E.02724
G1 X143.425 Y90.9 E.26359
G2 X142.806 Y91.274 I.312 J1.216 E.03228
G1 X142.806 Y96.89 E.24713
G1 X142.187 Y96.89 E.02724
G1 X142.187 Y91.669 E.22973
G2 X141.568 Y91.827 I-.013 J1.246 E.02842
G1 X141.568 Y96.89 E.22282
G1 X140.949 Y96.89 E.02724
G1 X140.949 Y92.178 E.20737
G3 X140.33 Y92.544 I-.571 J-.259 E.03371
G1 X140.33 Y96.89 E.19125
G1 X139.711 Y96.89 E.02724
G1 X139.711 Y92.672 E.18561
G1 X139.092 Y92.463 E.02876
G1 X139.092 Y96.89 E.19483
G1 X138.473 Y96.89 E.02724
G1 X138.473 Y92.305 E.20178
G2 X137.854 Y92.334 I-.204 J2.26 E.02735
G1 X137.854 Y96.89 E.2005
G1 X137.235 Y96.89 E.02724
G1 X137.235 Y92.568 E.1902
G2 X136.616 Y93.07 I.384 J1.106 E.0358
G1 X136.616 Y96.89 E.16808
G1 X135.997 Y96.89 E.02724
G1 X135.997 Y93.813 E.13542
