;TIME:2447.49
;Filament used:3.20975m
;Layer height:0.200
; HEADER_BLOCK_START
; generated by Creality_Print V6.0.5.1840 on 2025-06-02 at 18:51:03
; total layer number: 220
; filament_density: 1.24
; filament_diameter: 1.75
; max_z_height: 44.00
; HEADER_BLOCK_END

; MINX = 73.81
; MINY = 95.50
; MINZ = 0.00
; MAXX = 146.19
; MAXY = 124.50
; MAXZ = 44.00

; THUMBNAIL_BLOCK_START

;
; THUMBNAIL_BLOCK_END

; THUMBNAIL_BLOCK_START

;
; THUMBNAIL_BLOCK_END

; external perimeters extrusion width = 0.42mm
; perimeters extrusion width = 0.45mm
; infill extrusion width = 0.45mm
; solid infill extrusion width = 0.42mm
; top infill extrusion width = 0.42mm
; support material extrusion width = 0.40mm
; first layer extrusion width = 0.60mm

; EXECUTABLE_BLOCK_START
M73 P0 R40
M201 X5000 Y5000 Z500 E5000
M203 X500 Y500 Z30 E100
M204 P5000 R2500 T5000 ; sets acceleration (P, T) and retract acceleration (R), mm/sec^2
M205 X10.00 Y10.00 Z0.40 E5.00 ; sets the jerk limits, mm/sec
;TYPE:Custom
M220 S100 ;Reset Feedrate 
M221 S100 ;Reset Flowrate 
 
M140 S75 ;Set final bed temp 
G28 ;Home 
 
G92 E0 ;Reset Extruder 
G1 Z2.0 F3000 ;Move Z Axis up 
M104 S200 ;Set final nozzle temp 
G1 X-2.1 Y20 Z0.28 F5000.0 ;Move to start position 
M190 S75 ;Wait for bed temp to stabilize 
M109 S200 ;Wait for nozzle temp to stabilize 
G1 X-2.1 Y145.0 Z0.28 F1500.0 E15 ;Draw the first line 
G1 X-2.4 Y145.0 Z0.28 F5000.0 ;Move to side a little 
G1 X-2.4 Y20 Z0.28 F1500.0 E30 ;Draw the second line 
G92 E0  ;Reset Extruder 
G1 E-1.0000 F1800 ;Retract a bit 
G1 Z2.0 F3000 ;Move Z Axis up 
G1 E0.0000 F1800
G90
G21
M83 ; use relative distances for extrusion
" "
G1 E-1.6 F2400
M106 S0
;LAYER_CHANGE
;Z:0.2
;HEIGHT:0.2
;BEFORE_LAYER_CHANGE
;0.2
G92 E0

;_SET_FAN_SPEED_CHANGING_LAYER
M204 P125
M205 X10 Y10
; printing object Braccio Corto 1 id:0 copy 0
M204 T125
G1 Z.4 F9000
G1 X81.322 Y120.064
G1 Z.2
G1 E1.6 F1800
;TYPE:Inner wall
;WIDTH:0.599999
G1 F600
G1 X144.628 Y120.064 E2.78583
G1 X144.628 Y122.936 E.12637
G1 X77.62 Y122.936 E2.94872
G1 X77.627 Y118.793 E.1823
M73 P1 R40
;WIDTH:0.627721
M73 P1 R40
G1 X77.642 Y118.411 E.01768
;WIDTH:0.655442
G2 X77.644 Y117.511 I-7.203 J-.466 E.04358
;WIDTH:0.628344
G1 X77.663 Y103.491 E.64833
;WIDTH:0.619564
G1 X77.661 Y102.371 E.051
;WIDTH:0.607109
G1 X77.658 Y101.75 E.02772
;WIDTH:0.599999
G1 X77.663 Y99.34 E.10604
G1 X80.935 Y99.342 E.14402
G1 X80.162 Y99.786 E.03925
G1 X79.488 Y100.373 E.03934
G1 X78.942 Y101.081 E.03934
G1 X78.544 Y101.882 E.03934
;WIDTH:0.649142
G1 X78.286 Y102.742 E.04302
G1 X78.236 Y103.492 E.03597
;WIDTH:0.628344
G1 X78.229 Y117.511 E.64833
;WIDTH:0.660877
G1 X78.272 Y118.047 E.02623
G1 X78.389 Y118.333 E.01508
;WIDTH:0.630438
G1 X78.505 Y118.619 E.01434
;WIDTH:0.599999
G1 X78.873 Y119.177 E.02941
G1 X79.373 Y119.621 E.02941
G1 X79.832 Y119.862 E.0228
G1 X80.322 Y120.014 E.02259
G1 X80.796 Y120.064 E.02098
G1 X81.282 Y120.064 E.02135
G1 X80.803 Y119.507 F9000
G1 F600
G1 X145.185 Y119.507 E2.83317
G1 X145.185 Y123.493 E.1754
G1 X77.062 Y123.493 E2.99779
G1 X77.107 Y98.782 E1.0874
G1 X81.205 Y98.785 E.18037
;WIDTH:0.636049
G1 X81.493 Y98.803 E.01352
;WIDTH:0.672098
G1 X81.781 Y98.821 E.01434
M73 P1 R39
;WIDTH:0.708147
M73 P1 R39
G2 X82.799 Y98.823 I.521 J-5.955 E.05357
;WIDTH:0.674905
G1 X90.5 Y98.827 E.38445
;WIDTH:0.672425
G1 X90.918 Y98.816 E.02075
;WIDTH:0.65034
G1 X92.024 Y98.817 E.05309
G3 X91.012 Y99.409 I-1.575 J-1.533 E.05695
M73 P2 R39
;WIDTH:0.672425
M73 P2 R39
G1 X90.5 Y99.457 E.02554
;WIDTH:0.674905
G1 X82.751 Y99.455 E.38685
;WIDTH:0.708147
G1 X82.102 Y99.503 E.03422
G1 X81.936 Y99.555 E.00912
;WIDTH:0.671128
G1 X81.568 Y99.694 E.01952
;WIDTH:0.635564
G1 X81.2 Y99.832 E.01841
;WIDTH:0.599999
G1 X80.515 Y100.216 E.03455
G1 X79.919 Y100.727 E.03455
G1 X79.433 Y101.344 E.03455
G1 X79.077 Y102.043 E.03455
G1 X78.865 Y102.799 E.03455
G1 X78.801 Y103.49 E.03053
G1 X78.801 Y117.511 E.61701
G1 X78.846 Y117.913 E.01778
G1 X79.02 Y118.406 E.02303
G1 X79.315 Y118.838 E.02302
G1 X79.712 Y119.179 E.02303
G1 X80.184 Y119.405 E.02303
G1 X80.763 Y119.502 E.02583
G1 E-1.6 F2400
;WIPE_START
G1 F9000
G1 X82.763 Y119.502
;WIPE_END
G1 X80.03 Y118.72 Z.6
G1 Z.2
G1 E1.6 F1800
;TYPE:Outer wall
G1 F600
G1 X80.052 Y118.737 E.0012
G1 X80.397 Y118.89 E.01665
G1 X80.796 Y118.95 E.01775
G1 X145.742 Y118.95 E2.85797
G1 X145.742 Y124.05 E.22443
G1 X76.847 Y124.05 E3.03177
G1 X76.504 Y124.014 E.01517
G1 X76.55 Y98.429 E1.12591
G1 X76.742 Y98.247 E.01161
G1 X76.847 Y98.225 E.00476
G1 X92.796 Y98.235 E.70183
G1 X92.967 Y98.305 E.00811
G1 X92.759 Y98.805 E.02383
G1 X92.428 Y99.236 E.02392
G1 X92.007 Y99.596 E.02436
G1 X91.528 Y99.853 E.02392
G1 X91.01 Y100.001 E.02371
G1 X90.5 Y100.05 E.02255
G1 X82.784 Y100.05 E.33953
G1 X82.108 Y100.122 E.02994
G1 X81.462 Y100.324 E.02976
G1 X80.869 Y100.647 E.02976
G1 X80.349 Y101.08 E.02976
G1 X79.924 Y101.606 E.02976
G1 X79.61 Y102.205 E.02976
G1 X79.419 Y102.854 E.02976
G1 X79.358 Y103.491 E.02817
G1 X79.358 Y117.511 E.61696
G1 X79.398 Y117.84 E.01458
M73 P3 R39
M73 P3 R39
G1 X79.534 Y118.193 E.01665
G1 X79.757 Y118.499 E.01665
G1 X79.999 Y118.695 E.01369
G1 E-1.6 F2400
;WIPE_START
G1 F9000
G1 X80.052 Y118.737
G1 X80.397 Y118.89
G1 X80.796 Y118.95
G1 X81.947 Y118.95
;WIPE_END
G1 Z.6
G1 X80.143 Y120.107
G1 Z.6
G1 Z.2
G1 E1.6 F1800
;TYPE:Bottom surface
;WIDTH:0.600845
G1 F1200
G1 X82.582 Y122.546 E.15198
G1 X83.371 Y122.546 E.03477
G1 X81.279 Y120.454 E.13038
G1 X82.068 Y120.454 E.03477
G1 X84.16 Y122.546 E.13038
G1 X84.949 Y122.546 E.03477
G1 X82.857 Y120.454 E.13038
G1 X83.646 Y120.454 E.03477
G1 X85.738 Y122.546 E.13038
G1 X86.527 Y122.546 E.03477
G1 X84.435 Y120.454 E.13038
G1 X85.224 Y120.454 E.03477
G1 X87.316 Y122.546 E.13038
G1 X88.105 Y122.546 E.03477
G1 X86.013 Y120.454 E.13038
G1 X86.802 Y120.454 E.03477
G1 X88.894 Y122.546 E.13038
G1 X89.683 Y122.546 E.03477
G1 X87.591 Y120.454 E.13038
G1 X88.38 Y120.454 E.03477
G1 X90.472 Y122.546 E.13038
G1 X91.261 Y122.546 E.03477
G1 X89.169 Y120.454 E.13038
G1 X89.958 Y120.454 E.03477
G1 X92.05 Y122.546 E.13038
G1 X92.839 Y122.546 E.03477
G1 X90.747 Y120.454 E.13038
G1 X91.536 Y120.454 E.03477
G1 X93.628 Y122.546 E.13038
G1 X94.417 Y122.546 E.03477
G1 X92.325 Y120.454 E.13038
G1 X93.114 Y120.454 E.03477
G1 X95.206 Y122.546 E.13038
G1 X95.995 Y122.546 E.03477
G1 X93.903 Y120.454 E.13038
G1 X94.692 Y120.454 E.03477
G1 X96.784 Y122.546 E.13038
G1 X97.573 Y122.546 E.03477
G1 X95.481 Y120.454 E.13038
G1 X96.27 Y120.454 E.03477
G1 X98.362 Y122.546 E.13038
G1 X99.151 Y122.546 E.03477
G1 X97.059 Y120.454 E.13038
G1 X97.848 Y120.454 E.03477
G1 X99.94 Y122.546 E.13038
G1 X100.729 Y122.546 E.03477
G1 X98.637 Y120.454 E.13038
G1 X99.426 Y120.454 E.03477
G1 X101.518 Y122.546 E.13038
G1 X102.307 Y122.546 E.03477
G1 X100.215 Y120.454 E.13038
G1 X101.004 Y120.454 E.03477
G1 X103.096 Y122.546 E.13038
G1 X103.885 Y122.546 E.03477
G1 X101.793 Y120.454 E.13038
G1 X102.582 Y120.454 E.03477
G1 X104.674 Y122.546 E.13038
G1 X105.463 Y122.546 E.03477
G1 X103.371 Y120.454 E.13038
G1 X104.161 Y120.454 E.03477
G1 X106.252 Y122.546 E.13038
G1 X107.041 Y122.546 E.03477
G1 X104.95 Y120.454 E.13038
G1 X105.739 Y120.454 E.03477
G1 X107.83 Y122.546 E.13038
G1 X108.619 Y122.546 E.03477
G1 X106.528 Y120.454 E.13038
G1 X107.317 Y120.454 E.03477
G1 X109.408 Y122.546 E.13038
G1 X110.197 Y122.546 E.03477
G1 X108.106 Y120.454 E.13038
G1 X108.895 Y120.454 E.03477
G1 X110.986 Y122.546 E.13038
G1 X111.775 Y122.546 E.03477
G1 X109.684 Y120.454 E.13038
G1 X110.473 Y120.454 E.03477
G1 X112.565 Y122.546 E.13038
G1 X113.354 Y122.546 E.03477
G1 X111.262 Y120.454 E.13038
G1 X112.051 Y120.454 E.03477
G1 X114.143 Y122.546 E.13038
G1 X114.932 Y122.546 E.03477
G1 X112.84 Y120.454 E.13038
G1 X113.629 Y120.454 E.03477
G1 X115.721 Y122.546 E.13038
G1 X116.51 Y122.546 E.03477
G1 X114.418 Y120.454 E.13038
G1 X115.207 Y120.454 E.03477
G1 X117.299 Y122.546 E.13038
G1 X118.088 Y122.546 E.03477
G1 X115.996 Y120.454 E.13038
G1 X116.785 Y120.454 E.03477
G1 X118.877 Y122.546 E.13038
G1 X119.666 Y122.546 E.03477
G1 X117.574 Y120.454 E.13038
G1 X118.363 Y120.454 E.03477
G1 X120.455 Y122.546 E.13038
G1 X121.244 Y122.546 E.03477
G1 X119.152 Y120.454 E.13038
G1 X119.941 Y120.454 E.03477
G1 X122.033 Y122.546 E.13038
G1 X122.822 Y122.546 E.03477
G1 X120.73 Y120.454 E.13038
G1 X121.519 Y120.454 E.03477
G1 X123.611 Y122.546 E.13038
G1 X124.4 Y122.546 E.03477
G1 X122.308 Y120.454 E.13038
G1 X123.097 Y120.454 E.03477
G1 X125.189 Y122.546 E.13038
G1 X125.978 Y122.546 E.03477
G1 X123.886 Y120.454 E.13038
G1 X124.675 Y120.454 E.03477
G1 X126.767 Y122.546 E.13038
G1 X127.556 Y122.546 E.03477
G1 X125.464 Y120.454 E.13038
G1 X126.253 Y120.454 E.03477
G1 X128.345 Y122.546 E.13038
G1 X129.134 Y122.546 E.03477
G1 X127.042 Y120.454 E.13038
G1 X127.831 Y120.454 E.03477
G1 X129.923 Y122.546 E.13038
G1 X130.712 Y122.546 E.03477
G1 X128.62 Y120.454 E.13038
G1 X129.409 Y120.454 E.03477
G1 X131.501 Y122.546 E.13038
G1 X132.29 Y122.546 E.03477
G1 X130.198 Y120.454 E.13038
G1 X130.987 Y120.454 E.03477
G1 X133.079 Y122.546 E.13038
G1 X133.868 Y122.546 E.03477
G1 X131.776 Y120.454 E.13038
G1 X132.565 Y120.454 E.03477
G1 X134.657 Y122.546 E.13038
G1 X135.446 Y122.546 E.03477
G1 X133.354 Y120.454 E.13038
G1 X134.143 Y120.454 E.03477
G1 X136.235 Y122.546 E.13038
G1 X137.024 Y122.546 E.03477
G1 X134.932 Y120.454 E.13038
G1 X135.722 Y120.454 E.03477
G1 X137.813 Y122.546 E.13038
G1 X138.602 Y122.546 E.03477
G1 X136.511 Y120.454 E.13038
G1 X137.3 Y120.454 E.03477
G1 X139.391 Y122.546 E.13038
G1 X140.18 Y122.546 E.03477
G1 X138.089 Y120.454 E.13038
G1 X138.878 Y120.454 E.03477
G1 X140.969 Y122.546 E.13038
G1 X141.758 Y122.546 E.03477
G1 X139.667 Y120.454 E.13038
G1 X140.456 Y120.454 E.03477
G1 X142.547 Y122.546 E.13038
G1 X143.336 Y122.546 E.03477
G1 X141.245 Y120.454 E.13038
G1 X142.034 Y120.454 E.03477
G1 X144.126 Y122.546 E.13038
G1 X144.238 Y122.546 E.00497
G1 X144.238 Y121.87 E.0298
G1 X142.823 Y120.454 E.08823
G1 X143.612 Y120.454 E.03477
G1 X144.489 Y121.331 E.05467
G1 E-1.6 F2400
;WIPE_START
G1 F9000
G1 X143.612 Y120.454
G1 X142.852 Y120.454
;WIPE_END
G1 X135.226 Y120.748 Z.6
G1 X82.043 Y122.797 Z.6
G1 Z.2
G1 E1.6 F1800
G1 F1200
G1 X78.018 Y118.772 E.25085
G1 X78.017 Y119.559 E.0347
G1 X81.003 Y122.546 E.18615
G1 X80.214 Y122.546 E.03477
G1 X78.015 Y120.347 E.13708
G1 X78.014 Y121.134 E.0347
G1 X79.425 Y122.546 E.088
G1 X78.636 Y122.546 E.03477
G1 X77.762 Y121.671 E.05452
G1 E-1.6 F2400
;WIPE_START
G1 F9000
G1 X78.636 Y122.546
G1 X79.399 Y122.546
;WIPE_END
G1 X79.09 Y114.92 Z.6
G1 X78.545 Y101.527 Z.6
G1 Z.2
M73 P4 R39
M73 P4 R39
G1 E1.6 F1800
;WIDTH:0.65892
G1 F1200
G1 X78.053 Y101.035 E.03388
G1 X78.052 Y100.163 E.04242
G1 X78.673 Y100.784 E.04271
G3 X79.051 Y100.291 I2.692 J1.674 E.03028
G1 X78.491 Y99.73 E.03856
G1 X79.363 Y99.731 E.04242
G1 X79.654 Y100.022 E.02005
; stop printing object Braccio Corto 1 id:0 copy 0
;TIME_ELAPSED:98.902687

;LAYER_CHANGE
;Z:0.4
;HEIGHT:0.2
;BEFORE_LAYER_CHANGE
;0.4
G92 E0

G1 E-1.6 F2400
;WIPE_START
G1 F9000
G1 X79.363 Y99.731
G1 X78.491 Y99.73
G1 X78.997 Y100.237
;WIPE_END
;_SET_FAN_SPEED_CHANGING_LAYER
M204 P2500
; printing object Braccio Corto 1 id:0 copy 0
M204 T2500
G1 X79.705 Y107.836 Z.6
G1 X80.793 Y119.508 Z.6
G1 Z.4
G1 E1.6 F1800
M204 P2000
;TYPE:Inner wall
;WIDTH:0.449999
G1 F5400
G1 X80.806 Y119.509 E.00044
G1 X145.183 Y119.509 E2.07013
G1 X145.183 Y123.491 E.12804
G1 X76.875 Y123.491 E2.19655
G1 X76.517 Y123.457 E.01155
G1 X76.515 Y98.735 E.79496
G1 X76.623 Y98.336 E.01332
G3 X76.901 Y98.227 I.313 J.392 E.00973
G1 X92.404 Y98.247 E.49852
G3 X90.986 Y99.442 I-1.899 J-.816 E.06182
G1 X90.486 Y99.491 E.01616
G1 X82.748 Y99.491 E.2488
G1 X81.931 Y99.591 E.02647
G1 X81.186 Y99.837 E.02525
G1 X80.502 Y100.224 E.02525
G1 X79.908 Y100.737 E.02525
G1 X79.424 Y101.356 E.02525
G1 X79.071 Y102.057 E.02525
G1 X78.861 Y102.814 E.02525
G1 X78.798 Y103.499 E.02213
G1 X78.798 Y117.588 E.45304
G1 X78.908 Y118.142 E.01819
G1 X79.139 Y118.612 E.01683
G1 X79.484 Y119.006 E.01683
G1 X79.919 Y119.297 E.01683
G1 X80.414 Y119.466 E.01683
G1 X80.753 Y119.503 E.01096
G1 X80.501 Y119.052 F9000
G1 F5400
G1 X80.806 Y119.102 E.00994
G1 X145.59 Y119.102 E2.08322
G1 X145.59 Y123.898 E.15422
G1 X76.875 Y123.898 E2.20962
G1 X76.385 Y123.853 E.01582
G1 F4510.017
G1 X76.11 Y123.768 E.00926
G1 F4508.752
G1 X76.11 Y122.925 E.02711
G1 F4002.178
G1 X76.108 Y99.457 E.75464
G1 F4000.865
G1 X76.108 Y98.582 E.02814
G1 F3730.702
G1 X76.283 Y98.073 E.01731
G1 X76.586 Y97.872 E.01169
G1 F4319.617
G1 X76.863 Y97.82 E.00906
G1 X77.718 Y97.821 E.02749
G1 F4337.226
G1 X92.073 Y97.84 E.4616
G1 F4445.631
G1 X92.92 Y97.841 E.02724
G1 X92.838 Y98.264 E.01386
G1 F5400
G1 X92.656 Y98.67 E.01431
G1 X92.358 Y99.095 E.01669
G1 X91.984 Y99.434 E.01623
G1 X91.549 Y99.686 E.01617
G1 X91.071 Y99.842 E.01617
G1 X90.486 Y99.898 E.0189
G1 X82.774 Y99.898 E.24799
G1 X82.05 Y99.981 E.02343
G1 X81.378 Y100.196 E.02269
G1 X80.761 Y100.539 E.0227
G1 X80.222 Y100.995 E.0227
G1 X79.783 Y101.548 E.0227
G1 X79.46 Y102.175 E.02268
G1 X79.266 Y102.854 E.02271
G1 X79.206 Y103.499 E.02083
G1 X79.206 Y117.501 E.45025
G1 X79.245 Y117.84 E.01097
G1 X79.386 Y118.233 E.01343
G1 X79.625 Y118.576 E.01344
G1 X79.943 Y118.845 E.01339
G1 X80.321 Y119.023 E.01344
G1 X80.461 Y119.046 E.00456
G1 X80.178 Y118.531 F9000
M204 P1000
;TYPE:Outer wall
;WIDTH:0.419999
G1 F2400
G1 X80.182 Y118.534 E.00017
G2 X80.806 Y118.71 I.631 J-1.039 E.01954
G1 X145.982 Y118.71 E1.94137
G1 X145.982 Y124.29 E.16621
G1 X145.352 Y124.29 E.01877
G1 X77.448 Y124.29 E2.02262
G1 X76.818 Y124.29 E.01877
M73 P4 R38
M73 P4 R38
G1 X76.267 Y124.236 E.01649
G1 X76.053 Y124.163 E.00673
G1 F3000
G1 X75.853 Y124.095 E.00629
M204 P500
;TYPE:Overhang wall
;WIDTH:0.389872
;HEIGHT:0.389872
G1 X75.718 Y124.049 E.00673
G1 X75.716 Y98.517 E1.2039
G1 X75.989 Y97.797 E.03627
G1 X76.435 Y97.502 E.02524
G1 X76.827 Y97.428 E.01881
G1 X92.965 Y97.449 E.76094
G1 X93.35 Y97.578 E.01913
G1 X93.335 Y97.758 E.00856
M204 P1000
;TYPE:Outer wall
;WIDTH:0.419999
;HEIGHT:0.2
G1 X93.318 Y97.955 E.00589
G1 F3091.617
G1 X93.309 Y97.988 E.00102
M106 S0
G1 F2400
G1 X93.171 Y98.494 E.01562
G1 X92.914 Y98.999 E.01688
G1 X92.564 Y99.437 E.0167
G1 X92.1 Y99.82 E.01792
G1 X91.574 Y100.09 E.01761
G1 X91.006 Y100.243 E.01752
G1 X90.486 Y100.29 E.01555
G1 X89.856 Y100.29 E.01877
G1 X83.426 Y100.29 E.19153
G1 X82.797 Y100.29 E.01874
G1 X82.163 Y100.356 E.01899
G1 X81.562 Y100.542 E.01874
G1 X81.009 Y100.842 E.01874
G1 X80.525 Y101.244 E.01874
G1 X80.129 Y101.732 E.01872
G1 X79.836 Y102.289 E.01875
G1 X79.656 Y102.892 E.01874
G1 X79.598 Y103.499 E.01816
G1 X79.598 Y104.129 E.01877
G1 X79.598 Y116.871 E.37954
G1 X79.598 Y117.501 E.01877
G1 X79.634 Y117.789 E.00865
G1 X79.749 Y118.083 E.0094
G1 X79.936 Y118.336 E.00937
G1 X80.146 Y118.506 E.00805
G1 E-1.6
;WIPE_START
G1 F9000
G1 X80.182 Y118.534
G1 X80.471 Y118.661
G1 X80.806 Y118.71
G1 X82.106 Y118.71
;WIPE_END
G1 Z.8
G1 X79.238 Y119.29
G1 Z.8
G1 Z.4
G1 E1.6 F1800
M204 P2500
;TYPE:Internal solid infill
G1 F10800
G1 X78.983 Y119.052 E.01041
G1 X78.665 Y118.571 E.01717
G1 X78.47 Y118.033 E.01704
G1 X78.406 Y117.513 E.01561
G1 X78.408 Y103.477 E.41808
G1 X78.517 Y102.543 E.02802
G1 X78.787 Y101.722 E.02572
G1 X78.926 Y101.471 E.00856
G1 X76.907 Y103.49 E.08503
G1 X76.909 Y121.619 E.54001
G1 X79.21 Y119.319 E.09691
G1 X78.178 Y119.248 F9000
;WIDTH:0.472381
G1 F10800
G1 X77.909 Y118.788 E.01805
G3 X77.691 Y118.138 I4.013 J-1.706 E.02329
G2 X77.689 Y119.737 I207.929 J1.124 E.05423
G1 X78.15 Y119.276 E.02211
G1 X77.691 Y118.138 F9000
;WIDTH:0.459699
G1 F10800
G1 X77.674 Y117.847 E.00961
;WIDTH:0.41006
G1 X77.658 Y117.555 E.00846
G1 X77.657 Y103.84 E.39777
G1 X78.029 Y103.8 F9000
;WIDTH:0.419999
G1 F10800
G3 X78.104 Y102.826 I4.615 J-.135 E.02915
G1 X77.284 Y103.646 E.03453
G1 X77.286 Y120.709 E.50825
G1 X78.699 Y119.296 E.05953
G3 X78.114 Y118.158 I2.429 J-1.97 E.03837
G1 X78.029 Y117.539 E.01862
G1 X78.029 Y103.84 E.40804
G1 X79.284 Y101.002 F9000
;WIDTH:0.38292
G1 F10800
G3 X80.188 Y100.087 I5.922 J4.943 E.03459
G1 X81.996 Y98.973 F9000
;WIDTH:0.440567
G1 F10800
