;TIME:1315.80
;Filament used:1.29927m
;Layer height:0.200
; HEADER_BLOCK_START
; generated by Creality_Print V6.0.5.1840 on 2025-06-04 at 22:15:11
; total layer number: 185
; filament_density: 1.24
; filament_diameter: 1.75
; max_z_height: 37.00
; HEADER_BLOCK_END

; MINX = 101.25
; MINY = 103.10
; MINZ = 0.00
; MAXX = 118.75
; MAXY = 116.90
; MAXZ = 37.00

; THUMBNAIL_BLOCK_START

;
; THUMBNAIL_BLOCK_END

; THUMBNAIL_BLOCK_START

;
; THUMBNAIL_BLOCK_END

; external perimeters extrusion width = 0.42mm
; perimeters extrusion width = 0.45mm
; infill extrusion width = 0.45mm
; solid infill extrusion width = 0.42mm
; top infill extrusion width = 0.42mm
; support material extrusion width = 0.40mm
; first layer extrusion width = 0.60mm

; EXECUTABLE_BLOCK_START
M73 P0 R21
M201 X5000 Y5000 Z500 E5000
M203 X500 Y500 Z30 E100
M204 P5000 R2500 T5000 ; sets acceleration (P, T) and retract acceleration (R), mm/sec^2
M205 X10.00 Y10.00 Z0.40 E5.00 ; sets the jerk limits, mm/sec
;TYPE:Custom
M220 S100 ;Reset Feedrate 
M221 S100 ;Reset Flowrate 
 
M140 S75 ;Set final bed temp 
G28 ;Home 
 
G92 E0 ;Reset Extruder 
G1 Z2.0 F3000 ;Move Z Axis up 
M104 S200 ;Set final nozzle temp 
G1 X-2.1 Y20 Z0.28 F5000.0 ;Move to start position 
M190 S75 ;Wait for bed temp to stabilize 
M109 S200 ;Wait for nozzle temp to stabilize 
G1 X-2.1 Y145.0 Z0.28 F1500.0 E15 ;Draw the first line 
G1 X-2.4 Y145.0 Z0.28 F5000.0 ;Move to side a little 
G1 X-2.4 Y20 Z0.28 F1500.0 E30 ;Draw the second line 
G92 E0  ;Reset Extruder 
G1 E-1.0000 F1800 ;Retract a bit 
G1 Z2.0 F3000 ;Move Z Axis up 
G1 E0.0000 F1800
G90
G21
M83 ; use relative distances for extrusion
" "
G1 E-1.6 F2400
M106 S0
;LAYER_CHANGE
;Z:0.2
;HEIGHT:0.2
;BEFORE_LAYER_CHANGE
;0.2
G92 E0

;_SET_FAN_SPEED_CHANGING_LAYER
M204 P125
M205 X10 Y10
; printing object Inserimento 2 id:8171063952611762432 copy 0
M204 T125
G1 Z.4 F9000
G1 X102.814 Y109.5
G1 Z.2
G1 E1.6 F1800
;TYPE:Inner wall
;WIDTH:0.599999
G1 F600
G1 X102.814 Y105.781 E.16365
G1 X102.792 Y105.393 E.01711
M73 P1 R21
;WIDTH:0.556535
M73 P1 R21
G1 X102.771 Y105.005 E.01578
G1 X102.912 Y105.348 E.01506
;WIDTH:0.599999
G1 X103.054 Y105.691 E.01633
G1 X103.603 Y106.072 E.02942
G1 X104.1 Y106.164 E.02224
G1 X114.94 Y106.164 E.47704
G1 X114.94 Y115.336 E.4036
G1 X113.814 Y115.336 E.04955
G1 X113.814 Y111.329 E.17634
G1 X113.699 Y110.774 E.02493
G1 X113.404 Y110.342 E.02302
G1 X113.035 Y110.078 E.01996
G1 X112.676 Y109.959 E.01662
G1 X112.421 Y109.936 E.01126
G1 X104.1 Y109.936 E.3662
G1 X103.603 Y110.028 E.02224
G1 X103.054 Y110.409 E.02942
G1 X102.91 Y110.781 E.01755
;WIDTH:0.552141
G1 X102.766 Y111.153 E.01604
G1 X102.79 Y110.736 E.01681
;WIDTH:0.599999
G1 X102.814 Y110.319 E.01839
G1 X102.814 Y109.54 E.03427
G1 E-1.6 F2400
;WIPE_START
G1 F9000
G1 X102.814 Y107.54
;WIPE_END
G1 X102.952 Y111.93 Z.6
G1 Z.2
G1 E1.6 F1800
G1 F600
G1 X102.75 Y111.984 E.00918
G1 X102.508 Y111.919 E.01103
G1 X102.331 Y111.742 E.01103
G1 X102.257 Y111.434 E.01394
G1 X102.257 Y104.698 E.2964
G1 X102.331 Y104.358 E.01533
G1 X102.508 Y104.181 E.01103
G1 X102.753 Y104.116 E.01117
G1 X102.992 Y104.181 E.01088
G1 X103.171 Y104.361 E.01117
G1 X103.271 Y104.881 E.02328
G1 X103.472 Y105.323 E.02139
G1 X103.801 Y105.552 E.01765
G1 X104.1 Y105.607 E.01334
G1 X115.497 Y105.607 E.50156
G1 X115.497 Y115.893 E.45263
G1 X113.257 Y115.893 E.09858
G1 X113.257 Y111.329 E.20086
G1 X113.188 Y110.996 E.01496
G1 X113.011 Y110.736 E.01381
G1 X112.789 Y110.578 E.01197
G1 X112.421 Y110.493 E.01662
G1 X104.1 Y110.493 E.3662
G1 X103.801 Y110.548 E.01334
G1 X103.472 Y110.777 E.01765
G1 X103.271 Y111.219 E.02139
G3 X103.169 Y111.742 I-2.309 J-.179 E.02348
G1 X102.992 Y111.919 E.01103
G1 X102.99 Y111.92 E.00009
G1 E-1.6 F2400
;WIPE_START
G1 F9000
G1 X102.75 Y111.984
G1 X102.508 Y111.919
G1 X102.331 Y111.742
G1 X102.257 Y111.434
G1 X102.257 Y110.501
;WIPE_END
G1 X103.823 Y111.292 Z.6
G1 Z.2
G1 E1.6 F1800
;TYPE:Outer wall
G1 F600
G2 X103.791 Y111.539 I.665 J.213 E.011
G1 X103.708 Y111.897 E.01618
G1 X103.49 Y112.24 E.01789
G1 X103.147 Y112.458 E.01789
G1 X102.75 Y112.546 E.01789
G1 X102.353 Y112.458 E.01789
G1 X102.01 Y112.24 E.01789
G1 X101.792 Y111.897 E.01789
G1 X101.7 Y111.47 E.01919
G1 X101.7 Y105.005 E.28453
G1 X101.722 Y104.466 E.02372
G1 X101.844 Y104.077 E.01795
G1 X102.118 Y103.777 E.01787
G1 X102.479 Y103.59 E.01787
G1 X102.887 Y103.572 E.01798
G1 X103.273 Y103.694 E.01783
G1 X103.572 Y103.969 E.01787
G1 X103.76 Y104.329 E.0179
G1 X103.823 Y104.808 E.02124
G1 X103.89 Y104.955 E.00713
G1 X104.1 Y105.05 E.0101
G1 X115.711 Y105.05 E.51096
G1 X116.054 Y105.086 E.0152
M73 P2 R21
M73 P2 R21
G1 X116.054 Y116.414 E.49851
G1 X115.73 Y116.45 E.01437
G1 X112.7 Y116.45 E.13333
G1 X112.7 Y111.329 E.22537
G1 X112.618 Y111.131 E.00941
G1 X112.421 Y111.05 E.00936
G1 X104.1 Y111.05 E.3662
G1 X103.89 Y111.145 E.0101
G2 X103.837 Y111.254 I.599 J.361 E.00539
G1 E-1.6 F2400
;WIPE_START
G1 F9000
G1 X103.791 Y111.539
G1 X103.708 Y111.897
G1 X103.49 Y112.24
G1 X103.147 Y112.458
G1 X102.75 Y112.546
G1 X102.628 Y112.519
;WIPE_END
G1 X102.75 Y111.402 Z.6
G1 Z.2
G1 E1.6 F1800
;TYPE:Inner wall
;WIDTH:0.504282
G1 F600
G1 X102.766 Y111.153 E.00908
G1 E-1.6 F2400
;WIPE_START
G1 F9000
G1 X102.75 Y111.402
;WIPE_END
G1 X102.75 Y104.698 Z.6
G1 Z.2
G1 E1.6 F1800
;WIDTH:0.51307
G1 F600
G1 X102.771 Y105.005 E.0114
G1 E-1.6 F2400
;WIPE_START
G1 F9000
G1 X102.75 Y104.698
;WIPE_END
G1 Z.6
G1 X103.637 Y109.884
G1 Z.6
G1 Z.2
G1 E1.6 F1800
;TYPE:Bottom surface
;WIDTH:0.608602
G1 F1200
G1 X103.204 Y109.451 E.02738
G1 X103.204 Y108.651 E.03575
G1 X104.099 Y109.546 E.05656
G1 X104.899 Y109.546 E.03575
G1 X103.204 Y107.851 E.10711
G1 X103.204 Y107.051 E.03575
G1 X105.699 Y109.546 E.15767
G1 X106.499 Y109.546 E.03575
G1 X103.235 Y106.282 E.20624
G1 X103.459 Y106.438 E.01219
G1 X104.089 Y106.554 E.02862
G1 X104.307 Y106.554 E.00974
G1 X107.299 Y109.546 E.18906
G1 X108.099 Y109.546 E.03575
G1 X105.107 Y106.554 E.18906
G1 X105.907 Y106.554 E.03575
G1 X108.899 Y109.546 E.18906
G1 X109.699 Y109.546 E.03575
G1 X106.707 Y106.554 E.18906
G1 X107.507 Y106.554 E.03575
G1 X110.499 Y109.546 E.18906
G1 X111.299 Y109.546 E.03575
G1 X108.307 Y106.554 E.18906
G1 X109.107 Y106.554 E.03575
G1 X112.35 Y109.797 E.2049
G1 E-1.6 F2400
;WIPE_START
G1 F9000
G1 X110.936 Y108.382
;WIPE_END
G1 X114.801 Y107.448 Z.6
G1 Z.2
G1 E1.6 F1800
G1 F1200
G1 X113.907 Y106.554 E.05647
G1 X113.107 Y106.554 E.03575
G1 X114.55 Y107.997 E.09119
G1 X114.55 Y108.797 E.03575
G1 X112.307 Y106.554 E.14174
G1 X111.507 Y106.554 E.03575
G1 X114.55 Y109.597 E.1923
G1 X114.55 Y110.397 E.03575
G1 X110.707 Y106.554 E.24285
G1 X109.907 Y106.554 E.03575
G1 X114.55 Y111.197 E.29341
G1 X114.55 Y111.997 E.03575
G1 X114.204 Y111.651 E.02187
G1 X114.204 Y112.451 E.03575
G1 X114.55 Y112.797 E.02187
G1 X114.55 Y113.597 E.03575
G1 X114.204 Y113.251 E.02187
G1 X114.204 Y114.051 E.03575
G1 X114.55 Y114.397 E.02187
G1 X114.55 Y114.946 E.02452
G1 X114.299 Y114.946 E.01122
G1 X113.953 Y114.6 E.02184
; stop printing object Inserimento 2 id:8171063952611762432 copy 0
;TIME_ELAPSED:37.576134

;LAYER_CHANGE
;Z:0.4
;HEIGHT:0.2
;BEFORE_LAYER_CHANGE
;0.4
G92 E0

G1 E-1.6 F2400
;WIPE_START
G1 F9000
G1 X114.299 Y114.946
G1 X114.55 Y114.946
G1 X114.55 Y114.397
G1 X114.204 Y114.051
G1 X114.204 Y113.829
;WIPE_END
;_SET_FAN_SPEED_CHANGING_LAYER
M204 P2500
; printing object Inserimento 2 id:8171063952611762432 copy 0
M204 T2500
G1 X106.669 Y112.614 Z.6
G1 X102.752 Y111.982 Z.6
G1 Z.4
G1 E1.6 F1800
M204 P2000
;TYPE:Inner wall
;WIDTH:0.449999
G1 F4660
G1 X102.75 Y111.982 E.00005
G1 X102.509 Y111.918 E.00803
G1 X102.332 Y111.741 E.00802
G1 X102.259 Y111.434 E.01016
G1 X102.259 Y104.698 E.21659
G1 X102.332 Y104.359 E.01116
G1 X102.509 Y104.182 E.00802
G1 X102.761 Y104.119 E.00834
G1 X102.991 Y104.182 E.00768
G1 X103.172 Y104.369 E.00834
G1 X103.258 Y104.792 E.01389
G1 X103.489 Y105.274 E.01717
G1 X103.879 Y105.544 E.01525
G1 X104.231 Y105.609 E.01152
G1 X115.683 Y105.609 E.36824
G1 X116.04 Y105.643 E.01155
G1 X116.04 Y115.857 E.32846
G1 X115.941 Y115.877 E.00326
G1 X113.259 Y115.887 E.08624
G1 X113.259 Y111.479 E.14176
G1 X113.201 Y111.144 E.01092
G1 X113.045 Y110.864 E.01031
G2 X112.271 Y110.491 I-.811 J.693 E.02841
G1 X104.231 Y110.491 E.25855
G1 X103.879 Y110.556 E.01152
G1 X103.489 Y110.826 E.01525
G1 X103.252 Y111.35 E.01847
G1 X103.17 Y111.736 E.01271
G1 X102.991 Y111.918 E.00818
G1 X102.79 Y111.971 E.00669
G1 X103.58 Y111.78 F9000
G1 F4660
G1 X103.569 Y111.835 E.0018
G1 X103.371 Y112.139 E.01167
G1 X103.093 Y112.316 E.0106
G1 X102.75 Y112.393 E.0113
G1 X102.412 Y112.318 E.01113
G1 X102.119 Y112.131 E.01118
G1 X101.932 Y111.839 E.01115
G1 X101.852 Y111.461 E.01242
G1 X101.852 Y104.639 E.21937
G1 X101.932 Y104.262 E.01239
G1 X102.119 Y103.969 E.01118
G1 X102.408 Y103.784 E.01103
G1 X102.763 Y103.709 E.01167
G1 X103.085 Y103.781 E.01061
G1 X103.379 Y103.967 E.01119
G1 X103.569 Y104.265 E.01136
G1 X103.656 Y104.697 E.01417
G1 X103.795 Y105.005 E.01087
G1 X104.024 Y105.164 E.00896
G1 X104.231 Y105.202 E.00677
G1 X115.683 Y105.202 E.36825
G1 X116.172 Y105.247 E.01579
M73 P3 R21
M73 P3 R21
G1 F4510.833
G1 X116.447 Y105.331 E.00925
G1 X116.447 Y106.175 E.02714
G1 X116.447 Y113.648 E.2403
G1 X116.447 Y114.491 E.02711
G1 X116.447 Y116.189 E.0546
G1 X115.982 Y116.284 E.01526
G1 F4660
G1 X112.852 Y116.296 E.10065
G1 X112.852 Y111.479 E.1549
G1 X112.818 Y111.282 E.00643
G1 X112.726 Y111.117 E.00607
G1 X112.472 Y110.934 E.01007
G1 X112.271 Y110.898 E.00657
G1 X104.231 Y110.898 E.25854
G1 X104.024 Y110.936 E.00677
G1 X103.795 Y111.095 E.00896
G1 X103.656 Y111.403 E.01087
G1 X103.588 Y111.741 E.01109
G1 X104.09 Y111.354 F9000
M204 P1000
;TYPE:Outer wall
;WIDTH:0.419999
G1 F2400
G1 X103.994 Y111.833 E.01455
G1 X103.866 Y112.143 E.00999
G1 X103.649 Y112.42 E.01048
G1 X103.394 Y112.616 E.00958
G1 X103.083 Y112.744 E.01002
G1 X102.75 Y112.788 E.01001
G1 X102.417 Y112.744 E.01001
G1 X102.106 Y112.616 E.01002
G1 X101.839 Y112.411 E.01003
G1 X101.634 Y112.144 E.01003
G1 X101.506 Y111.833 E.01002
G1 X101.46 Y111.486 E.01043
G1 X101.46 Y110.856 E.01877
G1 X101.46 Y106.367 E.13371
G1 X101.46 Y105.737 E.01877
G1 X101.483 Y104.438 E.0387
G1 X101.57 Y104.112 E.01005
G1 X101.736 Y103.823 E.00993
G1 X101.971 Y103.588 E.0099
G1 X102.258 Y103.421 E.00989
G1 X102.585 Y103.336 E.01006
G1 X102.921 Y103.334 E.01001
G1 X103.235 Y103.418 E.00968
G1 X103.525 Y103.584 E.00995
G1 X103.763 Y103.825 E.01009
G1 X103.932 Y104.115 E.01
G1 X104.016 Y104.429 E.00968
G1 X104.09 Y104.746 E.0097
G1 X104.231 Y104.81 E.00461
G1 X104.86 Y104.81 E.01874
G1 X115.11 Y104.81 E.30531
G1 X115.74 Y104.81 E.01877
G1 X116.291 Y104.864 E.01649
G1 X116.504 Y104.937 E.00671
G1 F3000
G1 X116.704 Y105.005 E.00629
M204 P500
;TYPE:Overhang wall
;WIDTH:0.389872
;HEIGHT:0.389872
G1 X116.84 Y105.051 E.00673
G1 X116.84 Y116.457 E.53785
G1 X116.704 Y116.511 E.00686
M204 P1000
;TYPE:Outer wall
;WIDTH:0.419999
;HEIGHT:0.2
G1 F2694.375
G1 X116.557 Y116.57 E.00472
G1 X116.504 Y116.58 E.00161
M106 S0
G1 F2400
G1 X116.021 Y116.676 E.01467
G1 X112.46 Y116.689 E.10607
G1 X112.46 Y116.059 E.01877
G1 X112.46 Y112.107 E.11772
G1 X112.46 Y111.479 E.01871
G1 X112.419 Y111.361 E.00372
G1 X112.271 Y111.29 E.00489
G1 X111.643 Y111.29 E.01871
G1 X104.86 Y111.29 E.20204
G1 X104.231 Y111.29 E.01874
G1 X104.126 Y111.338 E.00344
G1 E-1.6
;WIPE_START
G1 F9000
G1 X103.994 Y111.833
G1 X103.866 Y112.143
G1 X103.649 Y112.42
G1 X103.394 Y112.616
G1 X103.083 Y112.744
G1 X102.942 Y112.763
;WIPE_END
G1 Z.8
G1 X103.734 Y110.318
G1 Z.8
G1 Z.4
G1 E1.6 F1800
M204 P2500
;TYPE:Internal solid infill
;WIDTH:0.38292
G1 F4660
G1 X103.67 Y110.355 E.00198
G1 X103.735 Y110.389 E.00198
G1 X102.75 Y104.698 F9000
;WIDTH:0.618014
G1 F4660
G1 X102.76 Y104.839 E.00641
G1 X103.425 Y106.542 F9000
;WIDTH:0.413236
G1 F4660
G1 X103.356 Y106.582 E.00235
G1 X103.428 Y106.617 E.00235
G1 X104.143 Y106.37 F9000
;WIDTH:0.419999
G1 F4660
G1 X103.563 Y106.245 E.01767
G1 X103.028 Y105.883 E.01923
G1 X103.028 Y107.484 E.04771
G1 X104.114 Y106.398 E.04574
G1 X105.045 Y106.001 F9000
G1 F4660
G1 X104.231 Y106.001 E.02423
G1 X103.725 Y105.904 E.01535
G1 X103.229 Y105.563 E.01794
;WIDTH:0.441938
G1 X103.124 Y105.409 E.00588
;WIDTH:0.485814
G1 X103.019 Y105.255 E.00652
;WIDTH:0.529691
G1 X102.914 Y105.101 E.00717
;WIDTH:0.573567
G1 X102.809 Y104.947 E.00781
;WIDTH:0.61905
G1 X102.763 Y104.879 E.00373
;WIDTH:0.620335
G1 X102.74 Y105.025 E.00671
;WIDTH:0.575816
G1 X102.718 Y105.17 E.0062
;WIDTH:0.531297
G1 X102.696 Y105.316 E.00568
;WIDTH:0.486778
G1 X102.673 Y105.461 E.00516
;WIDTH:0.421043
G1 X102.651 Y105.607 E.0044
G1 X102.651 Y108.395 E.08328
G1 X105.016 Y106.03 E.09991
G1 X114.844 Y110.863 F9000
;WIDTH:0.532367
G1 F4660
G1 X114.838 Y110.154 E.02744
G1 X114.305 Y110.686 E.02911
G1 X114.37 Y110.904 E.00881
;WIDTH:0.47901
G1 X114.433 Y111.479 E.0199
G1 X114.433 Y114.708 E.11126
G1 X114.866 Y114.707 E.01491
G1 X114.866 Y111.479 E.11121
G1 X114.845 Y110.903 E.01983
G1 X113.776 Y110.602 F9000
;WIDTH:0.419999
G1 F4660
G1 X113.949 Y110.978 E.01234
G1 X114.028 Y111.479 E.0151
G1 X114.028 Y115.115 E.10832
G1 X115.271 Y115.11 E.03702
G1 X115.271 Y109.107 E.17883
G1 X113.804 Y110.573 E.06179
G1 X113.287 Y110.557 F9000
G1 F4660
G1 X113.557 Y110.983 E.01502
G1 X113.651 Y111.479 E.01502
G1 X113.651 Y115.493 E.11959
G1 X115.648 Y115.486 E.05949
G1 X115.648 Y108.196 E.21714
G1 X113.316 Y110.529 E.09826
G1 X115.94 Y107.422 F9000
;WIDTH:0.423278
G1 F4660
G1 X112.942 Y110.42 E.1274
G2 X112.565 Y110.26 I-.558 J.786 E.01241
G1 X115.77 Y107.054 E.13622
G1 X115.77 Y106.516 E.01616
G1 X112.073 Y110.214 E.15712
G2 X111.545 Y110.203 I-.353 J4.6 E.01587
G1 X115.77 Y105.978 E.17954
G1 X115.77 Y105.887 E.00273
G2 X115.331 Y105.879 I-.261 J2.224 E.01321
G1 X111.007 Y110.203 E.18374
G1 X110.469 Y110.203 E.01616
G1 X114.794 Y105.879 E.18374
G1 X114.256 Y105.879 E.01616
G1 X109.931 Y110.203 E.18374
G1 X109.393 Y110.203 E.01616
G1 X113.718 Y105.879 E.18374
G1 X113.18 Y105.879 E.01616
G1 X108.856 Y110.203 E.18374
G1 X108.318 Y110.203 E.01616
G1 X112.642 Y105.879 E.18374
G1 X112.104 Y105.879 E.01616
G1 X107.78 Y110.203 E.18374
G1 X107.242 Y110.203 E.01616
G1 X111.566 Y105.879 E.18374
G1 X111.028 Y105.879 E.01616
G1 X106.704 Y110.203 E.18374
G1 X106.166 Y110.203 E.01616
G1 X110.49 Y105.879 E.18374
G1 X109.952 Y105.879 E.01616
G1 X105.628 Y110.203 E.18374
G1 X105.09 Y110.203 E.01616
G1 X109.414 Y105.879 E.18374
G1 X108.877 Y105.879 E.01616
G1 X104.552 Y110.203 E.18374
G2 X103.98 Y110.238 I-.067 J3.67 E.01724
G1 X108.339 Y105.879 E.1852
G1 X107.801 Y105.879 E.01616
G1 X102.547 Y111.133 E.22325
G1 X102.547 Y110.595 E.01616
G1 X107.263 Y105.879 E.20039
G1 X106.725 Y105.879 E.01616
G1 X102.547 Y110.057 E.17754
G1 X102.547 Y109.519 E.01616
G1 X106.187 Y105.879 E.15468
G1 X105.649 Y105.879 E.01616
G1 X102.359 Y109.169 E.13978
G1 X103.801 Y110.369 F9000
;TYPE:Gap infill
;WIDTH:0.104105
G1 F3000
G1 X103.737 Y110.279 E.00054
G1 X103.692 Y110.299 E.00024
G2 X102.612 Y111.378 I244.328 J245.409 E.00738
G1 X102.575 Y111.397 E.0002
;WIDTH:0.140927
G1 X102.553 Y111.401 E.00018
;WIDTH:0.170622
G1 X102.465 Y111.436 E.00095
; stop printing object Inserimento 2 id:8171063952611762432 copy 0
;TIME_ELAPSED:46.506565

;LAYER_CHANGE
;Z:0.6
;HEIGHT:0.2
;BEFORE_LAYER_CHANGE
;0.6
G92 E0

G1 E-1.6 F2400
;WIPE_START
G1 F9000
G1 X102.553 Y111.401
;WIPE_END
;_SET_FAN_SPEED_CHANGING_LAYER
; printing object Inserimento 2 id:8171063952611762432 copy 0
G1 X102.75 Y111.982 Z.8
G1 Z.6
G1 E1.6 F1800
M204 P2000
;TYPE:Inner wall
;WIDTH:0.449999
G1 F5400
G1 X102.509 Y111.918 E.00803
G1 X102.332 Y111.741 E.00802
G1 X102.259 Y111.434 E.01016
G1 X102.259 Y104.698 E.21659
G1 X102.332 Y104.359 E.01116
G1 X102.509 Y104.182 E.00803
G1 X102.768 Y104.12 E.00856
G1 X102.991 Y104.182 E.00745
G1 X103.174 Y104.376 E.00856
G1 X103.258 Y104.792 E.01366
G1 X103.489 Y105.274 E.01717
G1 X103.879 Y105.544 E.01525
G1 X104.231 Y105.609 E.01152
G1 X115.848 Y105.609 E.37355
G1 X116.398 Y105.722 E.01806
G1 X116.398 Y115.779 E.32339
G1 X115.938 Y115.877 E.01513
G1 X113.259 Y115.887 E.08615
G1 X113.259 Y111.479 E.14176
