;TIME:2355.57
;Filament used:3.41171m
;Layer height:0.200
; HEADER_BLOCK_START
; generated by Creality_Print V6.0.5.1840 on 2025-06-08 at 17:57:24
; total layer number: 125
; filament_density: 1.24
; filament_diameter: 1.75
; max_z_height: 25.00
; HEADER_BLOCK_END

; MINX = 88.50
; MINY = 92.35
; MINZ = 0.00
; MAXX = 131.50
; MAXY = 127.65
; MAXZ = 25.10

; THUMBNAIL_BLOCK_START

;
; THUMBNAIL_BLOCK_END

; THUMBNAIL_BLOCK_START

;
; THUMBNAIL_BLOCK_END

; external perimeters extrusion width = 0.42mm
; perimeters extrusion width = 0.45mm
; infill extrusion width = 0.45mm
; solid infill extrusion width = 0.42mm
; top infill extrusion width = 0.42mm
; support material extrusion width = 0.40mm
; first layer extrusion width = 0.60mm

; EXECUTABLE_BLOCK_START
M73 P0 R39
M201 X5000 Y5000 Z500 E5000
M203 X500 Y500 Z30 E100
M204 P5000 R2500 T5000 ; sets acceleration (P, T) and retract acceleration (R), mm/sec^2
M205 X10.00 Y10.00 Z0.40 E5.00 ; sets the jerk limits, mm/sec
;TYPE:Custom
M220 S100 ;Reset Feedrate 
M221 S100 ;Reset Flowrate 
 
M140 S75 ;Set final bed temp 
G28 ;Home 
 
G92 E0 ;Reset Extruder 
G1 Z2.0 F3000 ;Move Z Axis up 
M104 S200 ;Set final nozzle temp 
G1 X-2.1 Y20 Z0.28 F5000.0 ;Move to start position 
M190 S75 ;Wait for bed temp to stabilize 
M109 S200 ;Wait for nozzle temp to stabilize 
G1 X-2.1 Y145.0 Z0.28 F1500.0 E15 ;Draw the first line 
G1 X-2.4 Y145.0 Z0.28 F5000.0 ;Move to side a little 
G1 X-2.4 Y20 Z0.28 F1500.0 E30 ;Draw the second line 
G92 E0  ;Reset Extruder 
G1 E-1.0000 F1800 ;Retract a bit 
G1 Z2.0 F3000 ;Move Z Axis up 
G1 E0.0000 F1800
G90
G21
M83 ; use relative distances for extrusion
" "
G1 E-1.6 F2400
M106 S0
;LAYER_CHANGE
;Z:0.2
;HEIGHT:0.2
;BEFORE_LAYER_CHANGE
;0.2
G92 E0

;_SET_FAN_SPEED_CHANGING_LAYER
M204 P125
M205 X10 Y10
; printing object Topper id:128 copy 0
M204 T125
G1 Z.4 F9000
G1 X129.148 Y126.086
G1 Z.2
G1 E1.6 F1800
;TYPE:Inner wall
;WIDTH:0.599999
G1 F600
G1 X90.064 Y126.086 E1.71989
G1 X90.064 Y96.189 E1.31561
M73 P0 R38
M73 P0 R38
G1 X129.936 Y96.189 E1.75456
G1 X129.936 Y126.086 E1.31561
M73 P1 R38
M73 P1 R38
G1 X129.188 Y126.086 E.03291
G1 X129.893 Y126.643 F9000
G1 F600
G1 X89.507 Y126.643 E1.77719
G1 X89.507 Y95.632 E1.36463
G1 X130.493 Y95.632 E1.80359
G1 X130.493 Y126.643 E1.36463
G1 X129.933 Y126.643 E.02464
G1 E-1.6 F2400
;WIPE_START
G1 F9000
G1 X127.933 Y126.643
;WIPE_END
G1 X131.05 Y127.2 Z.6
G1 Z.2
G1 E1.6 F1800
;TYPE:Outer wall
G1 F600
G1 X88.95 Y127.2 E1.85262
G1 X88.95 Y95.075 E1.41366
G1 X131.05 Y95.075 E1.85262
M73 P2 R38
M73 P2 R38
G1 X131.05 Y127.16 E1.4119
G1 E-1.6 F2400
;WIPE_START
G1 F9000
G1 X129.05 Y127.162
;WIPE_END
G1 Z.6
G1 X129.797 Y97.468
G1 Z.6
G1 Z.2
G1 E1.6 F1800
;TYPE:Bottom surface
;WIDTH:0.60635
G1 F1200
G1 X128.908 Y96.579 E.05595
G1 X128.111 Y96.579 E.03546
G1 X129.546 Y98.014 E.09032
G1 X129.546 Y98.811 E.03546
G1 X127.314 Y96.579 E.14048
G1 X126.517 Y96.579 E.03546
G1 X129.546 Y99.608 E.19063
G1 X129.546 Y100.405 E.03546
G1 X125.72 Y96.579 E.24078
G1 X124.924 Y96.579 E.03546
G1 X129.546 Y101.201 E.29094
G1 X129.546 Y101.998 E.03546
G1 X124.127 Y96.579 E.34109
G1 X123.33 Y96.579 E.03546
G1 X129.546 Y102.795 E.39124
G1 X129.546 Y103.592 E.03546
G1 X122.533 Y96.579 E.44139
G1 X121.736 Y96.579 E.03546
G1 X129.546 Y104.389 E.49155
G1 X129.546 Y105.186 E.03546
G1 X120.94 Y96.579 E.5417
G1 X120.143 Y96.579 E.03546
G1 X129.546 Y105.982 E.59185
G1 X129.546 Y106.779 E.03546
G1 X119.346 Y96.579 E.64201
G1 X118.549 Y96.579 E.03546
G1 X129.546 Y107.576 E.69216
G1 X129.546 Y108.373 E.03546
G1 X117.752 Y96.579 E.74231
G1 X116.956 Y96.579 E.03546
G1 X129.546 Y109.17 E.79247
G1 X129.546 Y109.966 E.03546
G1 X116.159 Y96.579 E.84262
G1 X115.362 Y96.579 E.03546
G1 X129.546 Y110.763 E.89277
G1 X129.546 Y111.56 E.03546
G1 X114.565 Y96.579 E.94293
G1 X113.768 Y96.579 E.03546
G1 X129.546 Y112.357 E.99308
M73 P3 R38
M73 P3 R38
G1 X129.546 Y113.154 E.03546
G1 X112.971 Y96.579 E1.04323
G1 X112.175 Y96.579 E.03546
G1 X129.546 Y113.95 E1.09338
G1 X129.546 Y114.747 E.03546
G1 X111.378 Y96.579 E1.14354
G1 X110.581 Y96.579 E.03546
G1 X129.546 Y115.544 E1.19369
G1 X129.546 Y116.341 E.03546
M73 P3 R37
M73 P3 R37
G1 X109.784 Y96.579 E1.24384
G1 X108.987 Y96.579 E.03546
G1 X129.546 Y117.138 E1.294
G1 X129.546 Y117.935 E.03546
G1 X108.191 Y96.579 E1.34415
G1 X107.394 Y96.579 E.03546
G1 X129.546 Y118.731 E1.3943
G1 X129.546 Y119.528 E.03546
G1 X106.597 Y96.579 E1.44446
G1 X105.8 Y96.579 E.03546
G1 X129.546 Y120.325 E1.49461
G1 X129.546 Y121.122 E.03546
G1 X105.003 Y96.579 E1.54476
G1 X104.207 Y96.579 E.03546
G1 X129.546 Y121.919 E1.59492
G1 X129.546 Y122.715 E.03546
G1 X103.41 Y96.579 E1.64507
G1 X102.613 Y96.579 E.03546
G1 X129.546 Y123.512 E1.69522
G1 X129.546 Y124.309 E.03546
M73 P4 R37
M73 P4 R37
G1 X101.816 Y96.579 E1.74537
G1 X101.019 Y96.579 E.03546
G1 X129.546 Y125.106 E1.79553
G1 X129.546 Y125.696 E.02626
G1 X129.339 Y125.696 E.0092
G1 X100.223 Y96.579 E1.83267
G1 X99.426 Y96.579 E.03546
G1 X128.542 Y125.696 E1.83267
G1 X127.746 Y125.696 E.03546
G1 X98.629 Y96.579 E1.83267
G1 X97.832 Y96.579 E.03546
G1 X126.949 Y125.696 E1.83267
G1 X126.152 Y125.696 E.03546
G1 X97.035 Y96.579 E1.83267
G1 X96.238 Y96.579 E.03546
G1 X125.355 Y125.696 E1.83267
G1 X124.558 Y125.696 E.03546
G1 X95.442 Y96.579 E1.83267
G1 X94.645 Y96.579 E.03546
G1 X123.761 Y125.696 E1.83267
G1 X122.965 Y125.696 E.03546
G1 X93.848 Y96.579 E1.83267
G1 X93.051 Y96.579 E.03546
M73 P5 R37
M73 P5 R37
G1 X122.168 Y125.696 E1.83267
G1 X121.371 Y125.696 E.03546
G1 X92.254 Y96.579 E1.83267
G1 X91.458 Y96.579 E.03546
G1 X120.574 Y125.696 E1.83267
G1 X119.777 Y125.696 E.03546
G1 X90.661 Y96.579 E1.83267
G1 X90.454 Y96.579 E.0092
G1 X90.454 Y97.169 E.02627
G1 X118.981 Y125.696 E1.79553
G1 X118.184 Y125.696 E.03546
G1 X90.454 Y97.966 E1.74537
G1 X90.454 Y98.763 E.03546
G1 X117.387 Y125.696 E1.69522
G1 X116.59 Y125.696 E.03546
G1 X90.454 Y99.56 E1.64507
G1 X90.454 Y100.357 E.03546
G1 X115.793 Y125.696 E1.59491
G1 X114.997 Y125.696 E.03546
M73 P5 R36
M73 P5 R36
G1 X90.454 Y101.153 E1.54476
G1 X90.454 Y101.95 E.03546
G1 X114.2 Y125.696 E1.49461
G1 X113.403 Y125.696 E.03546
G1 X90.454 Y102.747 E1.44445
G1 X90.454 Y103.544 E.03546
M73 P6 R36
M73 P6 R36
G1 X112.606 Y125.696 E1.3943
G1 X111.809 Y125.696 E.03546
G1 X90.454 Y104.341 E1.34415
G1 X90.454 Y105.137 E.03546
G1 X111.013 Y125.696 E1.29399
G1 X110.216 Y125.696 E.03546
G1 X90.454 Y105.934 E1.24384
G1 X90.454 Y106.731 E.03546
G1 X109.419 Y125.696 E1.19369
G1 X108.622 Y125.696 E.03546
G1 X90.454 Y107.528 E1.14354
G1 X90.454 Y108.325 E.03546
G1 X107.825 Y125.696 E1.09338
G1 X107.028 Y125.696 E.03546
G1 X90.454 Y109.122 E1.04323
G1 X90.454 Y109.918 E.03546
G1 X106.232 Y125.696 E.99308
G1 X105.435 Y125.696 E.03546
G1 X90.454 Y110.715 E.94292
G1 X90.454 Y111.512 E.03546
G1 X104.638 Y125.696 E.89277
G1 X103.841 Y125.696 E.03546
G1 X90.454 Y112.309 E.84262
G1 X90.454 Y113.106 E.03546
G1 X103.044 Y125.696 E.79246
G1 X102.248 Y125.696 E.03546
G1 X90.454 Y113.902 E.74231
G1 X90.454 Y114.699 E.03546
G1 X101.451 Y125.696 E.69216
G1 X100.654 Y125.696 E.03546
G1 X90.454 Y115.496 E.642
G1 X90.454 Y116.293 E.03546
G1 X99.857 Y125.696 E.59185
G1 X99.06 Y125.696 E.03546
G1 X90.454 Y117.09 E.5417
G1 X90.454 Y117.886 E.03546
G1 X98.264 Y125.696 E.49155
G1 X97.467 Y125.696 E.03546
G1 X90.454 Y118.683 E.44139
G1 X90.454 Y119.48 E.03546
G1 X96.67 Y125.696 E.39124
G1 X95.873 Y125.696 E.03546
G1 X90.454 Y120.277 E.34109
G1 X90.454 Y121.074 E.03546
M73 P7 R36
M73 P7 R36
G1 X95.076 Y125.696 E.29093
G1 X94.28 Y125.696 E.03546
G1 X90.454 Y121.87 E.24078
G1 X90.454 Y122.667 E.03546
G1 X93.483 Y125.696 E.19063
G1 X92.686 Y125.696 E.03546
G1 X90.454 Y123.464 E.14047
G1 X90.454 Y124.261 E.03546
G1 X91.889 Y125.696 E.09032
G1 X91.092 Y125.696 E.03546
G1 X90.203 Y124.807 E.05595
; stop printing object Topper id:128 copy 0
;TIME_ELAPSED:166.855072

;LAYER_CHANGE
;Z:0.4
;HEIGHT:0.2
;BEFORE_LAYER_CHANGE
;0.4
G92 E0

G1 E-1.6 F2400
;WIPE_START
G1 F9000
G1 X91.092 Y125.696
G1 X91.835 Y125.696
;WIPE_END
;_SET_FAN_SPEED_CHANGING_LAYER
M204 P2500
; printing object Topper id:128 copy 0
M204 T2500
G1 X99.465 Y125.885 Z.6
G1 X129.926 Y126.641 Z.6
G1 Z.4
G1 E1.6 F1800
M204 P2000
;TYPE:Inner wall
;WIDTH:0.449999
G1 F5400
G1 X89.509 Y126.641 E1.29965
G1 X89.509 Y95.077 E1.01497
G1 X130.491 Y95.077 E1.31782
G1 X130.491 Y126.641 E1.01497
G1 X129.966 Y126.641 E.01689
G1 X130.448 Y127.048 F9000
G1 F5400
G1 X89.102 Y127.048 E1.32954
G1 X89.102 Y126.75 E.00958
G1 X89.102 Y95.525 E1.00408
G1 F4318.321
G1 X89.102 Y94.67 E.02749
G1 X89.957 Y94.67 E.02749
G1 X130.043 Y94.67 E1.28902
G1 X130.898 Y94.67 E.02749
G1 X130.898 Y95.525 E.02749
G1 F5400
G1 X130.898 Y126.75 E1.00408
G1 X130.898 Y127.048 E.00958
G1 X130.488 Y127.048 E.01318
G1 X131.29 Y127.44 F9000
M204 P1000
;TYPE:Outer wall
;WIDTH:0.419999
G1 F2400
G1 X130.66 Y127.44 E.01877
G1 X89.34 Y127.44 E1.23078
G1 X88.71 Y127.44 E.01877
G1 X88.71 Y126.81 E.01877
G1 X88.71 Y95.465 E.93366
G1 X88.71 Y94.625 E.02502
G1 F3000
G1 X88.71 Y94.425 E.00596
M204 P500
;TYPE:Overhang wall
;WIDTH:0.389872
;HEIGHT:0.389872
G1 X88.71 Y94.278 E.00694
G1 X131.29 Y94.278 E2.00769
G1 X131.29 Y94.425 E.00694
M204 P1000
;TYPE:Outer wall
;WIDTH:0.419999
;HEIGHT:0.2
G1 X131.29 Y94.625 E.00596
M106 S0
G1 F2400
G1 X131.29 Y95.465 E.02502
G1 X131.29 Y126.77 E.93247
G1 X131.29 Y127.4 E.01877
G1 E-1.6
;WIPE_START
G1 F9000
G1 X129.29 Y127.402
;WIPE_END
G1 Z.8
G1 X130.391 Y125.778
G1 Z.8
G1 Z.4
G1 E1.6 F1800
M204 P2500
;TYPE:Internal solid infill
;WIDTH:0.420078
G1 F10800
G1 X129.798 Y126.371 E.02497
G1 X129.264 Y126.371 E.01589
G1 X130.221 Y125.414 E.0403
G1 X130.221 Y124.881 E.01589
G1 X128.731 Y126.371 E.06277
G1 X128.198 Y126.371 E.01589
G1 X130.221 Y124.348 E.08524
G1 X130.221 Y123.814 E.01589
G1 X127.664 Y126.371 E.10772
G1 X127.131 Y126.371 E.01589
G1 X130.221 Y123.281 E.13019
G1 X130.221 Y122.748 E.01589
G1 X126.598 Y126.371 E.15266
G1 X126.064 Y126.371 E.01589
G1 X130.221 Y122.214 E.17514
G1 X130.221 Y121.681 E.01589
G1 X125.531 Y126.371 E.19761
G1 X124.997 Y126.371 E.01589
G1 X130.221 Y121.147 E.22008
G1 X130.221 Y120.614 E.01589
G1 X124.464 Y126.371 E.24256
G1 X123.931 Y126.371 E.01589
G1 X130.221 Y120.081 E.26503
G1 X130.221 Y119.547 E.01589
G1 X123.397 Y126.371 E.2875
G1 X122.864 Y126.371 E.01589
G1 X130.221 Y119.014 E.30998
G1 X130.221 Y118.48 E.01589
G1 X122.33 Y126.371 E.33245
G1 X121.797 Y126.371 E.01589
G1 X130.221 Y117.947 E.35492
G1 X130.221 Y117.414 E.01589
G1 X121.264 Y126.371 E.3774
G1 X120.73 Y126.371 E.01589
G1 X130.221 Y116.88 E.39987
G1 X130.221 Y116.347 E.01589
G1 X120.197 Y126.371 E.42234
G1 X119.664 Y126.371 E.01589
G1 X130.221 Y115.814 E.44482
G1 X130.221 Y115.28 E.01589
G1 X119.13 Y126.371 E.46729
G1 X118.597 Y126.371 E.01589
G1 X130.221 Y114.747 E.48976
G1 X130.221 Y114.213 E.01589
G1 X118.063 Y126.371 E.51223
G1 X117.53 Y126.371 E.01589
G1 X130.221 Y113.68 E.53471
G1 X130.221 Y113.147 E.01589
G1 X116.997 Y126.371 E.55718
G1 X116.463 Y126.371 E.01589
G1 X130.221 Y112.613 E.57965
G1 X130.221 Y112.08 E.01589
G1 X115.93 Y126.371 E.60213
G1 X115.397 Y126.371 E.01589
G1 X130.221 Y111.547 E.6246
G1 X130.221 Y111.013 E.01589
G1 X114.863 Y126.371 E.64707
G1 X114.33 Y126.371 E.01589
G1 X130.221 Y110.48 E.66955
G1 X130.221 Y109.946 E.01589
G1 X113.796 Y126.371 E.69202
G1 X113.263 Y126.371 E.01589
G1 X130.221 Y109.413 E.71449
G1 X130.221 Y108.88 E.01589
G1 X112.73 Y126.371 E.73697
G1 X112.196 Y126.371 E.01589
G1 X130.221 Y108.346 E.75944
G1 X130.221 Y107.813 E.01589
G1 X111.663 Y126.371 E.78191
G1 X111.129 Y126.371 E.01589
G1 X130.221 Y107.279 E.80439
G1 X130.221 Y106.746 E.01589
G1 X110.596 Y126.371 E.82686
G1 X110.063 Y126.371 E.01589
G1 X130.221 Y106.213 E.84933
G1 X130.221 Y105.679 E.01589
G1 X109.529 Y126.371 E.87181
G1 X108.996 Y126.371 E.01589
G1 X130.221 Y105.146 E.89428
G1 X130.221 Y104.613 E.01589
G1 X108.463 Y126.371 E.91675
G1 X107.929 Y126.371 E.01589
G1 X130.221 Y104.079 E.93923
G1 X130.221 Y103.546 E.01589
G1 X107.396 Y126.371 E.9617
G1 X106.862 Y126.371 E.01589
G1 X130.221 Y103.012 E.98417
G1 X130.221 Y102.479 E.01589
G1 X106.329 Y126.371 E1.00664
G1 X105.796 Y126.371 E.01589
G1 X130.221 Y101.946 E1.02912
G1 X130.221 Y101.412 E.01589
G1 X105.262 Y126.371 E1.05159
G1 X104.729 Y126.371 E.01589
G1 X130.221 Y100.879 E1.07406
G1 X130.221 Y100.345 E.01589
G1 X104.195 Y126.371 E1.09654
G1 X103.662 Y126.371 E.01589
G1 X130.221 Y99.812 E1.11901
G1 X130.221 Y99.279 E.01589
G1 X103.129 Y126.371 E1.14148
G1 X102.595 Y126.371 E.01589
G1 X130.221 Y98.745 E1.16396
G1 X130.221 Y98.212 E.01589
G1 X102.062 Y126.371 E1.18643
G1 X101.529 Y126.371 E.01589
G1 X130.221 Y97.679 E1.2089
G1 X130.221 Y97.145 E.01589
G1 X100.995 Y126.371 E1.23138
G1 X100.462 Y126.371 E.01589
G1 X130.221 Y96.612 E1.25385
G1 X130.221 Y96.078 E.01589
G1 X99.928 Y126.371 E1.27632
G1 X99.395 Y126.371 E.01589
G1 X130.221 Y95.545 E1.2988
G1 X130.221 Y95.347 E.0059
G1 X129.886 Y95.347 E.00999
G1 X98.862 Y126.371 E1.30714
G1 X98.328 Y126.371 E.01589
G1 X129.352 Y95.347 E1.30714
G1 X128.819 Y95.347 E.01589
G1 X97.795 Y126.371 E1.30714
G1 X97.262 Y126.371 E.01589
G1 X128.285 Y95.347 E1.30714
G1 X127.752 Y95.347 E.01589
M73 P8 R36
M73 P8 R36
G1 X96.728 Y126.371 E1.30714
G1 X96.195 Y126.371 E.01589
G1 X127.219 Y95.347 E1.30714
G1 X126.685 Y95.347 E.01589
G1 X95.661 Y126.371 E1.30714
G1 X95.128 Y126.371 E.01589
G1 X126.152 Y95.347 E1.30714
G1 X125.618 Y95.347 E.01589
G1 X94.595 Y126.371 E1.30714
G1 X94.061 Y126.371 E.01589
G1 X125.085 Y95.347 E1.30714
G1 X124.552 Y95.347 E.01589
G1 X93.528 Y126.371 E1.30714
G1 X92.994 Y126.371 E.01589
G1 X124.018 Y95.347 E1.30714
G1 X123.485 Y95.347 E.01589
G1 X92.461 Y126.371 E1.30714
G1 X91.928 Y126.371 E.01589
G1 X122.952 Y95.347 E1.30714
G1 X122.418 Y95.347 E.01589
G1 X91.394 Y126.371 E1.30714
G1 X90.861 Y126.371 E.01589
G1 X121.885 Y95.347 E1.30714
G1 X121.351 Y95.347 E.01589
G1 X90.328 Y126.371 E1.30714
G1 X89.794 Y126.371 E.01589
G1 X120.818 Y95.347 E1.30714
G1 X120.285 Y95.347 E.01589
G1 X89.779 Y125.853 E1.2853
G1 X89.779 Y125.319 E.01589
G1 X119.751 Y95.347 E1.26283
G1 X119.218 Y95.347 E.01589
G1 X89.779 Y124.786 E1.24035
G1 X89.779 Y124.252 E.01589
G1 X118.684 Y95.347 E1.21788
G1 X118.151 Y95.347 E.01589
G1 X89.779 Y123.719 E1.19541
G1 X89.779 Y123.186 E.01589
G1 X117.618 Y95.347 E1.17293
G1 X117.084 Y95.347 E.01589
G1 X89.779 Y122.652 E1.15046
G1 X89.779 Y122.119 E.01589
G1 X116.551 Y95.347 E1.12799
G1 X116.018 Y95.347 E.01589
G1 X89.779 Y121.586 E1.10551
G1 X89.779 Y121.052 E.01589
G1 X115.484 Y95.347 E1.08304
G1 X114.951 Y95.347 E.01589
M73 P8 R35
M73 P8 R35
G1 X89.779 Y120.519 E1.06057
G1 X89.779 Y119.985 E.01589
G1 X114.417 Y95.347 E1.0381
G1 X113.884 Y95.347 E.01589
G1 X89.779 Y119.452 E1.01562
G1 X89.779 Y118.919 E.01589
G1 X113.351 Y95.347 E.99315
G1 X112.817 Y95.347 E.01589
G1 X89.779 Y118.385 E.97068
G1 X89.779 Y117.852 E.01589
G1 X112.284 Y95.347 E.9482
G1 X111.751 Y95.347 E.01589
G1 X89.779 Y117.318 E.92573
G1 X89.779 Y116.785 E.01589
G1 X111.217 Y95.347 E.90326
G1 X110.684 Y95.347 E.01589
G1 X89.779 Y116.252 E.88078
G1 X89.779 Y115.718 E.01589
G1 X110.15 Y95.347 E.85831
G1 X109.617 Y95.347 E.01589
G1 X89.779 Y115.185 E.83584
G1 X89.779 Y114.652 E.01589
G1 X109.084 Y95.347 E.81336
G1 X108.55 Y95.347 E.01589
G1 X89.779 Y114.118 E.79089
G1 X89.779 Y113.585 E.01589
G1 X108.017 Y95.347 E.76842
G1 X107.483 Y95.347 E.01589
G1 X89.779 Y113.051 E.74594
G1 X89.779 Y112.518 E.01589
G1 X106.95 Y95.347 E.72347
G1 X106.417 Y95.347 E.01589
G1 X89.779 Y111.985 E.701
G1 X89.779 Y111.451 E.01589
G1 X105.883 Y95.347 E.67852
G1 X105.35 Y95.347 E.01589
G1 X89.779 Y110.918 E.65605
G1 X89.779 Y110.384 E.01589
G1 X104.817 Y95.347 E.63358
G1 X104.283 Y95.347 E.01589
G1 X89.779 Y109.851 E.61111
G1 X89.779 Y109.318 E.01589
G1 X103.75 Y95.347 E.58863
G1 X103.216 Y95.347 E.01589
G1 X89.779 Y108.784 E.56616
G1 X89.779 Y108.251 E.01589
G1 X102.683 Y95.347 E.54369
G1 X102.15 Y95.347 E.01589
G1 X89.779 Y107.718 E.52121
G1 X89.779 Y107.184 E.01589
G1 X101.616 Y95.347 E.49874
G1 X101.083 Y95.347 E.01589
G1 X89.779 Y106.651 E.47627
G1 X89.779 Y106.117 E.01589
