;TIME:1315.91
;Filament used:1.29892m
;Layer height:0.200
; HEADER_BLOCK_START
; generated by Creality_Print V6.0.5.1840 on 2025-06-02 at 20:54:57
; total layer number: 185
; filament_density: 1.24
; filament_diameter: 1.75
; max_z_height: 37.00
; HEADER_BLOCK_END

; MINX = 101.25
; MINY = 103.10
; MINZ = 0.00
; MAXX = 118.75
; MAXY = 116.90
; MAXZ = 37.00

; THUMBNAIL_BLOCK_START

;
; THUMBNAIL_BLOCK_END

; THUMBNAIL_BLOCK_START

;
; THUMBNAIL_BLOCK_END

; external perimeters extrusion width = 0.42mm
; perimeters extrusion width = 0.45mm
; infill extrusion width = 0.45mm
; solid infill extrusion width = 0.42mm
; top infill extrusion width = 0.42mm
; support material extrusion width = 0.40mm
; first layer extrusion width = 0.60mm

; EXECUTABLE_BLOCK_START
M73 P0 R21
M201 X5000 Y5000 Z500 E5000
M203 X500 Y500 Z30 E100
M204 P5000 R2500 T5000 ; sets acceleration (P, T) and retract acceleration (R), mm/sec^2
M205 X10.00 Y10.00 Z0.40 E5.00 ; sets the jerk limits, mm/sec
;TYPE:Custom
M220 S100 ;Reset Feedrate 
M221 S100 ;Reset Flowrate 
 
M140 S75 ;Set final bed temp 
G28 ;Home 
 
G92 E0 ;Reset Extruder 
G1 Z2.0 F3000 ;Move Z Axis up 
M104 S200 ;Set final nozzle temp 
G1 X-2.1 Y20 Z0.28 F5000.0 ;Move to start position 
M190 S75 ;Wait for bed temp to stabilize 
M109 S200 ;Wait for nozzle temp to stabilize 
G1 X-2.1 Y145.0 Z0.28 F1500.0 E15 ;Draw the first line 
G1 X-2.4 Y145.0 Z0.28 F5000.0 ;Move to side a little 
G1 X-2.4 Y20 Z0.28 F1500.0 E30 ;Draw the second line 
G92 E0  ;Reset Extruder 
G1 E-1.0000 F1800 ;Retract a bit 
G1 Z2.0 F3000 ;Move Z Axis up 
G1 E0.0000 F1800
G90
G21
M83 ; use relative distances for extrusion
" "
G1 E-1.6 F2400
M106 S0
;LAYER_CHANGE
;Z:0.2
;HEIGHT:0.2
;BEFORE_LAYER_CHANGE
;0.2
G92 E0

;_SET_FAN_SPEED_CHANGING_LAYER
M204 P125
M205 X10 Y10
; printing object Inserimento 1 id:13817043657872900096 copy 0
M204 T125
G1 Z.4 F9000
G1 X104.318 Y110.064
G1 Z.2
G1 E1.6 F1800
;TYPE:Inner wall
;WIDTH:0.599999
G1 F600
G1 X112.598 Y110.064 E.36433
G1 X113.035 Y109.922 E.02023
M73 P1 R21
M73 P1 R21
G1 X113.404 Y109.658 E.01996
G1 X113.699 Y109.226 E.02302
G2 X113.814 Y108.671 I-1.277 J-.555 E.02511
G1 X113.814 Y104.664 E.17634
G1 X114.94 Y104.664 E.04955
G1 X114.94 Y113.836 E.4036
G1 X104.1 Y113.836 E.47704
G1 X103.603 Y113.928 E.02224
G1 X103.054 Y114.309 E.02942
G1 X102.91 Y114.681 E.01755
;WIDTH:0.552141
G1 X102.766 Y115.053 E.01604
G1 X102.79 Y114.636 E.01681
;WIDTH:0.599999
G1 X102.814 Y114.219 E.01839
G1 X102.814 Y109.681 E.19968
G1 X102.792 Y109.293 E.01711
;WIDTH:0.556535
G1 X102.771 Y108.905 E.01578
G1 X102.912 Y109.248 E.01506
;WIDTH:0.599999
G1 X103.054 Y109.591 E.01633
G1 X103.603 Y109.972 E.02942
G1 X104.1 Y110.064 E.02224
G1 X104.278 Y110.064 E.00787
G1 X104.041 Y109.496 F9000
G1 F600
G1 X104.1 Y109.507 E.00261
G1 X112.421 Y109.507 E.3662
G1 X112.789 Y109.422 E.01662
G1 X113.011 Y109.264 E.01197
G1 X113.188 Y109.004 E.01381
G1 X113.257 Y108.671 E.01496
G1 X113.257 Y104.107 E.20086
G1 X115.497 Y104.107 E.09858
G1 X115.497 Y114.393 E.45263
G1 X104.1 Y114.393 E.50156
G1 X103.801 Y114.448 E.01334
G1 X103.472 Y114.677 E.01765
G1 X103.271 Y115.119 E.02139
G3 X103.167 Y115.645 I-2.23 J-.168 E.02363
G1 X102.992 Y115.819 E.01088
G1 X102.75 Y115.884 E.01103
G1 X102.508 Y115.819 E.01103
G1 X102.331 Y115.642 E.01103
G1 X102.257 Y115.334 E.01394
G1 X102.257 Y109.681 E.24875
G1 X102.275 Y108.436 E.05482
G1 X102.368 Y108.209 E.0108
G1 X102.566 Y108.057 E.01098
G1 X102.813 Y108.024 E.01094
G1 X103.042 Y108.119 E.01094
G1 X103.194 Y108.316 E.01094
G1 X103.271 Y108.781 E.02072
G1 X103.472 Y109.223 E.02139
G1 X103.801 Y109.452 E.01765
G1 X104.002 Y109.489 E.00897
G1 X103.823 Y108.708 F9000
;TYPE:Outer wall
G1 F600
G1 X103.89 Y108.855 E.00713
G1 X104.1 Y108.95 E.0101
G1 X112.421 Y108.95 E.3662
G1 X112.618 Y108.869 E.00936
G1 X112.7 Y108.671 E.00941
G1 X112.7 Y103.55 E.22537
G1 X115.712 Y103.55 E.13254
G1 X116.054 Y103.586 E.01515
G1 X116.054 Y114.914 E.49851
G1 X115.73 Y114.95 E.01437
G1 X104.1 Y114.95 E.51179
G1 X103.89 Y115.045 E.0101
M73 P2 R21
M73 P2 R21
G2 X103.791 Y115.439 I.599 J.361 E.01815
G1 X103.707 Y115.798 E.01622
G1 X103.49 Y116.14 E.01784
G1 X103.147 Y116.358 E.01787
G1 X102.75 Y116.446 E.01791
G1 X102.353 Y116.358 E.01788
G1 X102.01 Y116.14 E.01789
G1 X101.792 Y115.797 E.01789
G1 X101.7 Y115.371 E.0192
G1 X101.7 Y108.905 E.28453
G1 X101.723 Y108.361 E.02394
G1 X101.844 Y107.977 E.01772
G1 X102.118 Y107.677 E.01787
G1 X102.479 Y107.49 E.01791
G1 X102.885 Y107.472 E.01788
G1 X103.273 Y107.594 E.01789
G1 X103.573 Y107.869 E.01789
G1 X103.76 Y108.229 E.01789
G1 X103.818 Y108.668 E.01948
G1 E-1.6 F2400
;WIPE_START
G1 F9000
G1 X103.89 Y108.855
G1 X104.1 Y108.95
G1 X105.669 Y108.95
;WIPE_END
G1 X102.75 Y115.302 Z.6
G1 Z.2
G1 E1.6 F1800
;TYPE:Inner wall
;WIDTH:0.504282
G1 F600
G1 X102.766 Y115.053 E.00908
G1 E-1.6 F2400
;WIPE_START
G1 F9000
G1 X102.75 Y115.302
;WIPE_END
G1 X102.75 Y108.601 Z.6
G1 Z.2
G1 E1.6 F1800
;WIDTH:0.51307
G1 F600
G1 X102.771 Y108.905 E.0113
G1 E-1.6 F2400
;WIPE_START
G1 F9000
G1 X102.75 Y108.601
;WIPE_END
G1 Z.6
G1 X102.953 Y113.111
G1 Z.6
G1 Z.2
G1 E1.6 F1800
;TYPE:Bottom surface
;WIDTH:0.603364
G1 F1200
G1 X103.427 Y113.585 E.02964
G1 X103.459 Y113.562 E.00176
G1 X104.082 Y113.447 E.02802
G1 X103.204 Y112.569 E.05496
G1 X103.204 Y111.777 E.03509
G1 X104.873 Y113.446 E.1045
G1 X105.666 Y113.446 E.03509
G1 X103.204 Y110.984 E.15412
G1 X103.204 Y110.192 E.03509
G1 X106.458 Y113.446 E.20374
G1 X107.251 Y113.446 E.03509
G1 X104.259 Y110.454 E.18731
G1 X105.052 Y110.454 E.03509
G1 X108.044 Y113.446 E.18731
G1 X108.836 Y113.446 E.03509
G1 X105.844 Y110.454 E.18731
G1 X106.637 Y110.454 E.03509
G1 X109.629 Y113.446 E.18731
G1 X110.421 Y113.446 E.03509
G1 X107.43 Y110.454 E.18731
G1 X108.222 Y110.454 E.03509
G1 X111.214 Y113.446 E.18731
G1 X112.006 Y113.446 E.03509
G1 X109.015 Y110.454 E.18731
G1 X109.807 Y110.454 E.03509
G1 X112.799 Y113.446 E.18731
G1 X113.592 Y113.446 E.03509
G1 X110.6 Y110.454 E.18731
G1 X111.392 Y110.454 E.03509
G1 X114.384 Y113.446 E.18731
G1 X114.55 Y113.446 E.00735
G1 X114.55 Y112.819 E.02774
G1 X112.185 Y110.454 E.14808
G2 X112.75 Y110.424 I.121 J-3.077 E.02509
G1 X112.899 Y110.375 E.00692
G1 X114.55 Y112.027 E.10341
G1 X114.55 Y111.234 E.03509
G1 X113.43 Y110.114 E.07012
G1 X113.681 Y109.935 E.01366
G1 X113.828 Y109.72 E.01154
G1 X114.55 Y110.442 E.0452
G1 X114.55 Y109.649 E.03509
G1 X114.109 Y109.208 E.0276
G2 X114.204 Y108.51 I-1.989 J-.625 E.03133
G1 X114.55 Y108.856 E.02167
G1 X114.55 Y108.064 E.03509
G1 X114.204 Y107.718 E.02167
G1 X114.204 Y106.925 E.03509
G1 X114.55 Y107.271 E.02167
G1 X114.55 Y106.479 E.03509
G1 X114.204 Y106.132 E.02167
G1 X114.204 Y105.34 E.03509
G1 X114.801 Y105.937 E.03737
G1 X114.662 Y105.021 F9000
;TYPE:Gap infill
;WIDTH:0.12256
G1 F600
G1 X114.257 Y104.977 E.00256
G1 X114.093 Y105.01 E.00105
; stop printing object Inserimento 1 id:13817043657872900096 copy 0
;TIME_ELAPSED:35.972282

;LAYER_CHANGE
;Z:0.4
;HEIGHT:0.2
;BEFORE_LAYER_CHANGE
;0.4
G92 E0

G1 E-1.6 F2400
;WIPE_START
G1 F9000
G1 X114.257 Y104.977
G1 X114.662 Y105.021
;WIPE_END
;_SET_FAN_SPEED_CHANGING_LAYER
M204 P2500
; printing object Inserimento 1 id:13817043657872900096 copy 0
M204 T2500
G1 X107.703 Y108.157 Z.6
G1 X104.703 Y109.509 Z.6
G1 Z.4
G1 E1.6 F1800
M204 P2000
;TYPE:Inner wall
;WIDTH:0.449999
G1 F4931
G1 X112.406 Y109.509 E.2477
G1 X112.834 Y109.333 E.01489
G1 X113.045 Y109.136 E.00927
G1 X113.201 Y108.856 E.01031
G1 X113.259 Y108.521 E.01092
G1 X113.259 Y104.109 E.14188
G1 X115.686 Y104.109 E.07803
G1 X116.04 Y104.143 E.01145
G1 X116.04 Y114.357 E.32847
G1 X115.7 Y114.391 E.01098
G1 X104.231 Y114.391 E.36881
G1 X103.879 Y114.456 E.01152
G1 X103.489 Y114.726 E.01525
G1 X103.252 Y115.25 E.01847
G1 X103.168 Y115.641 E.01288
G1 X102.991 Y115.818 E.00803
G1 X102.75 Y115.882 E.00803
G1 X102.509 Y115.818 E.00803
G1 X102.332 Y115.641 E.00803
G1 X102.259 Y115.334 E.01016
G1 X102.259 Y108.598 E.21659
G1 X102.332 Y108.259 E.01116
G1 X102.509 Y108.082 E.00803
G1 X102.75 Y108.018 E.00803
G1 X102.991 Y108.082 E.00803
G1 X103.168 Y108.259 E.00803
G1 X103.258 Y108.692 E.01423
G1 X103.489 Y109.174 E.01717
G1 X103.879 Y109.444 E.01525
G1 X104.231 Y109.509 E.01152
G1 X104.663 Y109.509 E.01389
G1 X104.375 Y109.102 F9000
G1 F4931
G1 X112.271 Y109.102 E.25391
G1 X112.472 Y109.066 E.00657
G1 X112.726 Y108.883 E.01007
G1 X112.818 Y108.718 E.00607
G1 X112.852 Y108.521 E.00643
G1 X112.852 Y103.702 E.15496
G1 X115.686 Y103.702 E.09113
G1 X116.172 Y103.747 E.01569
G1 F4510.801
G1 X116.447 Y103.832 E.00926
G1 X116.447 Y104.675 E.02711
G1 X116.447 Y113.825 E.29423
G1 X116.447 Y114.669 E.02714
G1 X116.241 Y114.739 E.007
G1 F4931
G1 X115.72 Y114.798 E.01686
G1 X104.231 Y114.798 E.36944
G1 X104.024 Y114.836 E.00677
G1 X103.795 Y114.995 E.00896
G1 X103.656 Y115.303 E.01087
G1 X103.568 Y115.739 E.0143
G1 X103.381 Y116.031 E.01115
G1 X103.089 Y116.218 E.01115
G1 X102.75 Y116.293 E.01116
G1 X102.411 Y116.218 E.01116
G1 X102.119 Y116.031 E.01115
G1 X101.932 Y115.739 E.01115
G1 X101.852 Y115.361 E.01242
G1 X101.852 Y108.539 E.21937
G1 X101.932 Y108.161 E.01242
G1 X102.119 Y107.869 E.01115
G1 X102.411 Y107.682 E.01115
G1 X102.75 Y107.607 E.01116
G1 X103.089 Y107.682 E.01116
G1 X103.381 Y107.869 E.01115
G1 X103.568 Y108.161 E.01115
G1 X103.656 Y108.597 E.0143
G1 X103.795 Y108.905 E.01087
G1 X104.024 Y109.064 E.00896
G1 X104.231 Y109.102 E.00677
G1 X104.335 Y109.102 E.00334
G1 X104.09 Y108.646 F9000
M204 P1000
;TYPE:Outer wall
;WIDTH:0.419999
G1 F2400
G1 X104.231 Y108.71 E.00461
G1 X104.86 Y108.71 E.01874
G1 X111.643 Y108.71 E.20204
G1 X112.271 Y108.71 E.01871
G1 X112.419 Y108.639 E.00489
G1 X112.46 Y108.521 E.00372
G1 X112.46 Y107.893 E.01871
G1 X112.46 Y103.94 E.11775
G1 X112.46 Y103.31 E.01877
G1 X115.743 Y103.31 E.09779
G1 X116.291 Y103.364 E.0164
G1 X116.504 Y103.437 E.00671
G1 F3000
G1 X116.704 Y103.505 E.00629
M204 P500
;TYPE:Overhang wall
;WIDTH:0.389872
;HEIGHT:0.389872
G1 X116.84 Y103.551 E.00673
G1 X116.84 Y114.949 E.53747
G1 X116.704 Y114.995 E.00673
M204 P1000
;TYPE:Outer wall
;WIDTH:0.419999
;HEIGHT:0.2
G1 X116.504 Y115.063 E.00629
M106 S0
G1 F2400
G1 X116.291 Y115.136 E.00671
G1 X115.74 Y115.19 E.01649
G1 X115.11 Y115.19 E.01877
G1 X104.86 Y115.19 E.30531
G1 X104.231 Y115.19 E.01874
G1 X104.09 Y115.254 E.00461
M73 P3 R21
M73 P3 R21
G1 X103.994 Y115.733 E.01455
G1 X103.866 Y116.044 E.01002
G1 X103.661 Y116.311 E.01003
G1 X103.394 Y116.516 E.01003
G1 X103.083 Y116.644 E.01002
G1 X102.75 Y116.688 E.01001
G1 X102.417 Y116.644 E.01001
G1 X102.106 Y116.516 E.01002
G1 X101.839 Y116.311 E.01003
G1 X101.634 Y116.044 E.01003
G1 X101.506 Y115.733 E.01002
G1 X101.46 Y115.386 E.01043
G1 X101.46 Y114.756 E.01877
G1 X101.46 Y110.267 E.13371
G1 X101.46 Y109.637 E.01877
G1 X101.484 Y108.333 E.03885
G1 X101.57 Y108.011 E.00993
G1 X101.737 Y107.723 E.00992
G1 X101.973 Y107.487 E.00994
G1 X102.261 Y107.32 E.00992
G1 X102.583 Y107.234 E.00993
G1 X102.917 Y107.234 E.00995
G1 X103.239 Y107.32 E.00993
G1 X103.527 Y107.487 E.00992
G1 X103.763 Y107.723 E.00994
G1 X103.93 Y108.011 E.00992
G1 X104.016 Y108.333 E.00993
G1 X104.08 Y108.607 E.00838
G1 E-1.6
;WIPE_START
G1 F9000
G1 X104.231 Y108.71
G1 X106.049 Y108.71
;WIPE_END
G1 Z.8
G1 X105.046 Y109.901
G1 Z.8
G1 Z.4
G1 E1.6 F1800
M204 P2500
;TYPE:Internal solid infill
G1 F4931
G1 X104.231 Y109.901 E.02426
G1 X103.725 Y109.805 E.01535
G1 X103.229 Y109.463 E.01795
G1 X102.888 Y108.809 E.02197
G1 X102.814 Y108.454 E.0108
G1 X102.704 Y108.446 E.00329
G1 X102.666 Y108.517 E.00239
G2 X102.651 Y112.296 I123.209 J2.384 E.11256
G1 X105.017 Y109.93 E.09967
G1 X104.143 Y110.27 F9000
G1 F4931
G1 X103.563 Y110.145 E.01769
G1 X103.028 Y109.783 E.01924
G1 X103.028 Y111.385 E.04774
G1 X104.115 Y110.299 E.04578
G1 X103.425 Y110.442 F9000
;WIDTH:0.413688
G1 F4931
G1 X103.356 Y110.483 E.00235
G1 X103.429 Y110.517 E.00236
G1 X102.816 Y115.366 F9000
;WIDTH:0.498508
G1 F4931
G2 X102.824 Y115.45 I-.027 J.045 E.00839
G1 X103.735 Y114.217 F9000
;WIDTH:0.38292
G1 F4931
G1 X103.671 Y114.254 E.00198
G1 X103.736 Y114.289 E.00198
G1 X115.74 Y114.022 F9000
G1 F4931
G1 X115.677 Y114.059 E.00198
G1 X115.742 Y114.094 E.00198
G1 X115.94 Y113.456 F9000
;WIDTH:0.422792
G1 F4931
G1 X115.276 Y114.121 E.0282
G1 X115.171 Y114.121 E.00314
G1 X115.153 Y114.103 E.00074
G1 X114.756 Y114.103 E.01193
G1 X115.753 Y113.106 E.04231
G1 X115.753 Y112.569 E.01612
G1 X114.219 Y114.103 E.06511
G1 X113.681 Y114.103 E.01612
G1 X115.753 Y112.032 E.08791
G1 X115.753 Y111.495 E.01612
G1 X113.144 Y114.103 E.1107
G1 X112.607 Y114.103 E.01612
G1 X115.753 Y110.957 E.1335
G1 X115.753 Y110.42 E.01612
G1 X112.07 Y114.103 E.1563
G1 X111.533 Y114.103 E.01612
G1 X115.753 Y109.883 E.1791
G1 X115.753 Y109.346 E.01612
G1 X110.995 Y114.103 E.20189
G1 X110.458 Y114.103 E.01612
G1 X115.753 Y108.809 E.22469
G1 X115.753 Y108.271 E.01612
G1 X109.921 Y114.103 E.24749
G1 X109.384 Y114.103 E.01612
G1 X115.753 Y107.734 E.27029
G1 X115.753 Y107.197 E.01612
G1 X108.846 Y114.103 E.29309
G1 X108.309 Y114.103 E.01612
G1 X112.673 Y109.739 E.18519
G3 X112.079 Y109.797 I-.512 J-2.204 E.01797
G1 X107.772 Y114.103 E.18276
G1 X107.235 Y114.103 E.01612
G1 X111.542 Y109.797 E.18276
G1 X111.004 Y109.797 E.01612
G1 X106.698 Y114.103 E.18276
G1 X106.16 Y114.103 E.01612
G1 X110.467 Y109.797 E.18276
G1 X109.93 Y109.797 E.01612
G1 X105.623 Y114.103 E.18276
G1 X105.086 Y114.103 E.01612
G1 X109.393 Y109.797 E.18276
G1 X108.855 Y109.797 E.01612
G1 X104.549 Y114.103 E.18276
G2 X103.977 Y114.138 I-.064 J3.682 E.01721
G1 X108.318 Y109.797 E.18423
G1 X107.781 Y109.797 E.01612
G1 X102.547 Y115.031 E.22213
G1 X102.547 Y114.494 E.01612
G1 X107.244 Y109.797 E.19933
G1 X106.707 Y109.797 E.01612
G1 X102.547 Y113.957 E.17653
G1 X102.547 Y113.419 E.01612
G1 X106.169 Y109.797 E.15374
G1 X105.772 Y109.797 E.01193
G1 X105.754 Y109.779 E.00074
G1 X105.65 Y109.779 E.00314
G1 X102.359 Y113.069 E.13963
G1 X103.8 Y114.27 F9000
;TYPE:Gap infill
;WIDTH:0.106105
G1 F3000
G2 X103.735 Y114.178 I-.59 J.351 E.00057
G1 X103.692 Y114.198 E.00023
G2 X102.613 Y115.277 I175.357 J176.437 E.00762
G1 X102.574 Y115.296 E.00022
;WIDTH:0.159923
G1 X102.465 Y115.337 E.00108
G1 E-1.6 F2400
;WIPE_START
G1 F9000
G1 X102.574 Y115.296
;WIPE_END
G1 X108.797 Y110.877 Z.8
G1 X114.433 Y106.873 Z.8
G1 Z.4
G1 E1.6 F1800
;TYPE:Internal solid infill
;WIDTH:0.475824
G1 F4931
G1 X114.866 Y106.44 E.02094
G1 X114.866 Y105.283 E.03957
G1 X114.433 Y105.283 E.0148
G1 X114.433 Y106.833 E.053
G1 X114.028 Y107.851 F9000
;WIDTH:0.419999
G1 F4931
G1 X115.271 Y106.608 E.05236
G1 X115.271 Y104.878 E.05152
G1 X114.028 Y104.878 E.03702
G1 X114.028 Y107.811 E.08735
G1 X113.604 Y108.809 F9000
G1 F4931
G1 X115.637 Y106.776 E.08564
G2 X115.648 Y104.501 I-129.558 J-1.775 E.06774
G1 X113.651 Y104.501 E.05949
G1 X113.651 Y108.521 E.11975
G1 X113.61 Y108.769 E.00748
G1 X112.982 Y109.564 F9000
;WIDTH:0.38292
G1 F4931
G1 X113.236 Y109.333 E.00923
; stop printing object Inserimento 1 id:13817043657872900096 copy 0
;TIME_ELAPSED:45.184181

;LAYER_CHANGE
;Z:0.6
;HEIGHT:0.2
;BEFORE_LAYER_CHANGE
;0.6
G92 E0

G1 E-1.6 F2400
;WIPE_START
G1 F9000
G1 X112.982 Y109.564
;WIPE_END
;_SET_FAN_SPEED_CHANGING_LAYER
; printing object Inserimento 1 id:13817043657872900096 copy 0
G1 X105.35 Y109.513 Z.8
G1 X104.705 Y109.509 Z.8
G1 Z.6
G1 E1.6 F1800
M204 P2000
;TYPE:Inner wall
;WIDTH:0.449999
G1 F5400
G1 X112.395 Y109.509 E.24727
G2 X113.259 Y108.521 I-.169 J-1.02 E.04572
G1 X113.259 Y104.109 E.14188
G3 X115.891 Y104.118 I.771 J162.864 E.08464
G1 X116.398 Y104.222 E.01664
G1 X116.398 Y114.278 E.32337
G1 X115.723 Y114.391 E.022
G1 X104.231 Y114.391 E.36954
G1 X103.879 Y114.456 E.01152
G1 X103.489 Y114.726 E.01525
G1 X103.252 Y115.25 E.01847
G1 X103.168 Y115.641 E.01288
G1 X102.991 Y115.818 E.00803
G1 X102.75 Y115.882 E.00803
G1 X102.509 Y115.818 E.00803
G1 X102.332 Y115.641 E.00803
G1 X102.259 Y115.334 E.01016
G1 X102.259 Y108.598 E.21659
G1 X102.332 Y108.259 E.01116
G1 X102.509 Y108.082 E.00803
G1 X102.742 Y108.019 E.00776
G1 X102.991 Y108.082 E.00828
G1 X103.168 Y108.259 E.00802
G1 X103.258 Y108.692 E.01423
G1 X103.489 Y109.174 E.01717
