;TIME:2991.04
;Filament used:3.38347m
;Layer height:0.200
; HEADER_BLOCK_START
; generated by Creality_Print V6.0.5.1840 on 2025-06-06 at 07:47:09
; total layer number: 95
; filament_density: 1.24
; filament_diameter: 1.75
; max_z_height: 19.10
; HEADER_BLOCK_END

; MINX = 72.11
; MINY = 92.04
; MINZ = 0.00
; MAXX = 147.89
; MAXY = 127.96
; MAXZ = 18.20

; THUMBNAIL_BLOCK_START

;
; THUMBNAIL_BLOCK_END

; THUMBNAIL_BLOCK_START

;
; THUMBNAIL_BLOCK_END

; external perimeters extrusion width = 0.42mm
; perimeters extrusion width = 0.45mm
; infill extrusion width = 0.45mm
; solid infill extrusion width = 0.42mm
; top infill extrusion width = 0.42mm
; support material extrusion width = 0.40mm
; first layer extrusion width = 0.60mm

; EXECUTABLE_BLOCK_START
M73 P0 R49
M201 X5000 Y5000 Z500 E5000
M203 X500 Y500 Z30 E100
M204 P5000 R2500 T5000 ; sets acceleration (P, T) and retract acceleration (R), mm/sec^2
M205 X10.00 Y10.00 Z0.40 E5.00 ; sets the jerk limits, mm/sec
;TYPE:Custom
M220 S100 ;Reset Feedrate 
M221 S100 ;Reset Flowrate 
 
M140 S75 ;Set final bed temp 
G28 ;Home 
 
G92 E0 ;Reset Extruder 
G1 Z2.0 F3000 ;Move Z Axis up 
M104 S200 ;Set final nozzle temp 
G1 X-2.1 Y20 Z0.28 F5000.0 ;Move to start position 
M190 S75 ;Wait for bed temp to stabilize 
M109 S200 ;Wait for nozzle temp to stabilize 
G1 X-2.1 Y145.0 Z0.28 F1500.0 E15 ;Draw the first line 
G1 X-2.4 Y145.0 Z0.28 F5000.0 ;Move to side a little 
G1 X-2.4 Y20 Z0.28 F1500.0 E30 ;Draw the second line 
G92 E0  ;Reset Extruder 
G1 E-1.0000 F1800 ;Retract a bit 
G1 Z2.0 F3000 ;Move Z Axis up 
G1 E0.0000 F1800
G90
G21
M83 ; use relative distances for extrusion
" "
G1 E-1.6 F2400
M106 S0
;LAYER_CHANGE
;Z:0.2
;HEIGHT:0.2
;BEFORE_LAYER_CHANGE
;0.2
G92 E0

;_SET_FAN_SPEED_CHANGING_LAYER
M204 P125
M205 X10 Y10
; printing object Stopper id:8171063952611762432 copy 0
M204 T125
G1 Z.4 F9000
G1 X69.594 Y112.71
G1 Z.2
G1 E1.6 F1800
;TYPE:Support
;WIDTH:0.6
G1 F600
G3 X68.266 Y112.803 I-.337 J4.759 E1.26034
G3 X69.51 Y112.707 I.886 J3.376 E.05521
G1 E-1.6 F2400
;WIPE_START
G1 F600
G1 X68.266 Y112.803
G1 X67.574 Y113.098
;WIPE_END
G1 X67.94 Y113.435 Z.6 F9000
G1 Z.2
G1 E1.6 F1800
G1 F600
G3 X70.65 Y113.398 I1.415 J4.243 E.12118
G1 E-1.6 F2400
;WIPE_START
G1 F600
G1 X69.137 Y113.191
G1 X68.673 Y113.286
;WIPE_END
G1 X70.664 Y120.654 Z.6 F9000
G1 X70.874 Y121.433 Z.6
G1 Z.2
G1 E1.6 F1800
G1 F600
G2 X71.484 Y121.142 I-.498 J-1.826 E.0299
G1 X67.173 Y121.142 E.18968
G3 X66.343 Y120.523 I3.206 J-5.167 E.04563
G1 X72.288 Y120.523 E.2616
G2 X72.816 Y119.904 I-1.442 J-1.766 E.036
G1 X65.822 Y119.904 E.30776
G3 X65.46 Y119.285 I1.523 J-1.307 E.03173
G1 X73.175 Y119.285 E.3395
G2 X73.411 Y118.666 I-1.588 J-.962 E.02932
G1 X65.228 Y118.666 E.36013
G3 X65.103 Y118.047 I1.641 J-.653 E.02794
G1 X73.549 Y118.047 E.37167
G2 X73.598 Y117.428 I-1.683 J-.446 E.02747
G1 X65.066 Y117.428 E.37544
G3 X65.116 Y116.809 I1.728 J-.174 E.02747
G1 X73.542 Y116.809 E.37082
G2 X73.392 Y116.19 I-1.782 J.106 E.02818
G1 X65.254 Y116.19 E.3581
G3 X65.494 Y115.571 I1.824 J.352 E.02938
G1 X73.141 Y115.571 E.33647
G2 X72.765 Y114.952 I-1.895 J.728 E.03204
G1 X65.865 Y114.952 E.30363
G3 X66.419 Y114.333 I11.922 J10.122 E.03657
G1 X72.214 Y114.333 E.25498
G2 X71.376 Y113.714 I-2.126 J2 E.04608
G1 X67.305 Y113.714 E.17915
G1 X66.973 Y113.892 E.0166
G1 E-1.6 F2400
;WIPE_START
G1 F600
G1 X67.305 Y113.714
G1 X68.928 Y113.714
;WIPE_END
G1 X75.979 Y110.792 Z.6 F9000
G1 X129.474 Y88.624 Z.6
G1 Z.2
M73 P1 R49
M73 P1 R49
G1 E1.6 F1800
G1 F600
G3 X132.666 Y90.381 I-.17 J4.087 E.16616
G3 X136.981 Y90.289 I2.246 J4.08 E.19749
G3 X140.498 Y91.036 I.856 J4.622 E.16237
G3 X145.837 Y93.168 I1.565 J3.831 E.27965
G3 X145.819 Y97.26 I-1.428 J2.04 E.21141
G3 X141.456 Y98.501 I-2.432 J-.262 E.25547
G1 X140.988 Y98.413 E.02094
G3 X137.925 Y98.571 I-1.622 J-1.676 E.14727
G3 X135.031 Y98.201 I-1.201 J-2.106 E.13775
G3 X131.129 Y98.948 I-2.606 J-3.044 E.18296
G3 X128.63 Y98.931 I-1.234 J-2.216 E.11496
G3 X126.804 Y98.846 I-.716 J-4.28 E.08104
G3 X123.761 Y98.836 I-1.515 J-1.912 E.1446
G3 X122.325 Y99.094 I-1.127 J-2.148 E.06523
G3 X120.803 Y99.865 I-1.822 J-1.709 E.0766
G3 X116.642 Y100.984 I-2.423 J-.716 E.22708
G3 X114.037 Y102.307 I-2.182 J-1.07 E.13792
G3 X112.425 Y102.922 I-1.382 J-1.2 E.07907
G2 X111.597 Y103.912 I1.392 J2.005 E.05748
G3 X109.602 Y104.974 I-2.198 J-1.725 E.10238
G3 X107.489 Y106.796 I-2.44 J-.693 E.13003
G3 X105.941 Y108.743 I-2.356 J-.284 E.11523
G3 X107.567 Y111.384 I-1.045 J2.465 E.14556
G3 X108.606 Y112.538 I-1.255 J2.173 E.06946
G3 X110.428 Y114.74 I-.493 J2.263 E.13553
G3 X112.518 Y116.325 I-.248 J2.498 E.12146
G3 X114.265 Y117.211 I-.662 J3.47 E.08733
G3 X117.299 Y118.958 I.585 J2.494 E.16966
G3 X119.149 Y119.261 I.365 J3.564 E.08346
G3 X120.427 Y119.156 I.835 J2.329 E.05705
G3 X123.883 Y119.25 I1.681 J1.767 E.16911
G3 X126.495 Y119.721 I.901 J2.483 E.12238
G2 X127.833 Y118.743 I-1.175 J-3.013 E.07373
G3 X131.031 Y119.309 I1.229 J2.377 E.15357
G3 X133.057 Y118.516 I1.764 J1.521 E.09963
G3 X135.815 Y118.021 I1.751 J1.826 E.13068
G3 X138.868 Y117.853 I1.643 J2.029 E.14376
G3 X140.467 Y117.763 I.932 J2.309 E.07174
G3 X143.961 Y117.534 I1.859 J1.591 E.17171
G3 X147.213 Y118.725 I1.052 J2.161 E.17015
G3 X149.088 Y122.713 I-.119 J2.491 E.23781
G3 X144.863 Y125.011 I-2.239 J.916 E.3111
G3 X142.76 Y124.511 I-.567 J-2.294 E.09882
G3 X141.208 Y124.067 I.013 J-2.974 E.07192
G3 X139.448 Y123.889 I-.634 J-2.527 E.07943
G3 X137.055 Y124.379 I-1.743 J-2.423 E.11075
G3 X134.792 Y125.039 I-1.718 J-1.684 E.10837
G3 X131.396 Y125.98 I-2.132 J-1.093 E.17429
G3 X129.574 Y126.269 I-1.287 J-2.227 E.08304
G3 X126.064 Y125.638 I-1.42 J-2.18 E.1729
G3 X121.945 Y126.338 I-2.288 J-.999 E.21777
G3 X120.189 Y126.596 I-1.227 J-2.248 E.07977
G3 X117.226 Y126.445 I-1.389 J-1.878 E.14142
G3 X114.667 Y125.246 I-.228 J-2.843 E.1301
G3 X111.977 Y124.224 I-.576 J-2.536 E.13419
G3 X108.955 Y121.962 I-.566 J-2.393 E.18935
G3 X107.855 Y121.019 I1.023 J-2.305 E.0647
G3 X105.131 Y119.603 I-.529 J-2.311 E.14699
G3 X103.5 Y115.363 I.129 J-2.483 E.25204
G3 X101.094 Y113.568 I.155 J-2.718 E.13989
G3 X98.464 Y112.495 I-.477 J-2.589 E.13204
G3 X96.769 Y113.771 I-24.12 J-30.272 E.09336
G2 X94.996 Y114.674 I1.047 J4.245 E.08833
G3 X92.182 Y113.836 I-.796 J-2.472 E.13734
G3 X91.495 Y113.593 I.046 J-1.221 E.03258
G3 X88.695 Y113.761 I-1.53 J-2.083 E.13044
G3 X86.322 Y113.564 I-1.006 J-2.281 E.10928
G3 X85.795 Y113.788 I-3.055 J-6.439 E.02522
G1 X85.302 Y113.998 E.02356
G1 X85.302 Y117.105 E.13671
G1 X84.306 Y118.101 E.06197
G1 X79.199 Y118.101 E.22475
G1 X78.203 Y117.105 E.06197
G1 X78.203 Y113.709 E.14946
M73 P1 R48
M73 P1 R48
G2 X77.217 Y113.719 I-.487 J.588 E.04717
G3 X75.562 Y112.984 I-.036 J-2.148 E.08225
G3 X72.961 Y112.401 I-.865 J-2.233 E.12441
G3 X72.489 Y109.868 I1.439 J-1.579 E.12172
G3 X73.489 Y107.058 I2.032 J-.86 E.14412
G1 X73.489 Y106.277 E.03438
G3 X75.3 Y104.858 I-1.928 J-4.325 E1.20715
G3 X77.417 Y105.693 I.157 J2.704 E.10335
G3 X78.203 Y105.349 I1.004 J1.225 E.03825
G1 X78.203 Y102.897 E.10791
G1 X79.199 Y101.901 E.06197
G1 X84.306 Y101.901 E.22475
G1 X85.302 Y102.897 E.06197
G1 X85.302 Y106.032 E.13798
G3 X85.875 Y106.836 I-1.432 J1.627 E.0438
G3 X88.901 Y106.973 I1.409 J2.363 E.14116
G3 X91.492 Y106.984 I1.287 J2.088 E.12017
G3 X93.684 Y107.03 I1.057 J1.844 E.10133
G3 X97.205 Y107.44 I1.57 J1.846 E.17496
G1 X97.716 Y107.219 E.02451
G3 X99.846 Y104.295 I2.524 J-.4 E.17687
G3 X102.059 Y102.882 I2.313 J1.184 E.12113
G2 X103.209 Y101.702 I-1.534 J-2.645 E.07342
G2 X104.498 Y100.401 I-1.815 J-3.088 E.0815
M73 P2 R48
M73 P2 R48
G2 X106.411 Y98.633 I-6.634 J-9.097 E.11489
G2 X107.873 Y97.61 I-.175 J-1.806 E.08209
G3 X109.775 Y96.765 I2.182 J2.351 E.09327
G3 X113.042 Y95.525 I2.421 J1.455 E.16577
G3 X114.586 Y95.619 I.598 J2.914 E.06887
G3 X115.844 Y94.463 I2.324 J1.268 E.07653
G3 X120.591 Y90.898 I3.626 J-.116 E.30602
G3 X125.964 Y90.6 I2.815 J2.161 E.2688
G3 X129.39 Y88.624 I3.397 J1.931 E.1825
G1 E-1.6 F2400
;WIPE_START
G1 F600
G1 X128.303 Y88.755
G1 X127.57 Y89.044
G1 X127.473 Y89.109
;WIPE_END
G1 X128.3 Y89.295 Z.6 F9000
G1 Z.2
G1 E1.6 F1800
G1 F600
G3 X129.837 Y89.146 I1.335 J5.777 E.06813
G1 E-1.6 F2400
;WIPE_START
G1 F600
G1 X128.3 Y89.295
;WIPE_END
G1 X121.324 Y92.392 Z.6 F9000
G1 X112.96 Y96.104 Z.6
G1 Z.2
G1 E1.6 F1800
G1 F600
G3 X113.983 Y95.996 I.662 J1.365 E.04617
G1 E-1.6 F2400
;WIPE_START
G1 F600
G1 X112.96 Y96.104
;WIPE_END
G1 X120.54 Y96.997 Z.6 F9000
G1 X133.451 Y98.518 Z.6
G1 Z.2
G1 E1.6 F1800
G1 F600
G3 X131.438 Y98.534 I-1.034 J-3.463 E.08973
G1 X130.871 Y98.518 F9000
G1 F600
G3 X129.091 Y98.603 I-.976 J-1.762 E.08122
G1 E-1.6 F2400
;WIPE_START
G1 F600
G1 X130.013 Y98.794
G1 X130.871 Y98.518
;WIPE_END
G1 X123.239 Y98.539 Z.6 F9000
G1 X123.187 Y98.54 Z.6
G1 Z.2
G1 E1.6 F1800
G1 F600
G3 X122.132 Y98.57 I-.575 J-1.662 E.04714
G1 E-1.6 F2400
;WIPE_START
G1 F600
G1 X123.187 Y98.54
;WIPE_END
G1 X115.636 Y99.653 Z.6 F9000
G1 X72.983 Y105.946 Z.6
G1 Z.2
G1 E1.6 F1800
G1 F600
G3 X70.609 Y106.104 I-1.629 J-6.567 E.10525
G1 E-1.6 F2400
;WIPE_START
G1 F600
G1 X72.116 Y106.169
G1 X72.592 Y106.046
;WIPE_END
G1 X79.51 Y109.271 Z.6 F9000
G1 X88.308 Y113.373 Z.6
G1 Z.2
G1 E1.6 F1800
G1 F600
G1 X87.231 Y113.412 E.04741
G1 E-1.6 F2400
;WIPE_START
G1 F600
G1 X88.308 Y113.373
;WIPE_END
G1 X95.896 Y114.195 Z.6 F9000
G1 X134.3 Y118.356 Z.6
G1 Z.2
G1 E1.6 F1800
G1 F600
G3 X135.127 Y118.328 I.526 J3.268 E.03651
G1 E-1.6 F2400
;WIPE_START
G1 F600
G1 X134.3 Y118.356
;WIPE_END
G1 X126.678 Y118.754 Z.6 F9000
G1 X121.843 Y119.006 Z.6
G1 Z.2
G1 E1.6 F1800
G1 F600
G1 X122.213 Y118.967 E.01639
G1 E-1.6 F2400
;WIPE_START
G1 F600
G1 X121.843 Y119.006
;WIPE_END
G1 X129.158 Y121.184 Z.6 F9000
G1 X138.265 Y123.896 Z.6
G1 Z.2
G1 E1.6 F1800
G1 F600
G3 X137.896 Y123.963 I-.683 J-2.709 E.01653
G1 E-1.6 F2400
;WIPE_START
G1 F600
G1 X138.265 Y123.896
;WIPE_END
G1 X135.867 Y124.516 Z.6 F9000
G1 Z.2
G1 E1.6 F1800
G1 F600
G1 X135.443 Y124.603 E.01904
G1 E-1.6 F2400
;WIPE_START
G1 F600
G1 X135.867 Y124.516
;WIPE_END
G1 X133.145 Y125.753 Z.6 F9000
G1 Z.2
G1 E1.6 F1800
G1 F600
G1 X132.172 Y125.77 E.0428
G1 E-1.6 F2400
;WIPE_START
G1 F600
G1 X133.145 Y125.753
;WIPE_END
G1 X130.666 Y125.753 Z.6 F9000
G1 Z.2
G1 E1.6 F1800
G1 F600
G1 X129.469 Y125.754 E.05266
G1 E-1.6 F2400
;WIPE_START
G1 F600
G1 X130.666 Y125.753
;WIPE_END
G1 X131.039 Y118.13 Z.6 F9000
G1 X132.375 Y90.812 Z.6
G1 Z.2
G1 E1.6 F1800
G1 F600
G1 X126.425 Y90.812 E.26187
G3 X126.893 Y90.193 I1.715 J.81 E.0344
G1 X131.837 Y90.193 E.21758
G2 X131.063 Y89.574 I-3.007 J2.968 E.04373
G1 X127.668 Y89.574 E.14939
G1 E-1.6 F2400
;WIPE_START
G1 F600
G1 X129.668 Y89.574
;WIPE_END
G1 X122.377 Y90.193 Z.6 F9000
G1 Z.2
G1 E1.6 F1800
G1 F600
G1 X124.429 Y90.193 E.09029
G3 X125.472 Y90.812 I-1.172 J3.163 E.05366
G1 X121.353 Y90.812 E.18124
G2 X120.826 Y91.431 I1.121 J1.489 E.03607
G1 X140.188 Y91.431 E.85205
G1 X140.411 Y91.603 E.01239
G1 X140.878 Y91.431 E.02187
G1 X143.452 Y91.431 E.1133
G3 X144.458 Y92.05 I-.98 J2.72 E.05235
G1 X117.302 Y92.05 E1.19503
G3 X118.222 Y91.431 I2.749 J3.093 E.04895
G1 X120.598 Y91.431 E.10454
G1 E-1.6 F2400
;WIPE_START
G1 F600
G1 X118.598 Y91.431
;WIPE_END
G1 X126.23 Y91.371 Z.6 F9000
G1 X139.966 Y91.263 Z.6
G1 Z.2
M73 P3 R48
M73 P3 R48
G1 E1.6 F1800
G1 F600
G2 X139.041 Y90.812 I-2.314 J3.569 E.0454
G1 X136.914 Y90.812 E.09361
G1 X136.24 Y90.501 F9000
G1 F600
G3 X136.867 Y90.812 I-.568 J1.937 E.03095
G1 X132.925 Y90.812 E.17346
G1 X132.587 Y90.985 E.01672
G1 E-1.6 F2400
;WIPE_START
G1 F600
G1 X132.925 Y90.812
G1 X134.545 Y90.812
;WIPE_END
G1 X126.938 Y91.434 Z.6 F9000
G1 X117.097 Y92.239 Z.6
G1 Z.2
G1 E1.6 F1800
G1 F600
G2 X116.792 Y92.669 I2.146 J1.85 E.02324
G1 X145.011 Y92.669 E1.24178
G3 X145.349 Y93.288 I-1.33 J1.13 E.03126
G1 X116.505 Y93.288 E1.26933
G2 X116.366 Y93.907 I2.774 J.944 E.02796
G1 X145.941 Y93.907 E1.30143
G3 X146.335 Y94.526 I-.788 J.937 E.0328
G1 X116.345 Y94.526 E1.31971
G1 X116.346 Y94.77 E.01076
G2 X115.644 Y95.145 I.404 J1.603 E.03537
G1 X146.465 Y95.145 E1.35629
G3 X146.39 Y95.764 I-1.033 J.188 E.02786
G1 X115.085 Y95.764 E1.37755
G1 E-1.6 F2400
;WIPE_START
G1 F600
G1 X117.085 Y95.764
;WIPE_END
G1 X112.43 Y95.937 Z.6 F9000
G1 Z.2
G1 E1.6 F1800
G1 F600
G2 X110.686 Y96.383 I-.466 J1.81 E.08264
G1 X146.062 Y96.383 E1.55673
M73 P3 R47
M73 P3 R47
G2 X145.351 Y97.001 I15.263 J18.247 E.04148
G1 X110.219 Y97.001 E1.54601
G1 E-1.6 F2400
;WIPE_START
G1 F600
G1 X112.219 Y97.001
;WIPE_END
G1 X119.838 Y97.445 Z.6 F9000
G1 X144.117 Y98.858 Z.6
G1 Z.2
M73 P4 R47
M73 P4 R47
G1 E1.6 F1800
G1 F600
G1 X142.729 Y98.858 E.06107
G3 X141.884 Y98.239 I.8 J-1.98 E.0466
G1 X144.932 Y98.239 E.13413
G2 X145.256 Y97.62 I-3.024 J-1.978 E.0308
G1 X135.127 Y97.62 E.44572
G2 X135.986 Y98.239 I1.414 J-1.056 E.04731
G1 X137.489 Y98.239 E.06612
G1 X137.803 Y98.066 E.01578
G1 E-1.6 F2400
;WIPE_START
G1 F600
G1 X137.489 Y98.239
G1 X135.986 Y98.239
G1 X135.873 Y98.158
;WIPE_END
G1 X128.255 Y98.62 Z.6 F9000
G1 X125.923 Y98.761 Z.6
G1 Z.2
G1 E1.6 F1800
G1 F600
G3 X123.817 Y98.239 I-.628 J-1.974 E.10045
G1 X134.104 Y98.239 E.45264
G2 X134.972 Y97.62 I-1.043 J-2.381 E.04725
G1 X108.627 Y97.62 E1.1593
G2 X108.073 Y98.239 I.708 J1.191 E.03712
G1 X123.804 Y98.239 E.69225
G3 X123.187 Y98.54 I-.786 J-.832 E.03069
G1 E-1.6 F2400
;WIPE_START
G1 F600
G1 X123.804 Y98.239
G1 X122.491 Y98.239
;WIPE_END
G1 X130.123 Y98.166 Z.6 F9000
G1 X140.626 Y98.066 Z.6
G1 Z.2
G1 E1.6 F1800
G1 F600
G3 X140.387 Y98.239 I-.395 J-.292 E.01317
G1 X138.308 Y98.239 E.09151
G1 E-1.6 F2400
;WIPE_START
G1 F600
G1 X140.308 Y98.239
;WIPE_END
G1 X132.733 Y99.171 Z.6 F9000
G1 X78.207 Y105.875 Z.6
G1 Z.2
G1 E1.6 F1800
G1 F600
G2 X77.431 Y106.286 I.343 J1.584 E.03914
G1 X84.847 Y106.286 E.32633
G3 X85.347 Y106.905 I-1.057 J1.366 E.03535
G1 X73.991 Y106.905 E.49974
G1 X73.991 Y106.286 E.02724
G1 X77.338 Y106.286 E.14732
G1 X76.617 Y105.667 E.04184
G1 X73.991 Y105.667 E.11556
G1 X73.991 Y105.522 E.00639
G1 X73.645 Y105.667 E.01649
G1 X69.498 Y105.667 E.18248
G3 X68.617 Y105.048 I1.279 J-2.757 E.04763
G1 X74.535 Y105.048 E.26039
G1 X74.993 Y104.429 E.0339
G1 X68.08 Y104.429 E.30423
G3 X67.705 Y103.81 I1.523 J-1.345 E.03202
G1 X75.366 Y103.81 E.33711
G2 X75.613 Y103.191 I-1.591 J-.994 E.02948
G1 X67.465 Y103.191 E.35853
G3 X67.33 Y102.572 I1.64 J-.682 E.02803
G1 X75.759 Y102.572 E.37092
G2 X75.817 Y101.953 I-1.679 J-.47 E.02751
G1 X67.284 Y101.953 E.3755
G3 X67.324 Y101.334 I1.721 J-.202 E.02744
G1 X75.769 Y101.334 E.37166
G2 X75.629 Y100.715 I-1.775 J.078 E.02808
G1 X67.451 Y100.715 E.35986
G3 X67.678 Y100.096 I1.808 J.311 E.02917
G1 X75.389 Y100.096 E.33935
G2 X75.028 Y99.477 I-1.879 J.681 E.0317
G1 X68.041 Y99.477 E.3075
G3 X68.562 Y98.858 I1.953 J1.116 E.03581
G1 X74.499 Y98.858 E.26127
G2 X73.697 Y98.239 I-2.094 J1.885 E.04484
G1 X69.4 Y98.239 E.18909
G3 X70.017 Y97.94 I1.124 J1.53 E.03036
G1 E-1.6 F2400
;WIPE_START
G1 F600
G1 X69.4 Y98.239
G1 X70.714 Y98.239
;WIPE_END
G1 X78.345 Y98.369 Z.6 F9000
G1 X107.152 Y98.858 Z.6
G1 Z.2
G1 E1.6 F1800
G1 F600
G1 X121.857 Y98.858 E.64708
G3 X120.435 Y99.477 I-1.356 J-1.173 E.07055
G1 X106.206 Y99.477 E.62616
G2 X105.843 Y100.096 I2.227 J1.72 E.03165
M73 P5 R47
M73 P5 R47
G1 X120.131 Y100.096 E.62873
G3 X119.687 Y100.715 I-1.206 J-.397 E.03405
G1 X117.098 Y100.715 E.11393
G2 X119.474 Y100.891 I1.328 J-1.811 E.11052
G1 E-1.6 F2400
;WIPE_START
G1 F600
G1 X118.482 Y101.237
G1 X117.898 Y101.176
G1 X117.584 Y100.995
;WIPE_END
G1 X114.567 Y101.858 Z.6 F9000
G1 Z.2
G1 E1.6 F1800
G1 F600
G1 X103.685 Y101.953 E.47887
G2 X104.512 Y101.334 I-4.478 J-6.846 E.04549
G1 X115.772 Y101.334 E.49547
G2 X116.215 Y100.715 I-.763 J-1.015 E.03403
G1 X104.901 Y100.715 E.49786
G3 X105.605 Y100.226 I1.13 J.874 E.03832
G1 E-1.6 F2400
;WIPE_START
G1 F600
G1 X104.901 Y100.715
G1 X106.044 Y100.715
;WIPE_END
G1 X110.262 Y104.33 Z.6 F9000
G1 Z.2
G1 E1.6 F1800
G1 F600
G1 X100.363 Y104.429 E.43562
G3 X100.892 Y103.81 I1.84 J1.037 E.03605
G1 X111.001 Y103.81 E.44488
G2 X111.393 Y103.191 I-.788 J-.933 E.03275
G1 X102.469 Y103.191 E.39274
G2 X103.262 Y102.572 I-1.885 J-3.233 E.04441
G1 X112.066 Y102.572 E.38741
