;TIME:2602.35
;Filament used:3.46927m
;Layer height:0.200
; HEADER_BLOCK_START
; generated by Creality_Print V6.0.5.1840 on 2025-06-01 at 11:35:32
; total layer number: 220
; filament_density: 1.24
; filament_diameter: 1.75
; max_z_height: 44.00
; HEADER_BLOCK_END

; MINX = 73.50
; MINY = 93.50
; MINZ = 0.00
; MAXX = 146.50
; MAXY = 126.50
; MAXZ = 44.00

; THUMBNAIL_BLOCK_START

;
; THUMBNAIL_BLOCK_END

; THUMBNAIL_BLOCK_START

;
; THUMBNAIL_BLOCK_END

; external perimeters extrusion width = 0.42mm
; perimeters extrusion width = 0.45mm
; infill extrusion width = 0.45mm
; solid infill extrusion width = 0.42mm
; top infill extrusion width = 0.42mm
; support material extrusion width = 0.40mm
; first layer extrusion width = 0.60mm

; EXECUTABLE_BLOCK_START
M73 P0 R43
M201 X5000 Y5000 Z500 E5000
M203 X500 Y500 Z30 E100
M204 P5000 R2500 T5000 ; sets acceleration (P, T) and retract acceleration (R), mm/sec^2
M205 X10.00 Y10.00 Z0.40 E5.00 ; sets the jerk limits, mm/sec
;TYPE:Custom
M220 S100 ;Reset Feedrate 
M221 S100 ;Reset Flowrate 
 
M140 S75 ;Set final bed temp 
G28 ;Home 
 
G92 E0 ;Reset Extruder 
G1 Z2.0 F3000 ;Move Z Axis up 
M104 S200 ;Set final nozzle temp 
G1 X-2.1 Y20 Z0.28 F5000.0 ;Move to start position 
M190 S75 ;Wait for bed temp to stabilize 
M109 S200 ;Wait for nozzle temp to stabilize 
G1 X-2.1 Y145.0 Z0.28 F1500.0 E15 ;Draw the first line 
G1 X-2.4 Y145.0 Z0.28 F5000.0 ;Move to side a little 
G1 X-2.4 Y20 Z0.28 F1500.0 E30 ;Draw the second line 
G92 E0  ;Reset Extruder 
G1 E-1.0000 F1800 ;Retract a bit 
G1 Z2.0 F3000 ;Move Z Axis up 
G1 E0.0000 F1800
G90
G21
M83 ; use relative distances for extrusion
" "
G1 E-1.6 F2400
M106 S0
;LAYER_CHANGE
;Z:0.2
;HEIGHT:0.2
;BEFORE_LAYER_CHANGE
;0.2
G92 E0

;_SET_FAN_SPEED_CHANGING_LAYER
M204 P125
M205 X10 Y10
; printing object Braccio Corto 1 id:8171063952611762432 copy 0
M204 T125
G1 Z.4 F9000
G1 X139.628 Y97.948
G1 Z.2
G1 E1.6 F1800
;TYPE:Inner wall
;WIDTH:0.599999
G1 F600
G1 X139.511 Y97.936 E.00515
G1 X75.064 Y97.936 E2.83601
G1 X75.064 Y95.064 E.12637
G1 X142.69 Y95.064 E2.97588
G1 X142.688 Y99.205 E.1822
M73 P1 R42
;WIDTH:0.629902
M73 P1 R42
G1 X142.673 Y99.588 E.01777
;WIDTH:0.659805
G2 X142.671 Y100.489 I6.94 J.466 E.04395
;WIDTH:0.633044
G1 X142.665 Y118.605 E.84451
;WIDTH:0.673615
G1 X142.642 Y119.401 E.03968
G1 X142.655 Y119.599 E.00988
;WIDTH:0.648009
G1 X142.668 Y119.797 E.00948
;WIDTH:0.622403
G1 X142.679 Y120.508 E.03252
;WIDTH:0.599999
G1 X142.678 Y122.675 E.09537
G1 X139.337 Y122.675 E.147
G1 X139.617 Y122.538 E.01373
G1 X140.463 Y121.965 E.04493
G1 X140.965 Y121.463 E.03126
G1 X141.16 Y121.219 E.01372
G1 X141.673 Y120.336 E.04493
;WIDTH:0.636807
G1 X141.843 Y119.851 E.02413
;WIDTH:0.673615
G1 X142.014 Y119.366 E.02562
G1 X142.079 Y118.51 E.04279
;WIDTH:0.633044
G1 X142.081 Y100.489 E.84005
;WIDTH:0.659805
G1 X142.043 Y100.011 E.02336
G1 X141.923 Y99.696 E.01644
;WIDTH:0.629902
G1 X141.802 Y99.381 E.01564
;WIDTH:0.599999
G1 X141.434 Y98.823 E.02941
G1 X140.934 Y98.379 E.02941
G2 X139.985 Y97.986 I-1.529 J2.349 E.04546
G1 X139.667 Y97.952 E.01407
G1 X140.005 Y98.575 F9000
G1 F600
G1 X139.511 Y98.493 E.02203
G1 X74.507 Y98.493 E2.86052
G1 X74.507 Y94.507 E.1754
G1 X143.247 Y94.507 E3.02492
G1 X143.234 Y123.231 E1.26402
G1 X139.338 Y123.234 E.17148
;WIDTH:0.642826
G1 X139.007 Y123.213 E.01571
;WIDTH:0.685653
G1 X138.676 Y123.192 E.01683
;WIDTH:0.728479
G1 X138.345 Y123.171 E.01795
G1 X137.51 Y123.193 E.04526
;WIDTH:0.68828
G1 X129.395 Y123.208 E.41371
;WIDTH:0.666605
G1 X128.282 Y123.208 E.05483
G3 X129.297 Y122.6 I1.534 J1.406 E.05915
;WIDTH:0.68828
G1 X129.808 Y122.551 E.02619
G1 X137.565 Y122.55 E.39541
;WIDTH:0.728479
G1 X138.307 Y122.487 E.04031
G1 X138.4 Y122.45 E.00543
;WIDTH:0.69672
G1 X138.493 Y122.412 E.00518
;WIDTH:0.664961
G1 X138.907 Y122.239 E.02206
;WIDTH:0.63248
G1 X139.321 Y122.066 E.02091
;WIDTH:0.599999
G1 X140.069 Y121.571 E.03946
G1 X140.688 Y120.923 E.03946
G1 X141.147 Y120.153 E.03946
G1 X141.423 Y119.3 E.03946
M73 P2 R42
M73 P2 R42
G1 X141.507 Y118.51 E.03494
G1 X141.507 Y100.489 E.79303
G1 X141.461 Y100.087 E.01778
G1 X141.288 Y99.594 E.02303
G1 X140.992 Y99.162 E.02302
G1 X140.595 Y98.821 E.02303
G1 X140.123 Y98.595 E.02303
G1 X140.044 Y98.582 E.00352
G1 E-1.6 F2400
;WIPE_START
G1 F9000
G1 X139.511 Y98.493
G1 X138.052 Y98.493
;WIPE_END
G1 X140.582 Y99.544 Z.6
G1 Z.2
G1 E1.6 F1800
;TYPE:Outer wall
G1 F600
G1 X140.55 Y99.501 E.00234
G1 X140.256 Y99.263 E.01665
G1 X139.91 Y99.11 E.01665
G1 X139.511 Y99.05 E.01775
G1 X73.95 Y99.05 E2.88504
G1 X73.95 Y93.95 E.22443
G1 X143.462 Y93.95 E3.05887
G1 X143.804 Y93.986 E.01517
G1 X143.791 Y123.464 E1.29718
G1 X143.621 Y123.733 E.01404
G1 X143.442 Y123.788 E.00823
G1 X127.556 Y123.799 E.69909
G1 X127.321 Y123.705 E.01114
G1 X127.565 Y123.173 E.0258
G1 X127.882 Y122.761 E.02285
G1 X128.303 Y122.402 E.02437
G1 X128.776 Y122.149 E.02356
G1 X129.3 Y121.999 E.02399
G1 X129.808 Y121.95 E.0225
G1 X137.526 Y121.95 E.33963
G1 X138.298 Y121.856 E.0342
G1 X139.025 Y121.594 E.03399
G1 X139.675 Y121.177 E.03399
G1 X140.216 Y120.626 E.03399
G1 X140.621 Y119.969 E.03399
G1 X140.87 Y119.237 E.03399
G1 X140.95 Y118.51 E.0322
G1 X140.95 Y100.489 E.79302
G1 X140.909 Y100.16 E.01458
G1 X140.773 Y99.807 E.01665
G1 X140.605 Y99.576 E.01256
G1 E-1.6 F2400
;WIPE_START
G1 F9000
G1 X140.55 Y99.501
G1 X140.256 Y99.263
G1 X139.91 Y99.11
G1 X139.511 Y99.05
G1 X138.765 Y99.05
;WIPE_END
G1 Z.6
G1 X142.55 Y96.341
G1 Z.6
G1 Z.2
G1 E1.6 F1800
M73 P3 R42
;TYPE:Bottom surface
;WIDTH:0.605805
M73 P3 R42
G1 F1200
G1 X141.663 Y95.454 E.05579
G1 X140.867 Y95.454 E.0354
G1 X142.299 Y96.886 E.09007
G1 X142.299 Y97.682 E.03538
G1 X140.071 Y95.454 E.1401
G1 X139.275 Y95.454 E.0354
G1 X142.298 Y98.478 E.19014
G1 X142.298 Y99.274 E.03538
G1 X138.478 Y95.454 E.24017
G1 X137.682 Y95.454 E.03539
G1 X139.804 Y97.576 E.1334
G2 X138.978 Y97.546 I-.556 J3.978 E.0368
G1 X136.886 Y95.454 E.13153
G1 X136.09 Y95.454 E.0354
G1 X138.182 Y97.546 E.13153
G1 X137.386 Y97.546 E.03539
G1 X135.294 Y95.454 E.13153
G1 X134.498 Y95.454 E.0354
G1 X136.59 Y97.546 E.13153
G1 X135.794 Y97.546 E.03539
G1 X133.702 Y95.454 E.13153
G1 X132.906 Y95.454 E.0354
G1 X134.998 Y97.546 E.13153
G1 X134.202 Y97.546 E.0354
G1 X132.11 Y95.454 E.13153
G1 X131.314 Y95.454 E.0354
G1 X133.406 Y97.546 E.13153
G1 X132.61 Y97.546 E.0354
G1 X130.518 Y95.454 E.13153
G1 X129.722 Y95.454 E.0354
G1 X131.814 Y97.546 E.13153
G1 X131.018 Y97.546 E.0354
G1 X128.926 Y95.454 E.13153
G1 X128.13 Y95.454 E.0354
G1 X130.222 Y97.546 E.13153
G1 X129.426 Y97.546 E.03539
G1 X127.334 Y95.454 E.13153
G1 X126.538 Y95.454 E.0354
G1 X128.63 Y97.546 E.13153
G1 X127.834 Y97.546 E.03539
M73 P3 R41
M73 P3 R41
G1 X125.742 Y95.454 E.13153
G1 X124.946 Y95.454 E.0354
G1 X127.038 Y97.546 E.13153
G1 X126.242 Y97.546 E.0354
G1 X124.15 Y95.454 E.13153
G1 X123.354 Y95.454 E.0354
G1 X125.446 Y97.546 E.13153
G1 X124.649 Y97.546 E.0354
G1 X122.558 Y95.454 E.13153
G1 X121.762 Y95.454 E.0354
G1 X123.853 Y97.546 E.13153
G1 X123.057 Y97.546 E.0354
G1 X120.966 Y95.454 E.13153
G1 X120.17 Y95.454 E.0354
G1 X122.261 Y97.546 E.13153
G1 X121.465 Y97.546 E.03539
G1 X119.374 Y95.454 E.13153
G1 X118.578 Y95.454 E.0354
G1 X120.669 Y97.546 E.13153
G1 X119.873 Y97.546 E.03539
G1 X117.781 Y95.454 E.13153
G1 X116.985 Y95.454 E.0354
G1 X119.077 Y97.546 E.13153
G1 X118.281 Y97.546 E.0354
G1 X116.189 Y95.454 E.13153
G1 X115.393 Y95.454 E.0354
G1 X117.485 Y97.546 E.13153
G1 X116.689 Y97.546 E.0354
G1 X114.597 Y95.454 E.13153
G1 X113.801 Y95.454 E.0354
G1 X115.893 Y97.546 E.13153
G1 X115.097 Y97.546 E.0354
G1 X113.005 Y95.454 E.13153
G1 X112.209 Y95.454 E.03539
G1 X114.301 Y97.546 E.13153
G1 X113.505 Y97.546 E.03539
G1 X111.413 Y95.454 E.13153
G1 X110.617 Y95.454 E.03539
G1 X112.709 Y97.546 E.13153
G1 X111.913 Y97.546 E.03539
G1 X109.821 Y95.454 E.13153
G1 X109.025 Y95.454 E.03539
G1 X111.117 Y97.546 E.13153
G1 X110.321 Y97.546 E.0354
G1 X108.229 Y95.454 E.13153
G1 X107.433 Y95.454 E.03539
G1 X109.525 Y97.546 E.13153
G1 X108.729 Y97.546 E.0354
G1 X106.637 Y95.454 E.13153
G1 X105.841 Y95.454 E.0354
G1 X107.933 Y97.546 E.13153
G1 X107.137 Y97.546 E.03539
G1 X105.045 Y95.454 E.13153
G1 X104.249 Y95.454 E.0354
G1 X106.341 Y97.546 E.13153
G1 X105.545 Y97.546 E.03539
G1 X103.453 Y95.454 E.13153
G1 X102.657 Y95.454 E.0354
G1 X104.748 Y97.546 E.13153
G1 X103.952 Y97.546 E.0354
G1 X101.861 Y95.454 E.13153
G1 X101.065 Y95.454 E.0354
G1 X103.156 Y97.546 E.13153
G1 X102.36 Y97.546 E.0354
G1 X100.269 Y95.454 E.13153
G1 X99.473 Y95.454 E.0354
G1 X101.564 Y97.546 E.13153
G1 X100.768 Y97.546 E.0354
G1 X98.677 Y95.454 E.13153
G1 X97.88 Y95.454 E.0354
G1 X99.972 Y97.546 E.13153
G1 X99.176 Y97.546 E.03539
G1 X97.084 Y95.454 E.13153
G1 X96.288 Y95.454 E.0354
G1 X98.38 Y97.546 E.13153
G1 X97.584 Y97.546 E.03539
G1 X95.492 Y95.454 E.13153
G1 X94.696 Y95.454 E.0354
G1 X96.788 Y97.546 E.13153
G1 X95.992 Y97.546 E.0354
G1 X93.9 Y95.454 E.13153
G1 X93.104 Y95.454 E.0354
G1 X95.196 Y97.546 E.13153
G1 X94.4 Y97.546 E.0354
G1 X92.308 Y95.454 E.13153
G1 X91.512 Y95.454 E.0354
G1 X93.604 Y97.546 E.13153
G1 X92.808 Y97.546 E.0354
G1 X90.716 Y95.454 E.13153
G1 X89.92 Y95.454 E.0354
G1 X92.012 Y97.546 E.13153
G1 X91.216 Y97.546 E.03539
G1 X89.124 Y95.454 E.13153
G1 X88.328 Y95.454 E.0354
G1 X90.42 Y97.546 E.13153
G1 X89.624 Y97.546 E.03539
G1 X87.532 Y95.454 E.13153
G1 X86.736 Y95.454 E.0354
G1 X88.828 Y97.546 E.13153
G1 X88.032 Y97.546 E.0354
G1 X85.94 Y95.454 E.13153
G1 X85.144 Y95.454 E.0354
G1 X87.236 Y97.546 E.13153
G1 X86.44 Y97.546 E.0354
G1 X84.348 Y95.454 E.13153
G1 X83.552 Y95.454 E.0354
G1 X85.644 Y97.546 E.13153
G1 X84.847 Y97.546 E.0354
G1 X82.756 Y95.454 E.13153
G1 X81.96 Y95.454 E.03539
G1 X84.051 Y97.546 E.13153
G1 X83.255 Y97.546 E.03539
G1 X81.164 Y95.454 E.13153
G1 X80.368 Y95.454 E.03539
G1 X82.459 Y97.546 E.13153
G1 X81.663 Y97.546 E.03539
G1 X79.572 Y95.454 E.13153
G1 X78.776 Y95.454 E.03539
G1 X80.867 Y97.546 E.13153
G1 X80.071 Y97.546 E.0354
G1 X77.979 Y95.454 E.13153
G1 X77.183 Y95.454 E.0354
G1 X79.275 Y97.546 E.13153
G1 X78.479 Y97.546 E.0354
G1 X76.387 Y95.454 E.13153
G1 X75.591 Y95.454 E.0354
G1 X77.683 Y97.546 E.13153
G1 X76.887 Y97.546 E.0354
G1 X75.454 Y96.113 E.09011
G1 X75.454 Y96.909 E.03539
G1 X76.342 Y97.797 E.05582
G1 E-1.6 F2400
;WIPE_START
G1 F9000
G1 X75.454 Y96.909
G1 X75.454 Y96.164
;WIPE_END
G1 X82.539 Y99.002 Z.6
G1 X141.299 Y122.536 Z.6
G1 Z.2
G1 E1.6 F1800
;WIDTH:0.658253
G1 F1200
G1 X140.871 Y122.108 E.0294
G1 X141.3 Y121.666 E.02991
G1 X141.919 Y122.285 E.04255
G1 X142.288 Y122.285 E.01794
G1 X142.288 Y121.784 E.02434
G1 X141.66 Y121.156 E.04319
G2 X141.976 Y120.602 I-2.301 J-1.68 E.03107
G1 X142.539 Y121.165 E.03871
; stop printing object Braccio Corto 1 id:8171063952611762432 copy 0
;TIME_ELAPSED:100.788506

;LAYER_CHANGE
;Z:0.4
;HEIGHT:0.2
;BEFORE_LAYER_CHANGE
;0.4
G92 E0

G1 E-1.6 F2400
;WIPE_START
G1 F9000
G1 X141.976 Y120.602
G1 X141.871 Y120.82
G1 X141.66 Y121.156
G1 X142.059 Y121.555
;WIPE_END
;_SET_FAN_SPEED_CHANGING_LAYER
M204 P2500
; printing object Braccio Corto 1 id:8171063952611762432 copy 0
M204 T2500
G1 X141.385 Y113.953 Z.6
G1 X140.02 Y98.577 Z.6
G1 Z.4
G1 E1.6 F1800
M204 P2000
;TYPE:Inner wall
;WIDTH:0.449999
G1 F5400
G1 X139.893 Y98.534 E.00431
G1 X139.501 Y98.491 E.01268
G1 X74.509 Y98.491 E2.08991
G1 X74.509 Y94.509 E.12804
G1 X143.436 Y94.509 E2.21642
G1 X143.774 Y94.541 E.01092
G1 X143.797 Y123.337 E.92596
G1 X143.645 Y123.703 E.01274
G1 X143.371 Y123.797 E.00931
G1 X127.885 Y123.797 E.49799
G3 X129.32 Y122.559 I1.918 J.773 E.06331
G1 X129.823 Y122.509 E.01628
G1 X137.568 Y122.509 E.24903
G1 X138.499 Y122.378 E.03023
G1 X139.337 Y122.059 E.02884
G1 X140.082 Y121.561 E.02884
G1 X140.699 Y120.909 E.02884
G1 X141.155 Y120.137 E.02884
G1 X141.427 Y119.283 E.02884
G1 X141.509 Y118.501 E.02528
G1 X141.509 Y100.412 E.58167
G1 X141.399 Y99.858 E.01819
G1 X141.168 Y99.388 E.01683
G1 X140.824 Y98.994 E.01683
G1 X140.389 Y98.703 E.01683
M73 P4 R41
M73 P4 R41
G1 X140.058 Y98.59 E.01124
G1 X140.188 Y99.071 F9000
G1 F5400
G1 X139.987 Y98.977 E.00714
G1 X139.501 Y98.898 E.01583
G1 X74.102 Y98.898 E2.10299
G1 X74.102 Y94.102 E.15422
G1 X143.484 Y94.102 E2.23107
G1 F4823.253
G1 X144.178 Y94.204 E.02256
G1 F4822.37
G1 X144.179 Y95.027 E.02646
G1 F4160.602
G1 X144.203 Y122.537 E.88462
G1 F4148.401
G1 X144.204 Y123.403 E.02785
G1 F4135.551
G1 X144.053 Y123.857 E.01539
G1 X143.781 Y124.111 E.01197
G1 F4147.072
G1 X143.423 Y124.204 E.01189
G1 X142.557 Y124.204 E.02785
G1 X128.455 Y124.204 E.45347
G1 X127.59 Y124.204 E.02782
G1 X127.369 Y124.155 E.00728
G1 F4740.363
G1 X127.467 Y123.747 E.01349
G1 F5400
G1 X127.656 Y123.326 E.01484
G1 X127.905 Y122.966 E.01408
G1 X128.248 Y122.634 E.01535
G1 X128.675 Y122.364 E.01625
G1 X129.234 Y122.159 E.01915
G1 X129.823 Y122.102 E.01903
G1 X137.538 Y122.102 E.24809
G1 X138.364 Y121.994 E.02679
G1 X139.12 Y121.714 E.02592
G1 X139.794 Y121.273 E.0259
G1 X140.354 Y120.693 E.02593
G1 X140.77 Y120.003 E.02591
G1 X141.023 Y119.237 E.02594
G1 X141.102 Y118.501 E.0238
G1 X141.102 Y100.499 E.57888
G1 X141.062 Y100.16 E.01098
G1 X140.921 Y99.767 E.01343
G1 X140.683 Y99.424 E.01342
G1 X140.364 Y99.155 E.01342
G1 X140.224 Y99.088 E.00499
G1 X140.395 Y99.694 F9000
M204 P1000
;TYPE:Outer wall
;WIDTH:0.419999
G1 F2400
G1 X140.371 Y99.664 E.00114
G1 X140.126 Y99.466 E.00938
G1 X139.837 Y99.339 E.0094
G1 X139.501 Y99.29 E.01011
G1 X138.871 Y99.29 E.01877
G1 X74.34 Y99.29 E1.92215
G1 X73.71 Y99.29 E.01877
G1 X73.71 Y98.66 E.01877
G1 X73.71 Y94.34 E.12868
G1 X73.71 Y93.71 E.01877
G1 X74.34 Y93.71 E.01877
G1 X142.868 Y93.71 E2.04121
G1 X143.498 Y93.71 E.01877
G1 X144.096 Y93.777 E.01792
G1 X144.255 Y93.831 E.005
G1 F3000
G1 X144.455 Y93.9 E.0063
M204 P500
;TYPE:Overhang wall
;WIDTH:0.389872
;HEIGHT:0.389872
G1 X144.572 Y93.94 E.00586
G1 X144.596 Y123.466 E1.39217
G1 X144.399 Y124.058 E.02941
G3 X143.953 Y124.472 I-1.657 J-1.339 E.0288
G1 X143.473 Y124.596 E.02337
G1 X127.59 Y124.596 E.74893
G3 X126.96 Y124.414 I.145 J-1.678 E.03108
G1 X126.971 Y124.26 E.00727
M204 P1000
;TYPE:Outer wall
;WIDTH:0.419999
;HEIGHT:0.2
G1 X126.985 Y124.061 E.00594
G1 F3308.944
G1 X126.99 Y124.044 E.00053
M106 S0
G1 F2400
G1 X127.135 Y123.513 E.0164
G1 X127.401 Y122.989 E.0175
G1 X127.746 Y122.56 E.0164
G1 X128.205 Y122.183 E.01769
G1 X128.743 Y121.906 E.01802
G1 X129.301 Y121.757 E.0172
G1 X129.823 Y121.71 E.01561
G1 X130.453 Y121.71 E.01877
G1 X136.883 Y121.71 E.19153
G1 X137.512 Y121.71 E.01874
G1 X138.235 Y121.624 E.02169
G1 X138.911 Y121.382 E.02139
G1 X139.517 Y120.996 E.0214
G1 X140.022 Y120.484 E.02142
G1 X140.4 Y119.873 E.0214
G1 X140.633 Y119.193 E.02141
G1 X140.71 Y118.501 E.02074
G1 X140.71 Y117.871 E.01877
G1 X140.71 Y101.129 E.49869
G1 X140.71 Y100.499 E.01877
G1 X140.674 Y100.211 E.00865
G1 X140.558 Y99.917 E.00941
G1 X140.418 Y99.726 E.00705
G1 E-1.6
;WIPE_START
G1 F9000
G1 X140.371 Y99.664
G1 X140.126 Y99.466
G1 X139.837 Y99.339
G1 X139.501 Y99.29
G1 X138.549 Y99.29
;WIPE_END
G1 Z.8
G1 X140.958 Y98.615
G1 Z.8
G1 Z.4
G1 E1.6 F1800
M204 P2500
;TYPE:Internal solid infill
G1 F10800
G1 X141.325 Y98.948 E.01477
G1 X141.643 Y99.429 E.01717
G1 X141.847 Y100.02 E.01863
G1 X141.901 Y100.498 E.01431
G1 X141.901 Y118.514 E.53664
G1 X141.757 Y119.591 E.03237
G1 X141.407 Y120.513 E.02937
G1 X141.33 Y120.64 E.00442
G1 X143.401 Y118.569 E.08723
G1 X143.383 Y96.19 E.6666
G1 X140.986 Y98.587 E.10095
G1 X142.067 Y98.63 F9000
;WIDTH:0.495138
G1 F10800
G1 X142.418 Y99.222 E.02459
G1 X142.588 Y99.773 E.0206
;WIDTH:0.471111
G1 X142.618 Y99.978 E.00702
G1 X142.591 Y99.194 E.02654
;WIDTH:0.501066
G1 X142.59 Y98.107 E.03933
G1 X142.095 Y98.602 E.02531
G1 X142.651 Y118.259 F9000
;WIDTH:0.410829
G1 F10800
G1 X142.644 Y100.498 E.51618
G1 X142.62 Y100.018 E.01395
G1 X142.278 Y118.259 F9000
;WIDTH:0.419999
G1 F10800
G1 X142.273 Y118.576 E.00946
G1 X142.183 Y119.254 E.02038
G1 X143.024 Y118.413 E.03544
G1 X143.006 Y97.1 E.63485
G1 X141.508 Y98.598 E.06313
G3 X142.022 Y99.354 I-3.198 J2.727 E.02728
G1 X142.204 Y99.901 E.01717
G1 X142.278 Y100.462 E.01685
G1 X142.278 Y118.219 E.52892
G1 X140.292 Y121.782 F9000
;WIDTH:0.38292
