;TIME:4430.35
;Filament used:9.46617m
;Layer height:0.200
; HEADER_BLOCK_START
; generated by Creality_Print V6.0.5.1840 on 2025-06-04 at 07:30:22
; total layer number: 45
; filament_density: 1.24
; filament_diameter: 1.75
; max_z_height: 9.00
; HEADER_BLOCK_END

; MINX = 73.00
; MINY = 45.50
; MINZ = 0.00
; MAXX = 147.00
; MAXY = 174.50
; MAXZ = 9.00

; THUMBNAIL_BLOCK_START

;
; THUMBNAIL_BLOCK_END

; THUMBNAIL_BLOCK_START

;
; THUMBNAIL_BLOCK_END

; external perimeters extrusion width = 0.42mm
; perimeters extrusion width = 0.45mm
; infill extrusion width = 0.45mm
; solid infill extrusion width = 0.42mm
; top infill extrusion width = 0.42mm
; support material extrusion width = 0.40mm
; first layer extrusion width = 0.60mm

; EXECUTABLE_BLOCK_START
M73 P0 R73
M201 X5000 Y5000 Z500 E5000
M203 X500 Y500 Z30 E100
M204 P5000 R2500 T5000 ; sets acceleration (P, T) and retract acceleration (R), mm/sec^2
M205 X10.00 Y10.00 Z0.40 E5.00 ; sets the jerk limits, mm/sec
;TYPE:Custom
M220 S100 ;Reset Feedrate 
M221 S100 ;Reset Flowrate 
 
M140 S75 ;Set final bed temp 
G28 ;Home 
 
G92 E0 ;Reset Extruder 
G1 Z2.0 F3000 ;Move Z Axis up 
M104 S200 ;Set final nozzle temp 
G1 X-2.1 Y20 Z0.28 F5000.0 ;Move to start position 
M190 S75 ;Wait for bed temp to stabilize 
M109 S200 ;Wait for nozzle temp to stabilize 
G1 X-2.1 Y145.0 Z0.28 F1500.0 E15 ;Draw the first line 
G1 X-2.4 Y145.0 Z0.28 F5000.0 ;Move to side a little 
G1 X-2.4 Y20 Z0.28 F1500.0 E30 ;Draw the second line 
G92 E0  ;Reset Extruder 
G1 E-1.0000 F1800 ;Retract a bit 
G1 Z2.0 F3000 ;Move Z Axis up 
G1 E0.0000 F1800
G90
G21
M83 ; use relative distances for extrusion
" "
G1 E-1.6 F2400
M106 S0
;LAYER_CHANGE
;Z:0.2
;HEIGHT:0.2
;BEFORE_LAYER_CHANGE
;0.2
G92 E0

;_SET_FAN_SPEED_CHANGING_LAYER
M204 P125
M205 X10 Y10
; printing object Cover id:4800591291254150408 copy 0
M204 T125
G1 Z.4 F9000
G1 X144.648 Y172.936
G1 Z.2
G1 E1.6 F1800
;TYPE:Inner wall
;WIDTH:0.599999
G1 F600
G1 X74.564 Y172.936 E3.08406
G1 X74.564 Y47.064 E5.53901
G1 X145.436 Y47.064 E3.11873
G1 X145.436 Y172.936 E5.53901
G1 X144.688 Y172.936 E.03291
M73 P1 R72
M73 P1 R72
G1 X145.393 Y173.493 F9000
G1 F600
G1 X74.007 Y173.493 E3.14135
G1 X74.007 Y46.507 E5.58804
G1 X145.993 Y46.507 E3.16775
G1 X145.993 Y173.493 E5.58804
G1 X145.433 Y173.493 E.02464
M73 P2 R72
M73 P2 R72
G1 E-1.6 F2400
;WIPE_START
G1 F9000
G1 X143.433 Y173.493
;WIPE_END
G1 X146.55 Y174.05 Z.6
G1 Z.2
G1 E1.6 F1800
;TYPE:Outer wall
G1 F600
G1 X73.45 Y174.05 E3.21678
G1 X73.45 Y45.95 E5.63707
G1 X146.55 Y45.95 E3.21678
M73 P2 R71
M73 P2 R71
G1 X146.55 Y174.01 E5.63531
G1 E-1.6 F2400
M73 P3 R71
;WIPE_START
M73 P3 R71
G1 F9000
G1 X144.55 Y174.011
;WIPE_END
G1 X142.65 Y166.619 Z.6
G1 X119.337 Y75.911 Z.6
G1 Z.2
G1 E1.6 F1800
;TYPE:Inner wall
G1 F600
G1 X119.286 Y76.007 E.0048
G1 X118.957 Y76.321 E.02
G1 X118.561 Y76.508 E.01927
G1 X118.171 Y76.564 E.01733
G1 X101.829 Y76.564 E.71917
G1 X101.391 Y76.494 E.01952
G1 X100.993 Y76.286 E.01975
G1 X100.714 Y76.007 E.01733
G1 X100.511 Y75.623 E.01912
G1 X100.436 Y75.171 E.02015
G1 X100.436 Y64.829 E.45514
G1 X100.502 Y64.404 E.01893
G1 X100.695 Y64.02 E.01889
G1 X100.973 Y63.73 E.01769
G1 X101.364 Y63.516 E.01962
G1 X101.733 Y63.436 E.01661
G1 X118.171 Y63.436 E.72338
G1 X118.524 Y63.481 E.01565
G1 X118.939 Y63.666 E.01999
G1 X119.247 Y63.944 E.01823
G1 X119.471 Y64.329 E.01961
G1 X119.564 Y64.765 E.01963
G1 X119.564 Y75.171 E.45794
G1 X119.489 Y75.623 E.02015
G1 X119.355 Y75.875 E.01255
G1 X118.717 Y75.792 F9000
G1 F600
G1 X118.463 Y75.954 E.01325
G1 X118.171 Y76.007 E.01305
G1 X101.829 Y76.007 E.71917
G1 X101.507 Y75.943 E.01442
G1 X101.24 Y75.765 E.01412
G1 X101.054 Y75.485 E.01481
G1 X100.993 Y75.171 E.01404
G1 X100.993 Y64.829 E.45514
G1 X101.068 Y64.483 E.01557
G1 X101.267 Y64.21 E.01485
G1 X101.55 Y64.041 E.01451
G1 X101.829 Y63.993 E.01244
G1 X118.171 Y63.993 E.71917
G1 X118.514 Y64.067 E.01543
G1 X118.777 Y64.253 E.01418
G1 X118.951 Y64.529 E.01435
G1 X119.007 Y64.829 E.01343
G1 X119.007 Y75.171 E.45514
G1 X118.946 Y75.485 E.01404
G1 X118.76 Y75.765 E.01481
G1 X118.751 Y75.771 E.00048
G1 X118.45 Y75.171 F9000
;TYPE:Outer wall
G1 F600
G1 X118.386 Y75.349 E.00833
G1 X118.207 Y75.45 E.00901
G1 X101.829 Y75.45 E.72075
G1 X101.642 Y75.378 E.0088
G1 X101.55 Y75.199 E.00886
G1 X101.55 Y64.829 E.45635
G1 X101.613 Y64.652 E.00827
G1 X101.788 Y64.55 E.00889
G1 X118.171 Y64.55 E.72095
G1 X118.359 Y64.622 E.00883
G1 X118.45 Y64.803 E.00889
G1 X118.45 Y75.131 E.45453
G1 E-1.6 F2400
;WIPE_START
G1 F9000
G1 X118.386 Y75.349
G1 X118.207 Y75.45
G1 X116.639 Y75.45
;WIPE_END
G1 Z.6
G1 X118.79 Y63.25
G1 Z.6
G1 Z.2
G1 E1.6 F1800
;TYPE:Gap infill
;WIDTH:0.116307
G1 F600
G2 X118.528 Y63.083 I-2.128 J3.036 E.0018
G1 E-1.6 F2400
;WIPE_START
G1 F9000
G1 X118.79 Y63.25
;WIPE_END
G1 X125.441 Y59.507 Z.6
G1 X145.297 Y48.33 Z.6
G1 Z.2
G1 E1.6 F1800
;TYPE:Bottom surface
;WIDTH:0.600363
G1 F1200
G1 X144.42 Y47.454 E.05456
G1 X143.632 Y47.454 E.03471
G1 X145.046 Y48.868 E.08805
G1 X145.046 Y49.656 E.03471
G1 X142.844 Y47.454 E.13714
G1 X142.055 Y47.454 E.03471
G1 X145.046 Y50.445 E.18623
G1 X145.046 Y51.233 E.03471
G1 X141.267 Y47.454 E.23532
G1 X140.479 Y47.454 E.03471
G1 X145.046 Y52.021 E.28442
G1 X145.046 Y52.81 E.03471
G1 X139.69 Y47.454 E.33351
G1 X138.902 Y47.454 E.03471
G1 X145.046 Y53.598 E.3826
G1 X145.046 Y54.386 E.03471
G1 X138.114 Y47.454 E.4317
G1 X137.325 Y47.454 E.03471
G1 X145.046 Y55.175 E.48079
G1 X145.046 Y55.963 E.03471
G1 X136.537 Y47.454 E.52988
G1 X135.749 Y47.454 E.03471
G1 X145.046 Y56.751 E.57897
G1 X145.046 Y57.54 E.03471
G1 X134.96 Y47.454 E.62807
G1 X134.172 Y47.454 E.03471
G1 X145.046 Y58.328 E.67716
G1 X145.046 Y59.116 E.03471
G1 X133.384 Y47.454 E.72625
G1 X132.595 Y47.454 E.03471
G1 X145.046 Y59.905 E.77535
G1 X145.046 Y60.693 E.03471
G1 X131.807 Y47.454 E.82444
G1 X131.019 Y47.454 E.03471
G1 X145.046 Y61.481 E.87353
G1 X145.046 Y62.27 E.03471
G1 X130.23 Y47.454 E.92262
G1 X129.442 Y47.454 E.03471
G1 X145.046 Y63.058 E.97172
G1 X145.046 Y63.846 E.03471
G1 X128.654 Y47.454 E1.02081
G1 X127.865 Y47.454 E.03471
G1 X145.046 Y64.635 E1.0699
G1 X145.046 Y65.423 E.03471
M73 P3 R70
M73 P3 R70
G1 X127.077 Y47.454 E1.119
G1 X126.288 Y47.454 E.03471
G1 X145.046 Y66.212 E1.16809
G1 X145.046 Y67 E.03471
G1 X125.5 Y47.454 E1.21718
G1 X124.712 Y47.454 E.03471
G1 X145.046 Y67.788 E1.26627
G1 X145.046 Y68.577 E.03471
M73 P4 R70
M73 P4 R70
G1 X123.923 Y47.454 E1.31537
G1 X123.135 Y47.454 E.03471
G1 X145.046 Y69.365 E1.36446
G1 X145.046 Y70.153 E.03471
G1 X122.347 Y47.454 E1.41355
G1 X121.558 Y47.454 E.03471
G1 X145.046 Y70.942 E1.46265
G1 X145.046 Y71.73 E.03471
G1 X120.77 Y47.454 E1.51174
G1 X119.982 Y47.454 E.03471
G1 X145.046 Y72.518 E1.56083
G1 X145.046 Y73.307 E.03471
G1 X119.193 Y47.454 E1.60992
G1 X118.405 Y47.454 E.03471
G1 X145.046 Y74.095 E1.65902
G1 X145.046 Y74.883 E.03471
G1 X117.617 Y47.454 E1.70811
G1 X116.828 Y47.454 E.03471
G1 X145.046 Y75.672 E1.7572
G1 X145.046 Y76.46 E.03471
G1 X116.04 Y47.454 E1.8063
G1 X115.252 Y47.454 E.03471
G1 X145.046 Y77.248 E1.85539
G1 X145.046 Y78.037 E.03471
G1 X114.463 Y47.454 E1.90448
G1 X113.675 Y47.454 E.03471
G1 X145.046 Y78.825 E1.95357
G1 X145.046 Y79.613 E.03471
G1 X112.887 Y47.454 E2.00267
G1 X112.098 Y47.454 E.03471
G1 X145.046 Y80.402 E2.05176
G1 X145.046 Y81.19 E.03471
G1 X111.31 Y47.454 E2.10085
G1 X110.522 Y47.454 E.03471
G1 X145.046 Y81.978 E2.14995
G1 X145.046 Y82.767 E.03471
G1 X109.733 Y47.454 E2.19904
G1 X108.945 Y47.454 E.03471
G1 X145.046 Y83.555 E2.24813
G1 X145.046 Y84.343 E.03471
G1 X108.157 Y47.454 E2.29723
G1 X107.368 Y47.454 E.03471
M73 P5 R70
M73 P5 R70
G1 X145.046 Y85.132 E2.34632
G1 X145.046 Y85.92 E.03471
G1 X106.58 Y47.454 E2.39541
G1 X105.792 Y47.454 E.03471
G1 X145.046 Y86.708 E2.4445
G1 X145.046 Y87.497 E.03471
M73 P5 R69
M73 P5 R69
G1 X105.003 Y47.454 E2.4936
G1 X104.215 Y47.454 E.03471
G1 X145.046 Y88.285 E2.54269
G1 X145.046 Y89.073 E.03471
G1 X103.427 Y47.454 E2.59178
G1 X102.638 Y47.454 E.03471
G1 X118.235 Y63.051 E.97127
G1 X117.442 Y63.046 E.03494
G1 X101.85 Y47.454 E.97095
G1 X101.061 Y47.454 E.03471
G1 X116.653 Y63.046 E.97095
G1 X115.865 Y63.046 E.03471
G1 X100.273 Y47.454 E.97095
G1 X99.485 Y47.454 E.03471
G1 X115.077 Y63.046 E.97095
G1 X114.288 Y63.046 E.03471
G1 X98.696 Y47.454 E.97095
G1 X97.908 Y47.454 E.03471
G1 X113.5 Y63.046 E.97095
G1 X112.712 Y63.046 E.03471
G1 X97.12 Y47.454 E.97095
G1 X96.331 Y47.454 E.03471
G1 X111.923 Y63.046 E.97095
G1 X111.135 Y63.046 E.03471
G1 X95.543 Y47.454 E.97095
G1 X94.755 Y47.454 E.03471
G1 X110.347 Y63.046 E.97095
G1 X109.558 Y63.046 E.03471
G1 X93.966 Y47.454 E.97095
G1 X93.178 Y47.454 E.03471
G1 X108.77 Y63.046 E.97095
G1 X107.981 Y63.046 E.03471
G1 X92.39 Y47.454 E.97095
G1 X91.601 Y47.454 E.03471
G1 X107.193 Y63.046 E.97095
G1 X106.405 Y63.046 E.03471
G1 X90.813 Y47.454 E.97095
G1 X90.025 Y47.454 E.03471
G1 X105.616 Y63.046 E.97095
G1 X104.828 Y63.046 E.03471
G1 X89.236 Y47.454 E.97095
G1 X88.448 Y47.454 E.03471
G1 X104.04 Y63.046 E.97095
G1 X103.251 Y63.046 E.03471
G1 X87.66 Y47.454 E.97095
G1 X86.871 Y47.454 E.03471
G1 X102.463 Y63.046 E.97095
G2 X101.687 Y63.058 I-.32 J4.529 E.03424
G1 X86.083 Y47.454 E.97169
G1 X85.295 Y47.454 E.03471
M73 P6 R69
M73 P6 R69
G1 X101.064 Y63.224 E.98203
G1 X100.966 Y63.268 E.00477
G1 X100.597 Y63.545 E.02029
G1 X84.506 Y47.454 E1.00203
G1 X83.718 Y47.454 E.03471
G1 X100.26 Y63.996 E1.03012
G2 X100.07 Y64.594 I1.48 J.799 E.02781
G1 X82.93 Y47.454 E1.06738
G1 X82.141 Y47.454 E.03471
G1 X100.048 Y65.361 E1.11513
G1 X100.048 Y66.149 E.03471
G1 X81.353 Y47.454 E1.16422
G1 X80.565 Y47.454 E.03471
G1 X100.048 Y66.938 E1.21331
G1 X100.048 Y67.726 E.03471
G1 X79.776 Y47.454 E1.26241
G1 X78.988 Y47.454 E.03471
G1 X100.048 Y68.514 E1.3115
G1 X100.048 Y69.303 E.03471
G1 X78.2 Y47.454 E1.3606
G1 X77.411 Y47.454 E.03471
G1 X100.048 Y70.091 E1.40969
G1 X100.048 Y70.88 E.03471
G1 X76.623 Y47.454 E1.45879
G1 X75.835 Y47.454 E.03471
G1 X100.048 Y71.668 E1.50788
G1 X100.048 Y72.456 E.03471
G1 X75.046 Y47.454 E1.55698
G1 X74.954 Y47.454 E.00405
G1 X74.954 Y48.15 E.03066
G1 X100.048 Y73.245 E1.56271
G1 X100.048 Y74.033 E.03471
G1 X74.954 Y48.939 E1.56271
G1 X74.954 Y49.727 E.03471
M73 P6 R68
M73 P6 R68
G1 X100.299 Y75.072 E1.57832
G1 E-1.6 F2400
;WIPE_START
G1 F9000
G1 X98.885 Y73.658
;WIPE_END
G1 X101.93 Y76.703 Z.6
G1 Z.2
G1 E1.6 F1800
G1 F1200
G1 X145.046 Y119.819 E2.68499
G1 X145.046 Y119.031 E.03471
G1 X102.969 Y76.953 E2.62029
G1 X103.757 Y76.953 E.03471
G1 X145.046 Y118.242 E2.57119
G1 X145.046 Y117.454 E.03471
G1 X104.545 Y76.953 E2.5221
G1 X105.334 Y76.953 E.03471
G1 X145.046 Y116.665 E2.47301
G1 X145.046 Y115.877 E.03471
G1 X106.122 Y76.953 E2.42391
G1 X106.911 Y76.953 E.03471
M73 P7 R68
M73 P7 R68
G1 X145.046 Y115.089 E2.37482
G1 X145.046 Y114.3 E.03471
G1 X107.699 Y76.953 E2.32573
G1 X108.487 Y76.953 E.03471
G1 X145.046 Y113.512 E2.27664
G1 X145.046 Y112.724 E.03471
G1 X109.276 Y76.953 E2.22754
G1 X110.064 Y76.953 E.03471
G1 X145.046 Y111.935 E2.17845
G1 X145.046 Y111.147 E.03471
G1 X110.852 Y76.953 E2.12936
G1 X111.641 Y76.953 E.03471
G1 X145.046 Y110.359 E2.08026
G1 X145.046 Y109.57 E.03471
G1 X112.429 Y76.953 E2.03117
G1 X113.217 Y76.953 E.03471
G1 X145.046 Y108.782 E1.98208
G1 X145.046 Y107.994 E.03471
G1 X114.006 Y76.953 E1.93299
G1 X114.794 Y76.953 E.03471
G1 X145.046 Y107.205 E1.88389
G1 X145.046 Y106.417 E.03471
G1 X115.582 Y76.953 E1.8348
G1 X116.371 Y76.953 E.03471
G1 X145.046 Y105.629 E1.78571
G1 X145.046 Y104.84 E.03471
G1 X117.159 Y76.953 E1.73661
G1 X117.947 Y76.953 E.03471
G1 X145.046 Y104.052 E1.68752
G1 X145.046 Y103.264 E.03471
G1 X118.663 Y76.88 E1.64298
G2 X119.193 Y76.622 I-.313 J-1.315 E.02618
G1 X145.046 Y102.475 E1.60997
G1 X145.046 Y101.687 E.03471
M73 P7 R67
M73 P7 R67
G1 X119.599 Y76.24 E1.58468
G2 X119.866 Y75.719 I-1.829 J-1.267 E.02586
G1 X145.046 Y100.899 E1.56804
G1 X145.046 Y100.11 E.03471
M73 P8 R67
M73 P8 R67
G1 X119.952 Y75.016 E1.56271
G1 X119.952 Y74.228 E.03471
G1 X145.046 Y99.322 E1.5627
G1 X145.046 Y98.534 E.03471
G1 X119.952 Y73.44 E1.56268
G1 X119.952 Y72.652 E.03471
G1 X145.046 Y97.745 E1.56267
G1 X145.046 Y96.957 E.03471
G1 X119.952 Y71.863 E1.56266
G1 X119.953 Y71.075 E.03471
G1 X145.046 Y96.169 E1.56265
G1 X145.046 Y95.38 E.03471
G1 X119.953 Y70.287 E1.56264
G1 X119.953 Y69.499 E.03471
G1 X145.046 Y94.592 E1.56262
G1 X145.046 Y93.804 E.03471
G1 X119.953 Y68.711 E1.56261
G1 X119.953 Y67.923 E.03471
G1 X145.046 Y93.015 E1.5626
G1 X145.046 Y92.227 E.03471
G1 X119.954 Y67.135 E1.56259
G1 X119.954 Y66.346 E.03471
G1 X145.046 Y91.439 E1.56258
G1 X145.046 Y90.65 E.03471
G1 X119.954 Y65.558 E1.56256
G1 X119.948 Y64.764 E.03498
G1 X145.297 Y90.113 E1.57854
G1 E-1.6 F2400
;WIPE_START
G1 F9000
G1 X143.882 Y88.698
;WIPE_END
G1 X144.218 Y96.323 Z.6
G1 X145.297 Y120.858 Z.6
G1 Z.2
G1 E1.6 F1800
G1 F1200
G1 X74.954 Y50.515 E4.38047
G1 X74.954 Y51.304 E.03471
G1 X145.046 Y121.396 E4.36486
G1 X145.046 Y122.184 E.03471
G1 X74.954 Y52.092 E4.36486
G1 X74.954 Y52.88 E.03471
G1 X145.046 Y122.972 E4.36486
G1 X145.046 Y123.761 E.03471
M73 P9 R67
M73 P9 R67
G1 X74.954 Y53.669 E4.36486
G1 X74.954 Y54.457 E.03471
G1 X145.046 Y124.549 E4.36486
G1 X145.046 Y125.337 E.03471
M73 P9 R66
M73 P9 R66
G1 X74.954 Y55.245 E4.36486
G1 X74.954 Y56.034 E.03471
G1 X145.046 Y126.126 E4.36486
G1 X145.046 Y126.914 E.03471
G1 X74.954 Y56.822 E4.36486
G1 X74.954 Y57.611 E.03471
G1 X145.046 Y127.702 E4.36486
G1 X145.046 Y128.491 E.03471
G1 X74.954 Y58.399 E4.36486
G1 X74.954 Y59.187 E.03471
G1 X145.046 Y129.279 E4.36486
G1 X145.046 Y130.067 E.03471
M73 P10 R66
M73 P10 R66
G1 X74.954 Y59.976 E4.36486
G1 X74.954 Y60.764 E.03471
G1 X145.046 Y130.856 E4.36486
G1 X145.046 Y131.644 E.03471
G1 X74.954 Y61.552 E4.36486
G1 X74.954 Y62.341 E.03471
G1 X145.046 Y132.432 E4.36486
G1 X145.046 Y133.221 E.03471
G1 X74.954 Y63.129 E4.36486
G1 X74.954 Y63.917 E.03471
G1 X145.046 Y134.009 E4.36486
G1 X145.046 Y134.797 E.03471
M73 P10 R65
M73 P10 R65
G1 X74.954 Y64.706 E4.36486
G1 X74.954 Y65.494 E.03471
G1 X145.046 Y135.586 E4.36486
G1 X145.046 Y136.374 E.03471
G1 X74.954 Y66.282 E4.36486
G1 X74.954 Y67.071 E.03471
M73 P11 R65
M73 P11 R65
G1 X145.046 Y137.162 E4.36486
G1 X145.046 Y137.951 E.03471
G1 X74.954 Y67.859 E4.36486
G1 X74.954 Y68.647 E.03471
G1 X145.046 Y138.739 E4.36486
G1 X145.046 Y139.527 E.03471
G1 X74.954 Y69.436 E4.36486
G1 X74.954 Y70.224 E.03471
G1 X145.046 Y140.316 E4.36486
G1 X145.046 Y141.104 E.03471
G1 X74.954 Y71.012 E4.36486
G1 X74.954 Y71.801 E.03471
G1 X145.046 Y141.892 E4.36486
G1 X145.046 Y142.681 E.03471
G1 X74.954 Y72.589 E4.36486
G1 X74.954 Y73.377 E.03471
G1 X145.046 Y143.469 E4.36486
G1 X145.046 Y144.258 E.03471
M73 P12 R64
M73 P12 R64
G1 X74.954 Y74.166 E4.36486
G1 X74.954 Y74.954 E.03471
G1 X145.046 Y145.046 E4.36486
G1 X145.046 Y145.834 E.03471
G1 X74.954 Y75.742 E4.36486
G1 X74.954 Y76.531 E.03471
G1 X145.046 Y146.623 E4.36486
G1 X145.046 Y147.411 E.03471
G1 X74.954 Y77.319 E4.36486
G1 X74.954 Y78.107 E.03471
G1 X145.046 Y148.199 E4.36486
G1 X145.046 Y148.988 E.03471
G1 X74.954 Y78.896 E4.36486
G1 X74.954 Y79.684 E.03471
G1 X145.046 Y149.776 E4.36486
G1 X145.046 Y150.564 E.03471
G1 X74.954 Y80.472 E4.36486
G1 X74.954 Y81.261 E.03471
M73 P13 R64
M73 P13 R64
G1 X145.046 Y151.353 E4.36486
G1 X145.046 Y152.141 E.03471
G1 X74.954 Y82.049 E4.36486
G1 X74.954 Y82.838 E.03471
G1 X145.046 Y152.929 E4.36486
G1 X145.046 Y153.718 E.03471
M73 P13 R63
M73 P13 R63
G1 X74.954 Y83.626 E4.36486
G1 X74.954 Y84.414 E.03471
G1 X145.046 Y154.506 E4.36486
G1 X145.046 Y155.294 E.03471
G1 X74.954 Y85.203 E4.36486
G1 X74.954 Y85.991 E.03471
G1 X145.046 Y156.083 E4.36486
G1 X145.046 Y156.871 E.03471
G1 X74.954 Y86.779 E4.36486
G1 X74.954 Y87.568 E.03471
G1 X145.046 Y157.659 E4.36486
G1 X145.046 Y158.448 E.03471
M73 P14 R63
M73 P14 R63
G1 X74.954 Y88.356 E4.36486
G1 X74.954 Y89.144 E.03471
G1 X145.046 Y159.236 E4.36486
G1 X145.046 Y160.024 E.03471
G1 X74.954 Y89.933 E4.36486
G1 X74.954 Y90.721 E.03471
G1 X145.046 Y160.813 E4.36486
G1 X145.046 Y161.601 E.03471
G1 X74.954 Y91.509 E4.36486
G1 X74.954 Y92.298 E.03471
G1 X145.046 Y162.389 E4.36486
