;TIME:3449.62
;Filament used:4.08971m
;Layer height:0.200
; HEADER_BLOCK_START
; generated by Creality_Print V6.0.5.1840 on 2025-06-15 at 21:08:12
; total layer number: 250
; filament_density: 1.24
; filament_diameter: 1.75
; max_z_height: 50.00
; HEADER_BLOCK_END

; MINX = 88.50
; MINY = 89.75
; MINZ = 0.00
; MAXX = 131.50
; MAXY = 130.25
; MAXZ = 50.10

; THUMBNAIL_BLOCK_START

;
; THUMBNAIL_BLOCK_END

; THUMBNAIL_BLOCK_START

;
; THUMBNAIL_BLOCK_END

; external perimeters extrusion width = 0.42mm
; perimeters extrusion width = 0.45mm
; infill extrusion width = 0.45mm
; solid infill extrusion width = 0.42mm
; top infill extrusion width = 0.42mm
; support material extrusion width = 0.40mm
; first layer extrusion width = 0.60mm

; EXECUTABLE_BLOCK_START
M73 P0 R57
M201 X5000 Y5000 Z500 E5000
M203 X500 Y500 Z30 E100
M204 P5000 R2500 T5000 ; sets acceleration (P, T) and retract acceleration (R), mm/sec^2
M205 X10.00 Y10.00 Z0.40 E5.00 ; sets the jerk limits, mm/sec
;TYPE:Custom
M220 S100 ;Reset Feedrate 
M221 S100 ;Reset Flowrate 
 
M140 S75 ;Set final bed temp 
G28 ;Home 
 
G92 E0 ;Reset Extruder 
G1 Z2.0 F3000 ;Move Z Axis up 
M104 S200 ;Set final nozzle temp 
G1 X-2.1 Y20 Z0.28 F5000.0 ;Move to start position 
M190 S75 ;Wait for bed temp to stabilize 
M109 S200 ;Wait for nozzle temp to stabilize 
G1 X-2.1 Y145.0 Z0.28 F1500.0 E15 ;Draw the first line 
G1 X-2.4 Y145.0 Z0.28 F5000.0 ;Move to side a little 
G1 X-2.4 Y20 Z0.28 F1500.0 E30 ;Draw the second line 
G92 E0  ;Reset Extruder 
G1 E-1.0000 F1800 ;Retract a bit 
G1 Z2.0 F3000 ;Move Z Axis up 
G1 E0.0000 F1800
G90
G21
M83 ; use relative distances for extrusion
" "
G1 E-1.6 F2400
M106 S0
;LAYER_CHANGE
;Z:0.2
;HEIGHT:0.2
;BEFORE_LAYER_CHANGE
;0.2
G92 E0

;_SET_FAN_SPEED_CHANGING_LAYER
M204 P125
M205 X10 Y10
; printing object Topper id:13947861949323413655 copy 0
M204 T125
G1 Z.4 F9000
G1 X84.539 Y115.12
G1 Z.2
G1 E1.6 F1800
;TYPE:Support
;WIDTH:0.6
G1 F600
G3 X87.85 Y116.413 I-.162 J5.305 E.15951
G1 X87.85 Y124.33 E.34841
G3 X84.455 Y115.117 I-3.457 J-3.959 E.89527
G1 X87.098 Y124.577 F9000
G1 F600
G1 X87.098 Y116.466 E.35693
G2 X86.479 Y116.097 I-1.325 J1.521 E.03187
G1 X86.479 Y124.645 E.37616
G3 X85.86 Y124.909 I-1.036 J-1.573 E.02977
G1 X85.86 Y115.834 E.39937
G1 X85.241 Y115.692 E.02794
G1 X85.241 Y125.05 E.4118
G3 X84.622 Y125.117 I-.492 J-1.672 E.02754
G1 X84.622 Y115.626 E.41765
G1 X84.516 Y115.621 E.00466
G2 X84.003 Y115.629 I-.234 J1.418 E.0227
G1 X84.003 Y125.113 E.41735
G1 X83.384 Y125.03 E.02749
G1 X83.384 Y115.713 E.40997
G2 X82.765 Y115.904 I.216 J1.801 E.02865
G1 X82.765 Y124.839 E.39319
G3 X82.146 Y124.559 I.462 J-1.845 E.03005
G1 X82.146 Y116.184 E.36857
G2 X81.527 Y116.578 I.776 J1.902 E.03246
G1 X81.527 Y124.165 E.33389
G3 X80.908 Y123.607 I1.228 J-1.984 E.03687
G1 X80.908 Y117.136 E.28478
G2 X80.289 Y117.972 I1.995 J2.124 E.04603
G1 X80.289 Y122.771 E.21117
G3 X79.67 Y118.713 I6.355 J-3.046 E.1833
G1 E-1.6 F2400
;WIPE_START
G1 F600
G1 X79.67 Y120.713
;WIPE_END
G1 X86.432 Y124.252 Z.6 F9000
G1 X100.578 Y131.655 Z.6
G1 Z.2
G1 E1.6 F1800
G1 F600
G3 X92.099 Y130.9 I-4.514 J2.7 E1.01772
G1 X100.03 Y130.9 E.34898
M73 P0 R56
M73 P0 R56
G1 X100.529 Y131.588 E.0374
G1 X100.715 Y136.203 F9000
G1 F600
G1 X100.715 Y133.402 E.12326
G2 X100.096 Y131.845 I-5.689 J1.36 E.07398
G1 X100.096 Y136.875 E.22137
G3 X99.477 Y137.657 I-2.464 J-1.314 E.04413
G1 X99.477 Y131.401 E.2753
G1 X98.858 Y131.401 E.02724
G1 X98.858 Y138.2 E.29917
G3 X98.239 Y138.592 I-1.389 J-1.509 E.03241
M73 P1 R56
M73 P1 R56
G1 X98.239 Y131.401 E.31641
G1 X97.62 Y131.401 E.02724
G1 X97.62 Y138.856 E.32805
G3 X97.001 Y139.016 I-.751 J-1.625 E.02829
G1 X97.001 Y131.401 E.3351
G1 X96.383 Y131.401 E.02724
G1 X96.383 Y139.101 E.33882
G3 X95.764 Y139.115 I-.349 J-1.698 E.02739
G1 X95.764 Y131.401 E.33946
G1 X95.145 Y131.401 E.02724
G1 X95.145 Y139.032 E.33577
G3 X94.526 Y138.86 I.164 J-1.791 E.02842
G1 X94.526 Y131.401 E.32821
G1 X93.907 Y131.401 E.02724
G1 X93.907 Y138.601 E.31683
G3 X93.288 Y138.233 I.705 J-1.89 E.03187
G1 X93.288 Y131.401 E.30063
G1 X92.669 Y131.401 E.02724
G1 X92.669 Y137.71 E.27759
G1 X92.416 Y137.42 E.0169
G3 X92.05 Y136.926 I1.179 J-1.256 E.02722
G1 X92.05 Y131.794 E.22581
G2 X91.431 Y133.213 I4.602 J2.852 E.06834
G1 X91.431 Y136.284 E.13513
G1 E-1.6 F2400
;WIPE_START
G1 F600
G1 X91.431 Y134.284
;WIPE_END
G1 X99.042 Y133.716 Z.6 F9000
G1 X126.65 Y131.655 Z.6
G1 Z.2
G1 E1.6 F1800
G1 F600
G3 X118.171 Y130.9 I-4.51 J2.66 E1.01041
G1 X126.101 Y130.9 E.34898
G1 X126.601 Y131.588 E.0374
G1 X126.712 Y136.357 F9000
G1 F600
G1 X126.712 Y133.132 E.14193
G2 X126.093 Y131.742 I-4.82 J1.314 E.0672
G1 X126.093 Y136.978 E.23039
G3 X125.474 Y137.729 I-2.378 J-1.33 E.04305
G1 X125.474 Y131.401 E.27843
G1 X124.855 Y131.401 E.02724
G1 X124.855 Y138.249 E.30133
G3 X124.236 Y138.623 I-1.341 J-1.518 E.03201
G1 X124.236 Y131.401 E.31781
G1 X123.617 Y131.401 E.02724
G1 X123.617 Y138.888 E.32945
G3 X122.999 Y139.033 I-.71 J-1.633 E.02813
G1 X122.999 Y131.401 E.33585
G1 X122.38 Y131.401 E.02724
G1 X122.38 Y139.104 E.33897
G3 X121.761 Y139.105 I-.313 J-1.705 E.02739
G1 X121.761 Y131.401 E.33902
G1 X121.142 Y131.401 E.02724
G1 X121.142 Y139.022 E.33533
G3 X120.523 Y138.836 I.203 J-1.798 E.02859
G1 X120.523 Y131.401 E.32715
G1 X119.904 Y131.401 E.02724
G1 X119.904 Y138.561 E.31507
G3 X119.285 Y138.174 I.758 J-1.899 E.03231
G1 X119.285 Y131.401 E.29802
G1 X118.666 Y131.401 E.02724
G1 X118.666 Y137.624 E.27384
G1 X118.487 Y137.42 E.01193
G3 X118.047 Y136.801 I1.485 J-1.524 E.03362
G1 X118.047 Y131.919 E.21485
G2 X117.428 Y133.623 I4.108 J2.456 E.08027
G1 X117.428 Y136.085 E.10835
G1 E-1.6 F2400
;WIPE_START
G1 F600
G1 X117.428 Y134.085
;WIPE_END
G1 X122.833 Y128.697 Z.6 F9000
G1 X135.759 Y115.812 Z.6
G1 Z.2
G1 E1.6 F1800
G1 F600
G3 X132.15 Y125.022 I-.197 J5.235 E.87907
G1 X132.15 Y117.104 E.34842
G3 X135.675 Y115.808 I3.478 J4.017 E.16892
G1 X140.33 Y122.762 F9000
G1 F600
G2 X139.711 Y118.629 I-6.702 J-1.109 E.18695
G1 X139.711 Y123.498 E.21426
G3 X139.092 Y124.307 I-7.992 J-5.468 E.04487
G1 X139.092 Y117.819 E.28552
G2 X138.473 Y117.26 I-1.849 J1.426 E.0369
G1 X138.473 Y124.866 E.3347
G3 X137.854 Y125.271 I-1.424 J-1.503 E.03272
G1 X137.854 Y116.855 E.37033
G1 X137.235 Y116.591 E.02962
M73 P2 R56
M73 P2 R56
G1 X137.235 Y125.535 E.39361
G3 X136.616 Y125.707 I-.782 J-1.62 E.02841
G1 X136.616 Y116.42 E.40869
G2 X135.997 Y116.325 I-.571 J1.658 E.0277
G1 X135.997 Y125.802 E.41704
G3 X135.378 Y125.826 I-.377 J-1.693 E.02741
G1 X135.378 Y116.3 E.4192
G1 X134.759 Y116.384 E.02749
G1 X134.759 Y125.742 E.41182
G3 X134.14 Y125.581 I.135 J-1.786 E.0283
G1 X134.14 Y116.545 E.39763
G2 X133.521 Y116.792 I.37 J1.829 E.02948
G1 X133.521 Y125.334 E.37591
G1 X133.282 Y125.206 E.01196
G3 X132.902 Y124.981 I.43 J-1.159 E.01953
G1 X132.902 Y116.84 E.35821
G1 E-1.6 F2400
;WIPE_START
G1 F9000
G1 X132.902 Y118.84
;WIPE_END
G1 X130.183 Y125.972 Z.6
G1 X129.148 Y128.686 Z.6
G1 Z.2
G1 E1.6 F1800
;TYPE:Inner wall
;WIDTH:0.599999
G1 F600
G1 X90.064 Y128.686 E1.71989
G1 X90.064 Y91.314 E1.64455
G1 X129.936 Y91.314 E1.75456
G1 X129.936 Y128.686 E1.64455
G1 X129.188 Y128.686 E.03291
M73 P2 R55
M73 P2 R55
G1 X129.893 Y129.243 F9000
G1 F600
G1 X89.507 Y129.243 E1.77719
G1 X89.507 Y90.757 E1.69358
G1 X130.493 Y90.757 E1.80359
G1 X130.493 Y129.243 E1.69358
M73 P3 R55
M73 P3 R55
G1 X129.933 Y129.243 E.02464
G1 E-1.6 F2400
;WIPE_START
G1 F9000
G1 X127.933 Y129.243
;WIPE_END
G1 X131.05 Y129.8 Z.6
G1 Z.2
G1 E1.6 F1800
;TYPE:Outer wall
G1 F600
G1 X88.95 Y129.8 E1.85262
G1 X88.95 Y90.2 E1.74261
G1 X131.05 Y90.2 E1.85262
G1 X131.05 Y129.76 E1.74085
G1 E-1.6 F2400
;WIPE_START
G1 F9000
G1 X129.05 Y129.762
;WIPE_END
G1 Z.6
G1 X129.797 Y92.585
G1 Z.6
G1 Z.2
G1 E1.6 F1800
;TYPE:Bottom surface
;WIDTH:0.602756
G1 F1200
G1 X128.915 Y91.704 E.05512
G1 X128.124 Y91.704 E.03501
G1 X129.546 Y93.126 E.08895
G1 X129.546 Y93.918 E.03501
G1 X127.332 Y91.704 E.13847
G1 X126.54 Y91.704 E.03501
G1 X129.546 Y94.71 E.18798
G1 X129.546 Y95.502 E.03501
G1 X125.748 Y91.704 E.2375
G1 X124.957 Y91.704 E.03501
G1 X129.546 Y96.293 E.28701
G1 X129.546 Y97.085 E.03501
G1 X124.165 Y91.704 E.33653
G1 X123.373 Y91.704 E.03501
G1 X129.546 Y97.877 E.38604
G1 X129.546 Y98.669 E.03501
G1 X122.581 Y91.704 E.43556
G1 X121.79 Y91.704 E.03501
G1 X129.546 Y99.46 E.48507
G1 X129.546 Y100.252 E.03501
G1 X120.998 Y91.704 E.53459
G1 X120.206 Y91.704 E.03501
G1 X129.546 Y101.044 E.58411
G1 X129.546 Y101.835 E.03501
G1 X119.415 Y91.704 E.63362
G1 X118.623 Y91.704 E.03501
G1 X129.546 Y102.627 E.68314
G1 X129.546 Y103.419 E.03501
G1 X117.831 Y91.704 E.73265
G1 X117.039 Y91.704 E.03501
G1 X129.546 Y104.211 E.78217
G1 X129.546 Y105.002 E.03501
G1 X116.248 Y91.704 E.83168
G1 X115.456 Y91.704 E.03501
G1 X129.546 Y105.794 E.8812
G1 X129.546 Y106.586 E.03501
M73 P4 R55
M73 P4 R55
G1 X114.664 Y91.704 E.93071
G1 X113.872 Y91.704 E.03501
G1 X129.546 Y107.378 E.98023
G1 X129.546 Y108.169 E.03501
G1 X113.081 Y91.704 E1.02974
G1 X112.289 Y91.704 E.03501
G1 X129.546 Y108.961 E1.07926
G1 X129.546 Y109.753 E.03501
G1 X111.497 Y91.704 E1.12877
G1 X110.706 Y91.704 E.03501
G1 X129.546 Y110.544 E1.17829
G1 X129.546 Y111.336 E.03501
G1 X109.914 Y91.704 E1.2278
G1 X109.122 Y91.704 E.03501
G1 X129.546 Y112.128 E1.27732
G1 X129.546 Y112.92 E.03501
G1 X108.33 Y91.704 E1.32683
G1 X107.539 Y91.704 E.03501
M73 P4 R54
M73 P4 R54
G1 X129.546 Y113.711 E1.37635
G1 X129.546 Y114.503 E.03501
G1 X106.747 Y91.704 E1.42587
G1 X105.955 Y91.704 E.03501
G1 X129.546 Y115.295 E1.47538
G1 X129.546 Y116.087 E.03501
G1 X105.163 Y91.704 E1.5249
G1 X104.372 Y91.704 E.03501
G1 X129.546 Y116.878 E1.57441
G1 X129.546 Y117.67 E.03501
G1 X103.58 Y91.704 E1.62393
G1 X102.788 Y91.704 E.03501
G1 X129.546 Y118.462 E1.67344
G1 X129.546 Y119.253 E.03501
G1 X101.997 Y91.704 E1.72296
G1 X101.205 Y91.704 E.03501
G1 X129.546 Y120.045 E1.77247
G1 X129.546 Y120.837 E.03501
G1 X100.413 Y91.704 E1.82199
G1 X99.621 Y91.704 E.03501
G1 X129.546 Y121.629 E1.8715
G1 X129.546 Y122.42 E.03501
G1 X98.83 Y91.704 E1.92102
M73 P5 R54
M73 P5 R54
G1 X98.038 Y91.704 E.03501
G1 X129.546 Y123.212 E1.97053
G1 X129.546 Y124.004 E.03501
G1 X97.246 Y91.704 E2.02005
G1 X96.454 Y91.704 E.03501
G1 X129.546 Y124.796 E2.06956
G1 X129.546 Y125.587 E.03501
G1 X95.663 Y91.704 E2.11908
G1 X94.871 Y91.704 E.03501
G1 X129.546 Y126.379 E2.16859
G1 X129.546 Y127.171 E.03501
G1 X94.079 Y91.704 E2.21811
G1 X93.288 Y91.704 E.03501
G1 X129.546 Y127.962 E2.26762
G1 X129.546 Y128.296 E.01475
G1 X129.088 Y128.296 E.02027
G1 X92.496 Y91.704 E2.28848
G1 X91.704 Y91.704 E.03501
G1 X128.296 Y128.296 E2.28848
G1 X127.504 Y128.296 E.03501
G1 X90.912 Y91.704 E2.28848
G1 X90.454 Y91.704 E.02027
G1 X90.454 Y92.038 E.01475
G1 X126.712 Y128.296 E2.26762
G1 X125.921 Y128.296 E.03501
G1 X90.454 Y92.829 E2.21811
G1 X90.454 Y93.621 E.03501
G1 X125.129 Y128.296 E2.16859
G1 X124.337 Y128.296 E.03501
M73 P6 R54
M73 P6 R54
G1 X90.454 Y94.413 E2.11908
G1 X90.454 Y95.204 E.03501
M73 P6 R53
M73 P6 R53
G1 X123.546 Y128.296 E2.06956
G1 X122.754 Y128.296 E.03501
G1 X90.454 Y95.996 E2.02005
G1 X90.454 Y96.788 E.03501
G1 X121.962 Y128.296 E1.97053
G1 X121.17 Y128.296 E.03501
G1 X90.454 Y97.58 E1.92102
G1 X90.454 Y98.371 E.03501
G1 X120.379 Y128.296 E1.8715
G1 X119.587 Y128.296 E.03501
G1 X90.454 Y99.163 E1.82199
G1 X90.454 Y99.955 E.03501
G1 X118.795 Y128.296 E1.77247
G1 X118.003 Y128.296 E.03501
G1 X90.454 Y100.747 E1.72296
G1 X90.454 Y101.538 E.03501
G1 X117.212 Y128.296 E1.67344
G1 X116.42 Y128.296 E.03501
G1 X90.454 Y102.33 E1.62393
G1 X90.454 Y103.122 E.03501
G1 X115.628 Y128.296 E1.57441
G1 X114.837 Y128.296 E.03501
G1 X90.454 Y103.913 E1.52489
G1 X90.454 Y104.705 E.03501
G1 X114.045 Y128.296 E1.47538
G1 X113.253 Y128.296 E.03501
G1 X90.454 Y105.497 E1.42586
G1 X90.454 Y106.289 E.03501
G1 X112.461 Y128.296 E1.37635
G1 X111.67 Y128.296 E.03501
G1 X90.454 Y107.08 E1.32683
G1 X90.454 Y107.872 E.03501
M73 P7 R53
M73 P7 R53
G1 X110.878 Y128.296 E1.27732
G1 X110.086 Y128.296 E.03501
G1 X90.454 Y108.664 E1.2278
G1 X90.454 Y109.456 E.03501
G1 X109.294 Y128.296 E1.17829
G1 X108.503 Y128.296 E.03501
G1 X90.454 Y110.247 E1.12877
G1 X90.454 Y111.039 E.03501
G1 X107.711 Y128.296 E1.07926
G1 X106.919 Y128.296 E.03501
G1 X90.454 Y111.831 E1.02974
G1 X90.454 Y112.622 E.03501
G1 X106.128 Y128.296 E.98023
G1 X105.336 Y128.296 E.03501
G1 X90.454 Y113.414 E.93071
G1 X90.454 Y114.206 E.03501
G1 X104.544 Y128.296 E.8812
G1 X103.752 Y128.296 E.03501
G1 X90.454 Y114.998 E.83168
G1 X90.454 Y115.789 E.03501
G1 X102.961 Y128.296 E.78217
G1 X102.169 Y128.296 E.03501
G1 X90.454 Y116.581 E.73265
G1 X90.454 Y117.373 E.03501
G1 X101.377 Y128.296 E.68314
G1 X100.585 Y128.296 E.03501
G1 X90.454 Y118.165 E.63362
G1 X90.454 Y118.956 E.03501
G1 X99.794 Y128.296 E.5841
G1 X99.002 Y128.296 E.03501
G1 X90.454 Y119.748 E.53459
G1 X90.454 Y120.54 E.03501
G1 X98.21 Y128.296 E.48507
G1 X97.419 Y128.296 E.03501
G1 X90.454 Y121.331 E.43556
G1 X90.454 Y122.123 E.03501
G1 X96.627 Y128.296 E.38604
G1 X95.835 Y128.296 E.03501
G1 X90.454 Y122.915 E.33653
G1 X90.454 Y123.707 E.03501
G1 X95.043 Y128.296 E.28701
G1 X94.252 Y128.296 E.03501
G1 X90.454 Y124.498 E.2375
G1 X90.454 Y125.29 E.03501
G1 X93.46 Y128.296 E.18798
G1 X92.668 Y128.296 E.03501
G1 X90.454 Y126.082 E.13847
G1 X90.454 Y126.874 E.03501
G1 X91.876 Y128.296 E.08895
G1 X91.085 Y128.296 E.03501
G1 X90.203 Y127.415 E.05511
; stop printing object Topper id:13947861949323413655 copy 0
;TIME_ELAPSED:264.051941

;LAYER_CHANGE
;Z:0.4
;HEIGHT:0.2
;BEFORE_LAYER_CHANGE
;0.4
G92 E0

G1 E-1.6 F2400
;WIPE_START
G1 F9000
G1 X91.085 Y128.296
G1 X91.838 Y128.296
;WIPE_END
;_SET_FAN_SPEED_CHANGING_LAYER
M204 P2500
; printing object Topper id:13947861949323413655 copy 0
M204 T2500
G1 X94.358 Y132.479 Z.6
G1 Z.4
G1 E1.6 F1800
;TYPE:Support
;WIDTH:0.4
G1 F3000
G3 X95.955 Y131.827 I1.748 J1.998 E.04955
G1 X95.973 Y131.428 E.01128
G3 X95.397 Y131.496 I.056 J2.931 E.50325
G1 X95.919 Y131.425 E.01486
G1 X95.961 Y131.027 F9000
G1 F3000
G3 X95.308 Y131.104 I.066 J3.332 E.57209
G3 X95.907 Y131.024 I.52 J1.611 E.01714
G1 E-1.6 F2400
;WIPE_START
G1 F9000
G1 X95.308 Y131.104
G1 X94.212 Y131.573
G1 X94.065 Y131.713
;WIPE_END
G1 X89.089 Y125.926 Z.8
G1 X82.697 Y118.491 Z.8
G1 Z.4
G1 E1.6 F1800
G1 F3000
G3 X84.294 Y117.838 I1.748 J1.998 E.04955
G1 X84.312 Y117.439 E.01128
G3 X83.736 Y117.507 I.054 J2.913 E.49995
G1 X84.258 Y117.436 E.01486
G1 X84.3 Y117.038 F9000
G1 F3000
G3 X83.647 Y117.116 I.063 J3.311 E.56834
G3 X84.246 Y117.036 I.52 J1.611 E.01714
G1 E-1.6 F2400
;WIPE_START
G1 F9000
G1 X83.647 Y117.116
G1 X82.55 Y117.584
G1 X82.404 Y117.725
;WIPE_END
G1 X89.519 Y120.486 Z.8
G1 X120.43 Y132.479 Z.8
G1 Z.4
G1 E1.6 F1800
G1 F3000
G3 X122.026 Y131.827 I1.748 J1.998 E.04955
G1 X122.044 Y131.428 E.01128
G1 X122.493 Y131.448 E.01268
G3 X121.991 Y131.425 I-.382 J2.907 E.5054
G1 X122.511 Y131.048 F9000
G1 F3000
G3 X121.973 Y131.024 I-.418 J3.306 E.57544
G1 X122.458 Y131.046 E.0137
G1 E-1.6 F2400
;WIPE_START
G1 F9000
G1 X121.973 Y131.024
G1 X120.81 Y131.289
G1 X120.542 Y131.467
;WIPE_END
G1 X126.163 Y126.304 Z.8
G1 X133.917 Y119.182 Z.8
G1 Z.4
G1 E1.6 F1800
G1 F3000
G3 X135.514 Y118.53 I1.748 J1.998 E.04955
G1 X135.532 Y118.131 E.01128
G3 X134.956 Y118.199 I.054 J2.913 E.49995
G1 X135.478 Y118.128 E.01486
G1 X135.52 Y117.73 F9000
G1 F3000
G3 X134.867 Y117.807 I.063 J3.311 E.56834
G3 X135.466 Y117.727 I.52 J1.611 E.01714
G1 E-1.6 F2400
;WIPE_START
G1 F9000
G1 X134.867 Y117.807
G1 X133.77 Y118.276
G1 X133.624 Y118.416
;WIPE_END
G1 X131.156 Y125.639 Z.8
G1 X129.926 Y129.241 Z.8
G1 Z.4
G1 E1.6 F1800
M204 P2000
;TYPE:Inner wall
;WIDTH:0.449999
G1 F5400
G1 X89.509 Y129.241 E1.29965
G1 X89.509 Y90.759 E1.23743
M73 P7 R52
M73 P7 R52
G1 X130.491 Y90.759 E1.31782
G1 X130.491 Y129.241 E1.23743
G1 X129.966 Y129.241 E.01689
G1 X130.448 Y129.648 F9000
G1 F5400
G1 X89.102 Y129.648 E1.32953
G1 X89.102 Y90.352 E1.26361
G1 X130.898 Y90.352 E1.344
G1 X130.898 Y129.648 E1.26361
G1 X130.488 Y129.648 E.01318
G1 X131.29 Y130.04 F9000
M204 P1000
;TYPE:Outer wall
;WIDTH:0.419999
G1 F2400
G1 X88.71 Y130.04 E1.26831
G1 X88.71 Y89.96 E1.19384
