;TIME:2557.61
;Filament used:3.21099m
;Layer height:0.200
; HEADER_BLOCK_START
; generated by Creality_Print V6.0.5.1840 on 2025-06-05 at 18:26:09
; total layer number: 123
; filament_density: 1.24
; filament_diameter: 1.75
; max_z_height: 15.60
; HEADER_BLOCK_END

; MINX = 72.12
; MINY = 92.04
; MINZ = 0.00
; MAXX = 147.88
; MAXY = 127.96
; MAXZ = 15.60

; THUMBNAIL_BLOCK_START

;
; THUMBNAIL_BLOCK_END

; THUMBNAIL_BLOCK_START

;
; THUMBNAIL_BLOCK_END

; external perimeters extrusion width = 0.42mm
; perimeters extrusion width = 0.45mm
; infill extrusion width = 0.45mm
; solid infill extrusion width = 0.42mm
; top infill extrusion width = 0.42mm
; support material extrusion width = 0.40mm
; first layer extrusion width = 0.60mm

; EXECUTABLE_BLOCK_START
M73 P0 R42
M201 X5000 Y5000 Z500 E5000
M203 X500 Y500 Z30 E100
M204 P5000 R2500 T5000 ; sets acceleration (P, T) and retract acceleration (R), mm/sec^2
M205 X10.00 Y10.00 Z0.40 E5.00 ; sets the jerk limits, mm/sec
;TYPE:Custom
M220 S100 ;Reset Feedrate 
M221 S100 ;Reset Flowrate 
 
M140 S75 ;Set final bed temp 
G28 ;Home 
 
G92 E0 ;Reset Extruder 
G1 Z2.0 F3000 ;Move Z Axis up 
M104 S200 ;Set final nozzle temp 
G1 X-2.1 Y20 Z0.28 F5000.0 ;Move to start position 
M190 S75 ;Wait for bed temp to stabilize 
M109 S200 ;Wait for nozzle temp to stabilize 
G1 X-2.1 Y145.0 Z0.28 F1500.0 E15 ;Draw the first line 
G1 X-2.4 Y145.0 Z0.28 F5000.0 ;Move to side a little 
G1 X-2.4 Y20 Z0.28 F1500.0 E30 ;Draw the second line 
G92 E0  ;Reset Extruder 
G1 E-1.0000 F1800 ;Retract a bit 
G1 Z2.0 F3000 ;Move Z Axis up 
G1 E0.0000 F1800
G90
G21
M83 ; use relative distances for extrusion
" "
G1 E-1.6 F2400
M106 S0
;LAYER_CHANGE
;Z:0.2
;HEIGHT:0.2
;BEFORE_LAYER_CHANGE
;0.2
G92 E0

;_SET_FAN_SPEED_CHANGING_LAYER
M204 P125
M205 X10 Y10
; printing object Corpo81 id:58829163499290830 copy 0
M204 T125
G1 Z.4 F9000
G1 X77.593 Y104.55
G1 Z.2
G1 E1.6 F1800
;TYPE:Support
;WIDTH:0.6
G1 F600
G1 X71.856 Y104.55 E.25249
G1 X71.475 Y104.931 E.0237
G1 X71.475 Y109.021 E.18001
G1 X68.122 Y109.021 E.14753
G1 X68.122 Y102.407 E.29105
G1 X77.593 Y102.407 E.41678
G1 X77.593 Y104.466 E.09061
G1 X77.092 Y104.049 F9000
G1 F600
G1 X71.648 Y104.049 E.23957
G1 X70.974 Y104.723 E.04197
G1 X70.974 Y108.52 E.16708
G1 X68.624 Y108.52 E.1034
G1 X68.624 Y102.909 E.24692
G1 X77.092 Y102.909 E.37265
G1 X77.092 Y104.049 E.05016
G1 X71.294 Y103.528 F9000
G1 F600
G1 X70.355 Y104.467 E.05843
G1 X70.355 Y107.901 E.15113
G1 X69.243 Y107.901 E.04893
G1 X69.243 Y103.528 E.19245
G1 X71.294 Y103.528 E.09025
G1 E-1.6 F2400
;WIPE_START
G1 F600
G1 X69.294 Y103.528
;WIPE_END
G1 X70.711 Y111.027 Z.6 F9000
G1 X71.475 Y115.069 Z.6
G1 Z.2
G1 E1.6 F1800
G1 F600
G1 X71.856 Y115.45 E.0237
G1 X77.593 Y115.45 E.25249
G1 X77.593 Y117.593 E.09429
G1 X68.122 Y117.593 E.41678
G1 X68.122 Y110.979 E.29105
G1 X71.475 Y110.979 E.14753
G1 X71.475 Y114.986 E.17633
G1 E-1.6 F2400
;WIPE_START
G1 F600
G1 X71.475 Y112.986
;WIPE_END
G1 X77.092 Y115.951 Z.6 F9000
G1 Z.2
G1 E1.6 F1800
M73 P1 R42
M73 P1 R42
G1 F600
G1 X77.092 Y117.091 E.05016
G1 X68.624 Y117.091 E.37265
G1 X68.624 Y111.48 E.24692
G1 X70.974 Y111.48 E.1034
G1 X70.974 Y115.277 E.16708
G1 X71.648 Y115.951 E.04197
G1 X77.092 Y115.951 E.23957
G1 X71.294 Y116.472 F9000
G1 F600
G1 X69.243 Y116.472 E.09025
G1 X69.243 Y112.099 E.19245
G1 X70.355 Y112.099 E.04893
G1 X70.355 Y115.533 E.15113
G1 X71.294 Y116.472 E.05843
G1 E-1.6 F2400
;WIPE_START
G1 F9000
G1 X70.355 Y115.533
G1 X70.355 Y114.861
;WIPE_END
G1 X77.877 Y116.155 Z.6
G1 X121.192 Y123.603 Z.6
G1 Z.2
G1 E1.6 F1800
;TYPE:Inner wall
;WIDTH:0.599999
G1 F600
G1 X121.138 Y123.629 E.00264
G2 X120.121 Y124.477 I3.623 J5.378 E.05835
G2 X119.606 Y123.99 I-6.784 J6.655 E.03123
;WIDTH:0.647406
G1 X119.346 Y123.802 E.01531
;WIDTH:0.694812
G1 X119.086 Y123.613 E.01652
;WIDTH:0.742218
G1 X118.827 Y123.425 E.01772
G1 X118.285 Y123.211 E.03219
;WIDTH:0.706729
G2 X117.473 Y123.024 I-1.13 J3.037 E.04379
;WIDTH:0.690817
G1 X116.951 Y123.043 E.02675
;WIDTH:0.645408
G1 X116.429 Y123.062 E.02487
;WIDTH:0.599999
G1 X115.832 Y123.162 E.02664
G1 X115.149 Y123.406 E.0319
G2 X114.355 Y123.876 I1.547 J3.52 E.04071
G1 X105.022 Y113.952 E.59947
G1 X104.538 Y113.483 E.02969
G1 X104.243 Y113.328 E.01464
G1 X103.746 Y113.236 E.02225
G1 X73.689 Y113.236 E1.32266
G1 X73.689 Y106.764 E.28479
G1 X103.938 Y106.764 E1.33111
G1 X104.41 Y106.596 E.02206
M73 P1 R41
M73 P1 R41
G1 X104.746 Y106.341 E.01857
G1 X116.341 Y94.376 E.73318
G1 X116.84 Y93.981 E.02799
G2 X117.23 Y94.745 I11.334 J-5.316 E.03776
G1 X117.714 Y95.4 E.03586
G2 X118.492 Y96.104 I6.048 J-5.899 E.04617
G1 X119.305 Y96.58 E.04148
G1 X120.16 Y96.866 E.03966
;WIDTH:0.625553
G1 X120.49 Y96.925 E.01543
;WIDTH:0.651106
G1 X120.819 Y96.985 E.0161
G1 X120.476 Y97.039 E.01671
;WIDTH:0.605757
G1 X119.833 Y97.155 E.02904
;WIDTH:0.599999
G2 X118.293 Y97.526 I1.141 J8.125 E.06982
G2 X117.136 Y97.944 I1.656 J6.395 E.05419
G1 X116.458 Y98.231 E.03242
G1 X115.29 Y98.864 E.05843
G1 X114.136 Y99.66 E.06173
G1 X113.074 Y100.576 E.06173
G1 X112.116 Y101.601 E.06173
G1 X111.273 Y102.722 E.06173
G1 X110.555 Y103.928 E.06173
G1 X109.971 Y105.203 E.06173
G1 X109.527 Y106.534 E.06173
G1 X109.244 Y107.831 E.05843
G2 X109.077 Y109.374 I35.048 J4.559 E.06828
G2 X109.085 Y110.776 I67.794 J.313 E.06171
G2 X109.527 Y113.466 I15.379 J-1.141 E.12014
G1 X109.971 Y114.797 E.06173
G1 X110.555 Y116.072 E.06173
G1 X111.273 Y117.278 E.06173
G1 X112.116 Y118.399 E.06173
G1 X113.074 Y119.424 E.06173
G1 X114.136 Y120.34 E.06173
G1 X115.29 Y121.136 E.06173
G2 X116.593 Y121.833 I30.643 J-55.703 E.065
G1 X117.145 Y122.06 E.02627
;WIDTH:0.645408
G1 X117.393 Y122.186 E.01324
;WIDTH:0.690817
G1 X117.641 Y122.312 E.01423
;WIDTH:0.706729
G2 X118.49 Y122.584 I1.898 J-4.465 E.04679
;WIDTH:0.742602
G1 X119.08 Y122.776 E.03433
G1 X119.252 Y122.785 E.00948
;WIDTH:0.695068
G1 X119.423 Y122.794 E.00883
;WIDTH:0.647534
G1 X119.594 Y122.803 E.00819
;WIDTH:0.599999
G1 X120.476 Y122.958 E.03942
G2 X122.024 Y123.062 I3.055 J-33.868 E.06828
;WIDTH:0.637432
G1 X122.693 Y123.055 E.03139
;WIDTH:0.636019
G1 X121.738 Y123.333 E.04658
;WIDTH:0.599999
G1 X121.227 Y123.585 E.02506
G1 E-1.6 F2400
;WIPE_START
G1 F9000
G1 X121.138 Y123.629
G1 X120.561 Y124.066
G1 X120.121 Y124.477
G1 X119.704 Y124.082
;WIPE_END
G1 X126.506 Y127.545 Z.6
G1 X126.587 Y127.586 Z.6
G1 Z.2
G1 E1.6 F1800
;TYPE:Outer wall
;WIDTH:0.520812
G1 F600
G1 X126.582 Y127.299 E.01086
G1 E-1.6 F2400
;WIPE_START
G1 F9000
G1 X126.587 Y127.586
;WIPE_END
G1 X133.007 Y127.585 Z.6
G1 Z.2
G1 E1.6 F1800
;WIDTH:0.521318
G1 F600
G1 X133.003 Y127.297 E.01092
G1 E-1.6 F2400
;WIPE_START
G1 F9000
G1 X133.007 Y127.585
;WIPE_END
G1 X139.427 Y127.586 Z.6
G1 Z.2
G1 E1.6 F1800
;WIDTH:0.52082
G1 F600
G1 X139.422 Y127.299 E.01086
G1 E-1.6 F2400
;WIPE_START
G1 F9000
G1 X139.427 Y127.586
;WIPE_END
G1 X132.623 Y124.127 Z.6
G1 X132.517 Y124.073 Z.6
G1 Z.2
G1 E1.6 F1800
;TYPE:Inner wall
;WIDTH:0.599999
G1 F600
G1 X132.269 Y123.866 E.01422
G1 X131.508 Y123.421 E.03878
G1 X130.651 Y123.134 E.03977
G1 X129.74 Y123.027 E.0404
G1 X129.117 Y123.075 E.02747
G1 X128.465 Y123.224 E.02946
G2 X127.463 Y123.68 I2.411 J6.614 E.04849
G2 X126.539 Y124.479 I4.673 J6.348 E.05379
G2 X125.339 Y123.546 I-3.745 J3.578 E.0671
G2 X124.231 Y123.135 I-2.535 J5.136 E.05209
;WIDTH:0.629882
G1 X123.427 Y123.013 E.0377
G1 X123.569 Y122.986 E.00669
;WIDTH:0.619029
G1 X124.231 Y122.878 E.03049
M73 P2 R41
;WIDTH:0.599999
M73 P2 R41
G2 X125.483 Y122.608 I-.802 J-6.758 E.05647
G2 X126.91 Y122.14 I-1.725 J-7.668 E.06617
G1 X127.474 Y121.917 E.02671
G1 X128.249 Y121.523 E.03826
G1 X146.311 Y121.523 E.7948
G1 X146.311 Y125.104 E.15758
G1 X145.86 Y124.522 E.0324
G1 X145.16 Y123.897 E.04134
G1 X144.348 Y123.421 E.04137
G1 X143.491 Y123.134 E.03977
G1 X142.58 Y123.027 E.0404
G1 X141.957 Y123.075 E.02747
G1 X141.305 Y123.224 E.02946
G1 X140.998 Y123.333 E.01431
G1 X140.15 Y123.786 E.04232
G2 X139.379 Y124.479 I6.593 J8.118 E.04564
G2 X138.689 Y123.866 I-4.301 J4.146 E.04064
G1 X137.928 Y123.422 E.03875
G1 X137.071 Y123.135 E.03977
G1 X136.16 Y123.027 E.0404
G1 X135.537 Y123.075 E.02747
G1 X134.884 Y123.224 E.02946
G1 X134.578 Y123.333 E.01431
G1 X133.73 Y123.786 E.0423
G2 X132.959 Y124.478 I6.62 J8.147 E.04563
G2 X132.716 Y124.24 I-4.324 J4.17 E.01499
G1 X132.548 Y124.099 E.00965
G1 E-1.6 F2400
;WIPE_START
G1 F9000
G1 X132.269 Y123.866
G1 X131.508 Y123.421
G1 X130.792 Y123.182
;WIPE_END
G1 X132.316 Y115.703 Z.6
G1 X137.063 Y92.415 Z.6
G1 Z.2
G1 E1.6 F1800
;TYPE:Outer wall
;WIDTH:0.520426
G1 F600
G1 X137.067 Y92.699 E.01072
G1 E-1.6 F2400
;WIPE_START
G1 F9000
G1 X137.063 Y92.415
;WIPE_END
G1 X130.643 Y92.414 Z.6
G1 Z.2
G1 E1.6 F1800
;WIDTH:0.520658
G1 F600
G1 X130.647 Y92.7 E.01082
G1 E-1.6 F2400
;WIPE_START
G1 F9000
G1 X130.643 Y92.414
;WIPE_END
G1 X124.223 Y92.419 Z.6
G1 Z.2
G1 E1.6 F1800
;WIDTH:0.520418
G1 F600
G1 X124.227 Y92.699 E.01056
G1 E-1.6 F2400
;WIPE_START
G1 F9000
G1 X124.223 Y92.419
;WIPE_END
G1 X128.857 Y98.477 Z.6
G1 Z.2
G1 E1.6 F1800
;TYPE:Inner wall
;WIDTH:0.599999
G1 F600
G1 X128.249 Y98.477 E.02675
G1 X127.474 Y98.083 E.03826
G1 X127.002 Y97.895 E.02238
;WIDTH:0.638797
G1 X126.678 Y97.755 E.01661
;WIDTH:0.677595
G1 X126.354 Y97.615 E.01769
;WIDTH:0.716392
G1 X126.03 Y97.474 E.01877
;WIDTH:0.746045
G1 X125.484 Y97.316 E.03161
G1 X125.359 Y97.307 E.00694
;WIDTH:0.700922
G1 X125.234 Y97.298 E.0065
;WIDTH:0.655799
G1 X125.11 Y97.289 E.00605
;WIDTH:0.610675
G1 X124.665 Y97.187 E.02048
;WIDTH:0.599999
G2 X123.276 Y96.988 I-10.501 J68.521 E.06171
G1 X122.716 Y96.966 E.02466
;WIDTH:0.627576
G1 X122.295 Y96.939 E.01952
;WIDTH:0.655152
G1 X121.873 Y96.912 E.02044
G1 X122.02 Y96.868 E.00743
;WIDTH:0.63389
G1 X122.653 Y96.667 E.031
;WIDTH:0.599999
G1 X123.473 Y96.235 E.04079
G2 X124.27 Y95.521 I-2.098 J-3.144 E.04725
G1 X124.722 Y95.961 E.02775
G1 X125.211 Y96.291 E.02597
;WIDTH:0.648681
G1 X125.372 Y96.41 E.0096
;WIDTH:0.697363
G1 X125.534 Y96.529 E.01037
;WIDTH:0.746045
G1 X125.696 Y96.647 E.01114
G1 X126.234 Y96.833 E.03161
;WIDTH:0.716392
G1 X126.572 Y96.914 E.01849
;WIDTH:0.698509
G1 X127.146 Y96.939 E.02976
;WIDTH:0.649254
G1 X127.72 Y96.964 E.02752
;WIDTH:0.599999
G1 X128.263 Y96.891 E.0241
G1 X129.072 Y96.667 E.03694
G1 X129.92 Y96.214 E.04232
G2 X130.691 Y95.522 I-6.596 J-8.121 E.04564
G2 X131.381 Y96.134 I4.303 J-4.147 E.04064
G1 X132.142 Y96.578 E.03875
G1 X132.999 Y96.865 E.03977
G1 X133.91 Y96.973 E.0404
G1 X134.533 Y96.925 E.02747
G1 X135.186 Y96.776 E.02946
G1 X135.492 Y96.667 E.01431
G1 X136.34 Y96.214 E.0423
G2 X137.111 Y95.522 I-6.62 J-8.147 E.04563
G2 X137.801 Y96.134 I4.323 J-4.169 E.04064
G1 X138.562 Y96.579 E.03878
G1 X139.419 Y96.866 E.03977
G1 X140.33 Y96.973 E.04039
G1 X140.953 Y96.925 E.02747
G1 X141.606 Y96.776 E.02946
G1 X141.912 Y96.667 E.01431
G1 X142.512 Y96.371 E.02946
G1 X142.835 Y96.151 E.01719
G1 X143.526 Y95.526 E.041
G2 X144.23 Y96.132 I3.064 J-2.849 E.04093
G1 X145.039 Y96.609 E.04135
G1 X145.663 Y96.826 E.02905
G1 X146.311 Y96.943 E.02899
G1 X146.311 Y98.477 E.06747
G1 X128.897 Y98.477 E.76629
G1 E-1.6 F2400
;WIPE_START
G1 F9000
G1 X128.249 Y98.477
G1 X127.474 Y98.083
G1 X127.026 Y97.905
;WIPE_END
G1 X128.574 Y105.379 Z.6
G1 X132.63 Y124.959 Z.6
G1 Z.2
G1 E1.6 F1800
G1 F600
G1 X132.451 Y124.76 E.01177
G2 X131.973 Y124.337 I-3.574 J3.553 E.02808
G1 X131.313 Y123.943 E.03387
G1 X130.573 Y123.686 E.03446
G1 X129.76 Y123.584 E.03603
G1 X129.241 Y123.618 E.02289
G1 X128.589 Y123.767 E.02946
G2 X127.747 Y124.159 I2.799 J7.093 E.04087
G2 X126.86 Y124.95 I4.494 J5.942 E.05236
G1 X126.552 Y125.449 E.02582
G1 X126.353 Y125.115 E.01713
G2 X124.893 Y123.943 I-3.526 J2.898 E.08297
G1 X124.153 Y123.686 E.03446
G1 X123.34 Y123.584 E.03603
G1 X122.821 Y123.618 E.0229
G1 X121.985 Y123.832 E.038
G1 X121.211 Y124.244 E.03857
G2 X120.439 Y124.953 I4.616 J5.798 E.04615
G1 X120.13 Y125.457 E.02602
G1 X119.788 Y124.932 E.02756
G1 X119.284 Y124.445 E.03084
G1 X118.728 Y124.076 E.0294
G1 X118.124 Y123.798 E.02922
G1 X117.429 Y123.624 E.03154
G1 X116.712 Y123.588 E.03161
G1 X116.004 Y123.691 E.03145
G1 X115.409 Y123.898 E.02772
G1 X114.791 Y124.241 E.03111
G1 X114.304 Y124.635 E.02756
G1 X104.355 Y114.056 E.63904
G1 X104.044 Y113.848 E.01644
G1 X103.746 Y113.793 E.01335
G1 X73.132 Y113.793 E1.34718
G1 X73.132 Y106.207 E.33382
G1 X103.746 Y106.207 E1.34718
G1 X104.044 Y106.152 E.01335
G1 X104.346 Y105.953 E.01591
G1 X115.663 Y94.273 E.71565
G1 X116.274 Y93.692 E.03711
M73 P3 R41
M73 P3 R41
G1 X116.707 Y93.405 E.02286
G1 X117.17 Y93.208 E.02216
G2 X117.682 Y94.418 I4.823 J-1.326 E.05799
G1 X118.174 Y95.074 E.03607
G1 X118.787 Y95.632 E.0365
G1 X119.501 Y96.058 E.03658
G1 X120.238 Y96.314 E.03435
G1 X120.902 Y96.408 E.02948
G1 X121.415 Y96.402 E.02259
G2 X122.406 Y96.167 I-1.116 J-6.913 E.04487
G1 X123.138 Y95.789 E.03625
G2 X124.258 Y94.552 I-1.897 J-2.841 E.07419
G1 X124.59 Y95.054 E.02653
G2 X125.917 Y96.057 I3.463 J-3.203 E.07358
G1 X126.657 Y96.314 E.03446
G1 X127.321 Y96.409 E.02948
G2 X128.139 Y96.348 I.183 J-3.092 E.03621
G1 X128.825 Y96.168 E.03123
G1 X129.426 Y95.872 E.02946
G2 X130.37 Y95.05 I-3.679 J-5.186 E.05517
G1 X130.678 Y94.551 E.02582
G1 X130.873 Y94.878 E.01678
G2 X131.677 Y95.663 I3.912 J-3.206 E.04953
G1 X132.337 Y96.057 E.03384
G1 X133.077 Y96.314 E.03446
G1 X133.89 Y96.416 E.03603
G1 X134.409 Y96.382 E.0229
G1 X135.245 Y96.168 E.038
G1 X135.846 Y95.871 E.02946
G2 X136.79 Y95.05 I-3.682 J-5.189 E.05517
G1 X137.098 Y94.552 E.02576
G1 X137.293 Y94.878 E.01671
G2 X138.097 Y95.663 I3.901 J-3.192 E.04955
G1 X138.757 Y96.057 E.03387
G1 X139.497 Y96.314 E.03446
G1 X140.31 Y96.416 E.03603
G1 X140.829 Y96.382 E.0229
G1 X141.665 Y96.168 E.038
G1 X142.416 Y95.776 E.03725
G2 X143.221 Y95.037 I-5.065 J-6.327 E.04816
G1 X143.522 Y94.542 E.02546
G1 X143.653 Y94.782 E.01201
G2 X144.409 Y95.586 I2.927 J-1.994 E.04879
G1 X145.088 Y96.014 E.03532
G1 X145.641 Y96.241 E.02629
G1 X146.229 Y96.377 E.02658
G1 X146.868 Y96.412 E.02815
G1 X146.868 Y99.034 E.11539
G1 X128.116 Y99.034 E.82518
G2 X124.583 Y97.738 I-6.254 J11.587 E.16619
G2 X123.254 Y97.545 I-15.354 J101.141 E.05908
G2 X121.912 Y97.496 I-4.674 J109.026 E.05908
G2 X120.573 Y97.59 I4.635 J74.935 E.05908
G2 X119.252 Y97.828 I16.365 J94.691 E.05908
G2 X117.348 Y98.459 I3.07 J12.455 E.08835
G1 X116.723 Y98.721 E.02979
G1 X115.582 Y99.339 E.05712
G1 X114.477 Y100.102 E.05909
G1 X113.46 Y100.979 E.05909
G1 X112.543 Y101.96 E.05909
G1 X111.736 Y103.033 E.05909
G1 X111.049 Y104.187 E.05909
G1 X110.49 Y105.408 E.05909
G1 X110.065 Y106.682 E.05909
G1 X109.788 Y107.95 E.05711
G2 X109.635 Y109.374 I49.276 J6.033 E.06302
G2 X109.639 Y110.716 I99.856 J.313 E.05908
G1 X109.788 Y112.05 E.05908
G1 X110.065 Y113.318 E.05711
G1 X110.49 Y114.592 E.05909
G1 X111.049 Y115.813 E.05909
G1 X111.736 Y116.967 E.05909
G1 X112.543 Y118.04 E.05909
G1 X113.46 Y119.021 E.05909
G1 X114.477 Y119.898 E.05909
G1 X115.582 Y120.661 E.05909
G2 X116.804 Y121.318 I43.666 J-79.758 E.06106
G2 X118.048 Y121.823 I39.731 J-96.049 E.05908
G2 X119.339 Y122.192 I27.719 J-94.555 E.05908
G2 X122.001 Y122.506 I3.223 J-15.898 E.11809
G2 X123.343 Y122.447 I-3.363 J-91.947 E.05912
G2 X125.342 Y122.069 I-1.402 J-12.887 E.08962
G2 X126.712 Y121.619 I-1.569 J-7.088 E.06356
G1 X127.222 Y121.42 E.02408
G1 X128.116 Y120.966 E.04412
G1 X146.868 Y120.966 E.82518
G1 X146.868 Y126.952 E.26341
G1 X146.525 Y126.952 E.01507
G2 X146.331 Y126.308 I-13.744 J3.789 E.02962
G1 X145.969 Y125.582 E.03568
G1 X145.477 Y124.927 E.03607
G1 X144.864 Y124.369 E.0365
G1 X144.153 Y123.943 E.03648
G1 X143.413 Y123.686 E.03446
G1 X142.6 Y123.584 E.03603
G1 X142.081 Y123.618 E.02289
G1 X141.245 Y123.832 E.038
G1 X140.644 Y124.128 E.02946
G2 X139.7 Y124.95 I3.679 J5.186 E.05517
G1 X139.392 Y125.449 E.02582
G1 X139.197 Y125.122 E.01678
G2 X138.393 Y124.337 I-3.912 J3.206 E.04953
G1 X137.733 Y123.943 E.03384
G1 X136.993 Y123.686 E.03446
G1 X136.18 Y123.584 E.03603
G1 X135.661 Y123.618 E.0229
G1 X134.825 Y123.832 E.038
G1 X134.224 Y124.129 E.02946
G2 X133.28 Y124.95 I3.682 J5.189 E.05518
G1 X132.972 Y125.448 E.02575
G1 X132.777 Y125.122 E.01671
G1 X132.657 Y124.989 E.00793
G1 E-1.6 F2400
