;TIME:2790.34
;Filament used:3.67797m
;Layer height:0.200
; HEADER_BLOCK_START
; generated by Creality_Print V6.0.5.1840 on 2025-06-10 at 22:29:47
; total layer number: 200
; filament_density: 1.24
; filament_diameter: 1.75
; max_z_height: 40.00
; HEADER_BLOCK_END

; MINX = 88.50
; MINY = 89.75
; MINZ = 0.00
; MAXX = 131.50
; MAXY = 130.25
; MAXZ = 40.10

; THUMBNAIL_BLOCK_START

;
; THUMBNAIL_BLOCK_END

; THUMBNAIL_BLOCK_START

;
; THUMBNAIL_BLOCK_END

; external perimeters extrusion width = 0.42mm
; perimeters extrusion width = 0.45mm
; infill extrusion width = 0.45mm
; solid infill extrusion width = 0.42mm
; top infill extrusion width = 0.42mm
; support material extrusion width = 0.40mm
; first layer extrusion width = 0.60mm

; EXECUTABLE_BLOCK_START
M73 P0 R46
M201 X5000 Y5000 Z500 E5000
M203 X500 Y500 Z30 E100
M204 P5000 R2500 T5000 ; sets acceleration (P, T) and retract acceleration (R), mm/sec^2
M205 X10.00 Y10.00 Z0.40 E5.00 ; sets the jerk limits, mm/sec
;TYPE:Custom
M220 S100 ;Reset Feedrate 
M221 S100 ;Reset Flowrate 
 
M140 S75 ;Set final bed temp 
G28 ;Home 
 
G92 E0 ;Reset Extruder 
G1 Z2.0 F3000 ;Move Z Axis up 
M104 S200 ;Set final nozzle temp 
G1 X-2.1 Y20 Z0.28 F5000.0 ;Move to start position 
M190 S75 ;Wait for bed temp to stabilize 
M109 S200 ;Wait for nozzle temp to stabilize 
G1 X-2.1 Y145.0 Z0.28 F1500.0 E15 ;Draw the first line 
G1 X-2.4 Y145.0 Z0.28 F5000.0 ;Move to side a little 
G1 X-2.4 Y20 Z0.28 F1500.0 E30 ;Draw the second line 
G92 E0  ;Reset Extruder 
G1 E-1.0000 F1800 ;Retract a bit 
G1 Z2.0 F3000 ;Move Z Axis up 
G1 E0.0000 F1800
G90
G21
M83 ; use relative distances for extrusion
" "
G1 E-1.6 F2400
M106 S0
;LAYER_CHANGE
;Z:0.2
;HEIGHT:0.2
;BEFORE_LAYER_CHANGE
;0.2
G92 E0

;_SET_FAN_SPEED_CHANGING_LAYER
M204 P125
M205 X10 Y10
; printing object Topper id:4626271517255789587 copy 0
M204 T125
G1 Z.4 F9000
G1 X129.148 Y128.686
G1 Z.2
G1 E1.6 F1800
;TYPE:Inner wall
;WIDTH:0.599999
G1 F600
G1 X90.064 Y128.686 E1.71989
G1 X90.064 Y91.314 E1.64455
G1 X129.936 Y91.314 E1.75456
G1 X129.936 Y128.686 E1.64455
G1 X129.188 Y128.686 E.03291
M73 P1 R46
M73 P1 R46
G1 X129.893 Y129.243 F9000
G1 F600
G1 X89.507 Y129.243 E1.77719
G1 X89.507 Y90.757 E1.69358
M73 P1 R45
M73 P1 R45
G1 X130.493 Y90.757 E1.80359
G1 X130.493 Y129.243 E1.69358
G1 X129.933 Y129.243 E.02464
G1 E-1.6 F2400
;WIPE_START
G1 F9000
G1 X127.933 Y129.243
;WIPE_END
G1 X131.05 Y129.8 Z.6
G1 Z.2
G1 E1.6 F1800
;TYPE:Outer wall
G1 F600
G1 X88.95 Y129.8 E1.85262
G1 X88.95 Y90.2 E1.74261
G1 X131.05 Y90.2 E1.85262
G1 X131.05 Y129.76 E1.74085
M73 P2 R45
M73 P2 R45
G1 E-1.6 F2400
;WIPE_START
G1 F9000
G1 X129.05 Y129.762
;WIPE_END
G1 Z.6
G1 X129.797 Y92.585
G1 Z.6
G1 Z.2
G1 E1.6 F1800
;TYPE:Bottom surface
;WIDTH:0.602756
G1 F1200
G1 X128.915 Y91.704 E.05512
G1 X128.124 Y91.704 E.03501
G1 X129.546 Y93.126 E.08895
G1 X129.546 Y93.918 E.03501
G1 X127.332 Y91.704 E.13847
G1 X126.54 Y91.704 E.03501
G1 X129.546 Y94.71 E.18798
G1 X129.546 Y95.502 E.03501
G1 X125.748 Y91.704 E.2375
G1 X124.957 Y91.704 E.03501
G1 X129.546 Y96.293 E.28701
G1 X129.546 Y97.085 E.03501
G1 X124.165 Y91.704 E.33653
G1 X123.373 Y91.704 E.03501
G1 X129.546 Y97.877 E.38604
G1 X129.546 Y98.669 E.03501
G1 X122.581 Y91.704 E.43556
G1 X121.79 Y91.704 E.03501
G1 X129.546 Y99.46 E.48507
G1 X129.546 Y100.252 E.03501
G1 X120.998 Y91.704 E.53459
G1 X120.206 Y91.704 E.03501
G1 X129.546 Y101.044 E.58411
G1 X129.546 Y101.835 E.03501
G1 X119.415 Y91.704 E.63362
G1 X118.623 Y91.704 E.03501
G1 X129.546 Y102.627 E.68314
G1 X129.546 Y103.419 E.03501
G1 X117.831 Y91.704 E.73265
G1 X117.039 Y91.704 E.03501
G1 X129.546 Y104.211 E.78217
G1 X129.546 Y105.002 E.03501
G1 X116.248 Y91.704 E.83168
G1 X115.456 Y91.704 E.03501
G1 X129.546 Y105.794 E.8812
G1 X129.546 Y106.586 E.03501
G1 X114.664 Y91.704 E.93071
G1 X113.872 Y91.704 E.03501
G1 X129.546 Y107.378 E.98023
G1 X129.546 Y108.169 E.03501
G1 X113.081 Y91.704 E1.02974
G1 X112.289 Y91.704 E.03501
G1 X129.546 Y108.961 E1.07926
G1 X129.546 Y109.753 E.03501
G1 X111.497 Y91.704 E1.12877
G1 X110.706 Y91.704 E.03501
G1 X129.546 Y110.544 E1.17829
G1 X129.546 Y111.336 E.03501
G1 X109.914 Y91.704 E1.2278
G1 X109.122 Y91.704 E.03501
G1 X129.546 Y112.128 E1.27732
G1 X129.546 Y112.92 E.03501
M73 P3 R45
M73 P3 R45
G1 X108.33 Y91.704 E1.32683
G1 X107.539 Y91.704 E.03501
G1 X129.546 Y113.711 E1.37635
G1 X129.546 Y114.503 E.03501
G1 X106.747 Y91.704 E1.42587
G1 X105.955 Y91.704 E.03501
G1 X129.546 Y115.295 E1.47538
G1 X129.546 Y116.087 E.03501
M73 P3 R44
M73 P3 R44
G1 X105.163 Y91.704 E1.5249
G1 X104.372 Y91.704 E.03501
G1 X129.546 Y116.878 E1.57441
G1 X129.546 Y117.67 E.03501
G1 X103.58 Y91.704 E1.62393
G1 X102.788 Y91.704 E.03501
G1 X129.546 Y118.462 E1.67344
G1 X129.546 Y119.253 E.03501
G1 X101.997 Y91.704 E1.72296
G1 X101.205 Y91.704 E.03501
G1 X129.546 Y120.045 E1.77247
G1 X129.546 Y120.837 E.03501
G1 X100.413 Y91.704 E1.82199
G1 X99.621 Y91.704 E.03501
G1 X129.546 Y121.629 E1.8715
G1 X129.546 Y122.42 E.03501
G1 X98.83 Y91.704 E1.92102
G1 X98.038 Y91.704 E.03501
G1 X129.546 Y123.212 E1.97053
G1 X129.546 Y124.004 E.03501
M73 P4 R44
M73 P4 R44
G1 X97.246 Y91.704 E2.02005
G1 X96.454 Y91.704 E.03501
G1 X129.546 Y124.796 E2.06956
G1 X129.546 Y125.587 E.03501
G1 X95.663 Y91.704 E2.11908
G1 X94.871 Y91.704 E.03501
G1 X129.546 Y126.379 E2.16859
G1 X129.546 Y127.171 E.03501
G1 X94.079 Y91.704 E2.21811
G1 X93.288 Y91.704 E.03501
G1 X129.546 Y127.962 E2.26762
G1 X129.546 Y128.296 E.01475
G1 X129.088 Y128.296 E.02027
G1 X92.496 Y91.704 E2.28848
G1 X91.704 Y91.704 E.03501
G1 X128.296 Y128.296 E2.28848
G1 X127.504 Y128.296 E.03501
G1 X90.912 Y91.704 E2.28848
G1 X90.454 Y91.704 E.02027
G1 X90.454 Y92.038 E.01475
G1 X126.712 Y128.296 E2.26762
G1 X125.921 Y128.296 E.03501
G1 X90.454 Y92.829 E2.21811
G1 X90.454 Y93.621 E.03501
M73 P5 R44
M73 P5 R44
G1 X125.129 Y128.296 E2.16859
G1 X124.337 Y128.296 E.03501
G1 X90.454 Y94.413 E2.11908
G1 X90.454 Y95.204 E.03501
G1 X123.546 Y128.296 E2.06956
G1 X122.754 Y128.296 E.03501
G1 X90.454 Y95.996 E2.02005
G1 X90.454 Y96.788 E.03501
G1 X121.962 Y128.296 E1.97053
G1 X121.17 Y128.296 E.03501
M73 P5 R43
M73 P5 R43
G1 X90.454 Y97.58 E1.92102
G1 X90.454 Y98.371 E.03501
G1 X120.379 Y128.296 E1.8715
G1 X119.587 Y128.296 E.03501
G1 X90.454 Y99.163 E1.82199
G1 X90.454 Y99.955 E.03501
G1 X118.795 Y128.296 E1.77247
G1 X118.003 Y128.296 E.03501
G1 X90.454 Y100.747 E1.72296
G1 X90.454 Y101.538 E.03501
G1 X117.212 Y128.296 E1.67344
G1 X116.42 Y128.296 E.03501
G1 X90.454 Y102.33 E1.62393
G1 X90.454 Y103.122 E.03501
G1 X115.628 Y128.296 E1.57441
G1 X114.837 Y128.296 E.03501
M73 P6 R43
M73 P6 R43
G1 X90.454 Y103.913 E1.52489
G1 X90.454 Y104.705 E.03501
G1 X114.045 Y128.296 E1.47538
G1 X113.253 Y128.296 E.03501
G1 X90.454 Y105.497 E1.42586
G1 X90.454 Y106.289 E.03501
G1 X112.461 Y128.296 E1.37635
G1 X111.67 Y128.296 E.03501
G1 X90.454 Y107.08 E1.32683
G1 X90.454 Y107.872 E.03501
G1 X110.878 Y128.296 E1.27732
G1 X110.086 Y128.296 E.03501
G1 X90.454 Y108.664 E1.2278
G1 X90.454 Y109.456 E.03501
G1 X109.294 Y128.296 E1.17829
G1 X108.503 Y128.296 E.03501
G1 X90.454 Y110.247 E1.12877
G1 X90.454 Y111.039 E.03501
G1 X107.711 Y128.296 E1.07926
G1 X106.919 Y128.296 E.03501
G1 X90.454 Y111.831 E1.02974
G1 X90.454 Y112.622 E.03501
G1 X106.128 Y128.296 E.98023
G1 X105.336 Y128.296 E.03501
G1 X90.454 Y113.414 E.93071
G1 X90.454 Y114.206 E.03501
G1 X104.544 Y128.296 E.8812
G1 X103.752 Y128.296 E.03501
G1 X90.454 Y114.998 E.83168
G1 X90.454 Y115.789 E.03501
G1 X102.961 Y128.296 E.78217
G1 X102.169 Y128.296 E.03501
G1 X90.454 Y116.581 E.73265
G1 X90.454 Y117.373 E.03501
G1 X101.377 Y128.296 E.68314
G1 X100.585 Y128.296 E.03501
G1 X90.454 Y118.165 E.63362
G1 X90.454 Y118.956 E.03501
G1 X99.794 Y128.296 E.5841
G1 X99.002 Y128.296 E.03501
G1 X90.454 Y119.748 E.53459
G1 X90.454 Y120.54 E.03501
G1 X98.21 Y128.296 E.48507
G1 X97.419 Y128.296 E.03501
M73 P7 R43
M73 P7 R43
G1 X90.454 Y121.331 E.43556
G1 X90.454 Y122.123 E.03501
G1 X96.627 Y128.296 E.38604
G1 X95.835 Y128.296 E.03501
G1 X90.454 Y122.915 E.33653
G1 X90.454 Y123.707 E.03501
G1 X95.043 Y128.296 E.28701
G1 X94.252 Y128.296 E.03501
G1 X90.454 Y124.498 E.2375
G1 X90.454 Y125.29 E.03501
G1 X93.46 Y128.296 E.18798
G1 X92.668 Y128.296 E.03501
G1 X90.454 Y126.082 E.13847
G1 X90.454 Y126.874 E.03501
G1 X91.876 Y128.296 E.08895
G1 X91.085 Y128.296 E.03501
G1 X90.203 Y127.415 E.05511
; stop printing object Topper id:4626271517255789587 copy 0
;TIME_ELAPSED:199.044052

;LAYER_CHANGE
;Z:0.4
;HEIGHT:0.2
;BEFORE_LAYER_CHANGE
;0.4
G92 E0

G1 E-1.6 F2400
;WIPE_START
G1 F9000
G1 X91.085 Y128.296
G1 X91.838 Y128.296
;WIPE_END
;_SET_FAN_SPEED_CHANGING_LAYER
M204 P2500
; printing object Topper id:4626271517255789587 copy 0
M204 T2500
G1 X99.468 Y128.485 Z.6
G1 X129.926 Y129.241 Z.6
G1 Z.4
G1 E1.6 F1800
M204 P2000
;TYPE:Inner wall
;WIDTH:0.449999
G1 F5400
G1 X89.509 Y129.241 E1.29965
G1 X89.509 Y90.759 E1.23743
G1 X130.491 Y90.759 E1.31782
G1 X130.491 Y129.241 E1.23743
G1 X129.966 Y129.241 E.01689
G1 X130.448 Y129.648 F9000
G1 F5400
G1 X89.102 Y129.648 E1.32953
G1 X89.102 Y90.352 E1.26361
G1 X130.898 Y90.352 E1.344
G1 X130.898 Y129.648 E1.26361
G1 X130.488 Y129.648 E.01318
G1 X131.29 Y130.04 F9000
M204 P1000
;TYPE:Outer wall
;WIDTH:0.419999
G1 F2400
G1 X88.71 Y130.04 E1.26831
G1 X88.71 Y89.96 E1.19384
G1 X131.29 Y89.96 E1.26831
G1 X131.29 Y130 E1.19265
G1 E-1.6
;WIPE_START
G1 F9000
G1 X129.29 Y130.002
;WIPE_END
G1 Z.8
G1 X129.628 Y129.141
G1 Z.8
G1 Z.4
G1 E1.6 F1800
M204 P2500
;TYPE:Internal solid infill
;WIDTH:0.420001
G1 F10800
G1 X130.221 Y128.548 E.02496
G1 X130.221 Y128.015 E.01588
G1 X129.265 Y128.971 E.04028
G1 X128.731 Y128.971 E.01588
G1 X130.221 Y127.481 E.06274
G1 X130.221 Y126.948 E.01588
G1 X128.198 Y128.971 E.08521
G1 X127.665 Y128.971 E.01588
G1 X130.221 Y126.415 E.10767
G1 X130.221 Y125.882 E.01588
G1 X127.132 Y128.971 E.13013
G1 X126.598 Y128.971 E.01588
G1 X130.221 Y125.348 E.1526
G1 X130.221 Y124.815 E.01588
G1 X126.065 Y128.971 E.17506
G1 X125.532 Y128.971 E.01588
G1 X130.221 Y124.282 E.19753
G1 X130.221 Y123.749 E.01588
G1 X124.999 Y128.971 E.21999
G1 X124.465 Y128.971 E.01588
G1 X130.221 Y123.215 E.24245
G1 X130.221 Y122.682 E.01588
G1 X123.932 Y128.971 E.26492
G1 X123.399 Y128.971 E.01588
G1 X130.221 Y122.149 E.28738
G1 X130.221 Y121.615 E.01588
G1 X122.865 Y128.971 E.30985
G1 X122.332 Y128.971 E.01588
G1 X130.221 Y121.082 E.33231
G1 X130.221 Y120.549 E.01588
G1 X121.799 Y128.971 E.35477
G1 X121.266 Y128.971 E.01588
G1 X130.221 Y120.016 E.37724
G1 X130.221 Y119.482 E.01588
G1 X120.732 Y128.971 E.3997
G1 X120.199 Y128.971 E.01588
G1 X130.221 Y118.949 E.42217
G1 X130.221 Y118.416 E.01588
G1 X119.666 Y128.971 E.44463
G1 X119.133 Y128.971 E.01588
G1 X130.221 Y117.883 E.46709
G1 X130.221 Y117.349 E.01588
G1 X118.599 Y128.971 E.48956
G1 X118.066 Y128.971 E.01588
M73 P7 R42
M73 P7 R42
G1 X130.221 Y116.816 E.51202
G1 X130.221 Y116.283 E.01588
G1 X117.533 Y128.971 E.53449
G1 X116.999 Y128.971 E.01588
G1 X130.221 Y115.749 E.55695
G1 X130.221 Y115.216 E.01588
G1 X116.466 Y128.971 E.57941
G1 X115.933 Y128.971 E.01588
G1 X130.221 Y114.683 E.60188
G1 X130.221 Y114.15 E.01588
G1 X115.4 Y128.971 E.62434
G1 X114.866 Y128.971 E.01588
G1 X130.221 Y113.616 E.64681
G1 X130.221 Y113.083 E.01588
G1 X114.333 Y128.971 E.66927
G1 X113.8 Y128.971 E.01588
G1 X130.221 Y112.55 E.69173
G1 X130.221 Y112.017 E.01588
G1 X113.267 Y128.971 E.7142
G1 X112.733 Y128.971 E.01588
G1 X130.221 Y111.483 E.73666
G1 X130.221 Y110.95 E.01588
G1 X112.2 Y128.971 E.75913
G1 X111.667 Y128.971 E.01588
G1 X130.221 Y110.417 E.78159
G1 X130.221 Y109.883 E.01588
G1 X111.133 Y128.971 E.80405
G1 X110.6 Y128.971 E.01588
G1 X130.221 Y109.35 E.82652
G1 X130.221 Y108.817 E.01588
G1 X110.067 Y128.971 E.84898
G1 X109.534 Y128.971 E.01588
G1 X130.221 Y108.284 E.87145
G1 X130.221 Y107.75 E.01588
G1 X109 Y128.971 E.89391
G1 X108.467 Y128.971 E.01588
G1 X130.221 Y107.217 E.91637
G1 X130.221 Y106.684 E.01588
G1 X107.934 Y128.971 E.93884
G1 X107.401 Y128.971 E.01588
G1 X130.221 Y106.151 E.9613
G1 X130.221 Y105.617 E.01588
G1 X106.867 Y128.971 E.98377
G1 X106.334 Y128.971 E.01588
G1 X130.221 Y105.084 E1.00623
G1 X130.221 Y104.551 E.01588
G1 X105.801 Y128.971 E1.02869
G1 X105.267 Y128.971 E.01588
G1 X130.221 Y104.017 E1.05116
G1 X130.221 Y103.484 E.01588
G1 X104.734 Y128.971 E1.07362
G1 X104.201 Y128.971 E.01588
G1 X130.221 Y102.951 E1.09609
G1 X130.221 Y102.418 E.01588
G1 X103.668 Y128.971 E1.11855
G1 X103.134 Y128.971 E.01588
G1 X130.221 Y101.884 E1.14101
G1 X130.221 Y101.351 E.01588
G1 X102.601 Y128.971 E1.16348
G1 X102.068 Y128.971 E.01588
G1 X130.221 Y100.818 E1.18594
G1 X130.221 Y100.285 E.01588
G1 X101.535 Y128.971 E1.20841
G1 X101.001 Y128.971 E.01588
G1 X130.221 Y99.751 E1.23087
G1 X130.221 Y99.218 E.01588
G1 X100.468 Y128.971 E1.25333
G1 X99.935 Y128.971 E.01588
G1 X130.221 Y98.685 E1.2758
G1 X130.221 Y98.151 E.01588
G1 X99.401 Y128.971 E1.29826
G1 X98.868 Y128.971 E.01588
G1 X130.221 Y97.618 E1.32073
G1 X130.221 Y97.085 E.01588
G1 X98.335 Y128.971 E1.34319
G1 X97.802 Y128.971 E.01588
G1 X130.221 Y96.552 E1.36565
G1 X130.221 Y96.018 E.01588
G1 X97.268 Y128.971 E1.38812
G1 X96.735 Y128.971 E.01588
G1 X130.221 Y95.485 E1.41058
G1 X130.221 Y94.952 E.01588
G1 X96.202 Y128.971 E1.43305
G1 X95.669 Y128.971 E.01588
G1 X130.221 Y94.419 E1.45551
G1 X130.221 Y93.885 E.01588
G1 X95.135 Y128.971 E1.47797
G1 X94.602 Y128.971 E.01588
G1 X130.221 Y93.352 E1.50044
G1 X130.221 Y92.819 E.01588
M73 P8 R42
M73 P8 R42
G1 X94.069 Y128.971 E1.5229
G1 X93.535 Y128.971 E.01588
G1 X130.221 Y92.285 E1.54537
G1 X130.221 Y91.752 E.01588
G1 X93.002 Y128.971 E1.56783
G1 X92.469 Y128.971 E.01588
G1 X130.221 Y91.219 E1.59029
G1 X130.221 Y91.029 E.00565
G1 X129.877 Y91.029 E.01023
G1 X91.936 Y128.971 E1.59829
G1 X91.402 Y128.971 E.01588
G1 X129.344 Y91.029 E1.59829
G1 X128.811 Y91.029 E.01588
G1 X90.869 Y128.971 E1.59829
G1 X90.336 Y128.971 E.01588
G1 X128.278 Y91.029 E1.59829
G1 X127.744 Y91.029 E.01588
G1 X89.802 Y128.971 E1.59829
G1 X89.779 Y128.971 E.0007
G1 X89.779 Y128.461 E.01519
G1 X127.211 Y91.029 E1.57681
G1 X126.678 Y91.029 E.01588
G1 X89.779 Y127.928 E1.55435
G1 X89.779 Y127.394 E.01588
G1 X126.144 Y91.029 E1.53188
G1 X125.611 Y91.029 E.01588
G1 X89.779 Y126.861 E1.50942
G1 X89.779 Y126.328 E.01588
G1 X125.078 Y91.029 E1.48695
G1 X124.545 Y91.029 E.01588
G1 X89.779 Y125.795 E1.46449
G1 X89.779 Y125.261 E.01588
G1 X124.011 Y91.029 E1.44203
G1 X123.478 Y91.029 E.01588
G1 X89.779 Y124.728 E1.41956
G1 X89.779 Y124.195 E.01588
G1 X122.945 Y91.029 E1.3971
G1 X122.412 Y91.029 E.01588
G1 X89.779 Y123.662 E1.37463
G1 X89.779 Y123.128 E.01588
G1 X121.878 Y91.029 E1.35217
G1 X121.345 Y91.029 E.01588
G1 X89.779 Y122.595 E1.32971
G1 X89.779 Y122.062 E.01588
G1 X120.812 Y91.029 E1.30724
G1 X120.278 Y91.029 E.01588
G1 X89.779 Y121.528 E1.28478
G1 X89.779 Y120.995 E.01588
G1 X119.745 Y91.029 E1.26231
G1 X119.212 Y91.029 E.01588
G1 X89.779 Y120.462 E1.23985
G1 X89.779 Y119.929 E.01588
G1 X118.679 Y91.029 E1.21739
G1 X118.145 Y91.029 E.01588
G1 X89.779 Y119.395 E1.19492
G1 X89.779 Y118.862 E.01588
G1 X117.612 Y91.029 E1.17246
G1 X117.079 Y91.029 E.01588
G1 X89.779 Y118.329 E1.14999
G1 X89.779 Y117.796 E.01588
G1 X116.546 Y91.029 E1.12753
G1 X116.012 Y91.029 E.01588
G1 X89.779 Y117.262 E1.10507
G1 X89.779 Y116.729 E.01588
G1 X115.479 Y91.029 E1.0826
G1 X114.946 Y91.029 E.01588
G1 X89.779 Y116.196 E1.06014
G1 X89.779 Y115.662 E.01588
G1 X114.412 Y91.029 E1.03767
G1 X113.879 Y91.029 E.01588
G1 X89.779 Y115.129 E1.01521
G1 X89.779 Y114.596 E.01588
G1 X113.346 Y91.029 E.99275
G1 X112.813 Y91.029 E.01588
G1 X89.779 Y114.063 E.97028
G1 X89.779 Y113.529 E.01588
G1 X112.279 Y91.029 E.94782
G1 X111.746 Y91.029 E.01588
G1 X89.779 Y112.996 E.92535
G1 X89.779 Y112.463 E.01588
G1 X111.213 Y91.029 E.90289
G1 X110.68 Y91.029 E.01588
G1 X89.779 Y111.93 E.88043
G1 X89.779 Y111.396 E.01588
G1 X110.146 Y91.029 E.85796
G1 X109.613 Y91.029 E.01588
G1 X89.779 Y110.863 E.8355
G1 X89.779 Y110.33 E.01588
G1 X109.08 Y91.029 E.81303
G1 X108.546 Y91.029 E.01588
G1 X89.779 Y109.796 E.79057
G1 X89.779 Y109.263 E.01588
