;TIME:2738.27
;Filament used:3.80535m
;Layer height:0.200
; HEADER_BLOCK_START
; generated by Creality_Print V6.0.5.1840 on 2025-06-03 at 18:39:55
; total layer number: 220
; filament_density: 1.24
; filament_diameter: 1.75
; max_z_height: 44.00
; HEADER_BLOCK_END

; MINX = 92.50
; MINY = 56.00
; MINZ = 0.00
; MAXX = 127.50
; MAXY = 164.00
; MAXZ = 44.00

; THUMBNAIL_BLOCK_START

;
; THUMBNAIL_BLOCK_END

; THUMBNAIL_BLOCK_START

;
; THUMBNAIL_BLOCK_END

; external perimeters extrusion width = 0.42mm
; perimeters extrusion width = 0.45mm
; infill extrusion width = 0.45mm
; solid infill extrusion width = 0.42mm
; top infill extrusion width = 0.42mm
; support material extrusion width = 0.40mm
; first layer extrusion width = 0.60mm

; EXECUTABLE_BLOCK_START
M73 P0 R45
M201 X5000 Y5000 Z500 E5000
M203 X500 Y500 Z30 E100
M204 P5000 R2500 T5000 ; sets acceleration (P, T) and retract acceleration (R), mm/sec^2
M205 X10.00 Y10.00 Z0.40 E5.00 ; sets the jerk limits, mm/sec
;TYPE:Custom
M220 S100 ;Reset Feedrate 
M221 S100 ;Reset Flowrate 
 
M140 S75 ;Set final bed temp 
G28 ;Home 
 
G92 E0 ;Reset Extruder 
G1 Z2.0 F3000 ;Move Z Axis up 
M104 S200 ;Set final nozzle temp 
G1 X-2.1 Y20 Z0.28 F5000.0 ;Move to start position 
M190 S75 ;Wait for bed temp to stabilize 
M109 S200 ;Wait for nozzle temp to stabilize 
G1 X-2.1 Y145.0 Z0.28 F1500.0 E15 ;Draw the first line 
G1 X-2.4 Y145.0 Z0.28 F5000.0 ;Move to side a little 
G1 X-2.4 Y20 Z0.28 F1500.0 E30 ;Draw the second line 
G92 E0  ;Reset Extruder 
G1 E-1.0000 F1800 ;Retract a bit 
G1 Z2.0 F3000 ;Move Z Axis up 
G1 E0.0000 F1800
G90
G21
M83 ; use relative distances for extrusion
" "
G1 E-1.6 F2400
M106 S0
;LAYER_CHANGE
;Z:0.2
;HEIGHT:0.2
;BEFORE_LAYER_CHANGE
;0.2
G92 E0

;_SET_FAN_SPEED_CHANGING_LAYER
M204 P125
M205 X10 Y10
; printing object Braccio Lungo 1 id:0 copy 0
M204 T125
G1 Z.4 F9000
G1 X125.936 Y70.543
G1 Z.2
G1 E1.6 F1800
;TYPE:Inner wall
;WIDTH:0.599999
G1 F600
G1 X125.936 Y162.436 E4.04378
G1 X123.064 Y162.436 E.12637
G1 X123.064 Y75.032 E3.84621
G1 X122.995 Y73.542 E.06566
M73 P1 R45
M73 P1 R45
G1 X122.784 Y72.028 E.06725
G1 X122.435 Y70.54 E.06726
G1 X121.946 Y69.081 E.06773
G1 X121.33 Y67.686 E.0671
G1 X120.573 Y66.331 E.06828
G1 X119.722 Y65.089 E.06626
G1 X118.749 Y63.916 E.06707
G1 X117.672 Y62.838 E.06707
G1 X116.482 Y61.848 E.06811
G1 X115.221 Y60.984 E.06727
G1 X113.886 Y60.24 E.06725
G1 X112.911 Y59.81 E.0469
G1 X125.936 Y59.81 E.57315
G1 X125.936 Y70.503 E.47054
G1 E-1.6 F2400
;WIPE_START
G1 F9000
G1 X125.936 Y72.503
;WIPE_END
G1 X126.291 Y64.879 Z.6
G1 X126.493 Y60.553 Z.6
G1 Z.2
G1 E1.6 F1800
G1 F600
G1 X126.493 Y162.993 E4.5079
G1 X122.507 Y162.993 E.1754
M73 P1 R44
M73 P1 R44
G1 X122.507 Y75.045 E3.87016
G1 X122.44 Y73.593 E.06396
M73 P2 R44
M73 P2 R44
G1 X122.236 Y72.131 E.06499
G1 X121.898 Y70.693 E.06499
G1 X121.426 Y69.282 E.06546
G1 X120.831 Y67.935 E.06482
G1 X120.099 Y66.625 E.06601
G1 X119.277 Y65.425 E.06401
G1 X118.337 Y64.292 E.06481
G1 X117.296 Y63.25 E.06481
G1 X116.146 Y62.293 E.06583
G1 X114.927 Y61.458 E.06499
G1 X113.637 Y60.74 E.06499
G1 X112.286 Y60.143 E.06501
G1 X110.888 Y59.674 E.0649
;WIDTH:0.629808
G1 X110.144 Y59.482 E.03563
;WIDTH:0.659616
G1 X109.399 Y59.291 E.03743
G3 X110.187 Y59.268 I.553 J5.416 E.0384
;WIDTH:0.629808
G1 X110.887 Y59.253 E.03245
;WIDTH:0.599999
G1 X126.493 Y59.253 E.68676
G1 X126.493 Y60.513 E.05545
G1 E-1.6 F2400
;WIPE_START
G1 F9000
G1 X126.493 Y62.513
;WIPE_END
G1 X118.862 Y62.382 Z.6
G1 X95.933 Y61.989 Z.6
G1 Z.2
G1 E1.6 F1800
G1 F600
G1 X95.918 Y72.46 E.46077
G1 X94.064 Y75.108 E.14223
G1 X94.064 Y59.81 E.67319
G1 X95.964 Y59.81 E.08362
G1 X95.936 Y59.895 E.00396
G1 X95.933 Y61.949 E.0904
G1 E-1.6 F2400
;WIPE_START
G1 F9000
G1 X95.93 Y63.949
;WIPE_END
G1 X96.555 Y59.712 Z.6
G1 Z.2
G1 E1.6 F1800
G1 F600
G1 X96.493 Y59.896 E.00856
G1 X96.475 Y72.606 E.5593
G1 X96.207 Y73.019 E.02165
G1 X93.512 Y76.868 E.2068
G1 X93.507 Y59.253 E.77517
G1 X96.59 Y59.253 E.13565
G1 X96.742 Y59.23 E.00678
;WIDTH:0.554994
G1 X96.895 Y59.208 E.00624
;WIDTH:0.509988
G1 X97.047 Y59.185 E.00569
;WIDTH:0.464982
G1 X97.2 Y59.163 E.00514
G1 X97.065 Y59.221 E.00489
;WIDTH:0.509988
G1 X96.93 Y59.279 E.00541
;WIDTH:0.554994
G1 X96.795 Y59.337 E.00594
;WIDTH:0.599999
G1 X96.661 Y59.395 E.00646
G1 X96.567 Y59.674 E.01293
G1 X97.389 Y59.619 F9000
;TYPE:Outer wall
G1 F600
G1 X97.329 Y59.619 E.00264
G1 X97.106 Y59.73 E.01095
G1 X97.05 Y59.897 E.00775
G1 X97.032 Y72.722 E.56437
G1 X96.929 Y72.959 E.01138
G1 X93.988 Y77.159 E.22565
G1 X93.74 Y77.388 E.01484
G1 X93.471 Y77.443 E.01204
G1 X93.21 Y77.36 E.01204
G1 X93.022 Y77.162 E.01204
G1 X92.95 Y76.868 E.0133
G1 X92.95 Y59.038 E.78465
G1 X92.984 Y58.696 E.01512
G1 X127.014 Y58.696 E1.49749
G1 X127.05 Y59.039 E.01519
G1 X127.05 Y163.55 E4.59903
G1 X121.95 Y163.55 E.22443
M73 P3 R44
M73 P3 R44
G1 X121.95 Y75.058 E3.8941
G1 X121.885 Y73.645 E.06226
G1 X121.688 Y72.233 E.06272
G1 X121.362 Y70.845 E.06273
G1 X120.906 Y69.484 E.06319
G1 X120.332 Y68.184 E.06254
G1 X119.625 Y66.919 E.06375
G1 X118.832 Y65.761 E.06176
G1 X117.925 Y64.667 E.06255
G1 X116.92 Y63.661 E.06255
G1 X115.81 Y62.738 E.06356
G1 X114.634 Y61.932 E.06271
G1 X113.389 Y61.239 E.06272
G1 X112.085 Y60.663 E.06274
G1 X110.724 Y60.207 E.06313
G1 X109.336 Y59.881 E.06273
M73 P3 R43
M73 P3 R43
G1 X107.924 Y59.684 E.06274
G1 X106.51 Y59.619 E.06229
G1 X97.429 Y59.619 E.39965
G1 X97.2 Y59.163 F9000
;TYPE:Inner wall
;WIDTH:0.419976
G1 F600
G1 X97.329 Y59.157 E.00384
;WIDTH:0.409536
G1 X106.521 Y59.157 E.26621
;WIDTH:0.445075
G1 X107.246 Y59.174 E.02302
;WIDTH:0.480614
G1 X107.97 Y59.191 E.02506
;WIDTH:0.529165
G1 X108.329 Y59.215 E.01382
;WIDTH:0.577715
G1 X108.688 Y59.24 E.0152
;WIDTH:0.626266
G1 X109.047 Y59.265 E.01658
;WIDTH:0.674816
G1 X109.406 Y59.29 E.01796
G1 E-1.6 F2400
;WIPE_START
G1 F9000
G1 X109.047 Y59.265
G1 X108.688 Y59.24
G1 X108.329 Y59.215
G1 X107.97 Y59.191
G1 X107.409 Y59.178
;WIPE_END
G1 Z.6
G1 X114.867 Y60.271
G1 Z.6
G1 Z.2
G1 E1.6 F1800
;TYPE:Gap infill
;WIDTH:0.374104
G1 F600
G1 X114.987 Y60.362 E.00394
;WIDTH:0.333201
G1 X115.107 Y60.453 E.00346
;WIDTH:0.292298
G1 X115.227 Y60.544 E.00297
;WIDTH:0.251395
G1 X115.348 Y60.636 E.00248
;WIDTH:0.209624
G1 X115.473 Y60.731 E.00207
;WIDTH:0.168871
G1 X115.65 Y60.878 E.00229
;WIDTH:0.14917
G1 X115.827 Y61.025 E.00193
G1 E-1.6 F2400
;WIPE_START
G1 F9000
G1 X115.65 Y60.878
;WIPE_END
G1 X114.867 Y60.271 Z.6
G1 Z.2
G1 E1.6 F1800
;WIDTH:0.377652
G1 F600
G1 X114.882 Y60.236 E.00101
;WIDTH:0.32564
G1 X114.905 Y60.206 E.00082
;WIDTH:0.277964
G1 X114.927 Y60.177 E.00068
;WIDTH:0.230288
G1 X114.949 Y60.147 E.00055
;WIDTH:0.182612
G1 X114.971 Y60.118 E.00041
;WIDTH:0.134936
G1 X114.993 Y60.088 E.00027
G1 X115.189 Y59.949 F9000
;TYPE:Bottom surface
;WIDTH:0.601438
G1 F1200
G1 X125.546 Y70.306 E.6462
G1 X125.546 Y69.516 E.03485
G1 X116.23 Y60.2 E.58128
G1 X117.019 Y60.2 E.03485
G1 X125.546 Y68.726 E.53199
G1 X125.546 Y67.936 E.03485
G1 X117.809 Y60.2 E.48271
G1 X118.599 Y60.2 E.03485
G1 X125.546 Y67.146 E.43343
G1 X125.546 Y66.357 E.03485
G1 X119.389 Y60.2 E.38415
G1 X120.179 Y60.2 E.03485
G1 X125.546 Y65.567 E.33486
G1 X125.546 Y64.777 E.03485
G1 X120.969 Y60.2 E.28558
G1 X121.759 Y60.2 E.03485
G1 X125.546 Y63.987 E.2363
G1 X125.546 Y63.197 E.03485
G1 X122.549 Y60.2 E.18702
G1 X123.338 Y60.2 E.03485
G1 X125.546 Y62.407 E.13774
G1 X125.546 Y61.617 E.03485
G1 X124.128 Y60.2 E.08845
G1 X124.918 Y60.2 E.03485
G1 X125.797 Y61.078 E.05481
G1 E-1.6 F2400
;WIPE_START
G1 F9000
G1 X124.918 Y60.2
G1 X124.16 Y60.2
;WIPE_END
G1 X120.517 Y65.715 Z.6
G1 Z.2
G1 E1.6 F1800
M73 P4 R43
;TYPE:Gap infill
;WIDTH:0.146542
M73 P4 R43
G1 F600
G1 X120.652 Y65.877 E.00172
;WIDTH:0.164928
G1 X120.786 Y66.039 E.00203
;WIDTH:0.201701
G1 X120.921 Y66.201 E.00264
;WIDTH:0.244968
G1 X121.069 Y66.398 E.00394
;WIDTH:0.293314
G1 X121.212 Y66.588 E.00471
G1 E-1.6 F2400
;WIPE_START
G1 F9000
G1 X121.069 Y66.398
;WIPE_END
G1 X125.797 Y71.346 Z.6
G1 Z.2
G1 E1.6 F1800
;TYPE:Bottom surface
;WIDTH:0.601438
G1 F1200
G1 X121.313 Y66.863 E.27977
G3 X122.072 Y68.412 I-7.892 J4.83 E.07624
G1 X125.546 Y71.886 E.21674
G1 X125.546 Y72.676 E.03485
G1 X122.557 Y69.686 E.18652
G1 X122.828 Y70.509 E.03824
G1 X122.901 Y70.821 E.01412
G1 X125.546 Y73.465 E.165
G1 X125.546 Y74.255 E.03485
G1 X123.144 Y71.853 E.14987
G1 X123.28 Y72.779 E.04128
G1 X125.546 Y75.045 E.1414
G1 X125.546 Y75.835 E.03485
G1 X123.385 Y73.675 E.1348
G1 X123.427 Y74.506 E.03671
G1 X125.546 Y76.625 E.13223
G1 X125.546 Y77.415 E.03485
G1 X123.454 Y75.323 E.13051
G1 X123.454 Y76.113 E.03485
G1 X125.546 Y78.205 E.13051
G1 X125.546 Y78.994 E.03485
G1 X123.454 Y76.903 E.13051
G1 X123.454 Y77.693 E.03485
G1 X125.546 Y79.784 E.13051
G1 X125.546 Y80.574 E.03485
G1 X123.454 Y78.482 E.13051
G1 X123.454 Y79.272 E.03485
G1 X125.546 Y81.364 E.13051
G1 X125.546 Y82.154 E.03485
G1 X123.454 Y80.062 E.13051
G1 X123.454 Y80.852 E.03485
G1 X125.546 Y82.944 E.13051
G1 X125.546 Y83.734 E.03485
G1 X123.454 Y81.642 E.13051
G1 X123.454 Y82.432 E.03485
G1 X125.546 Y84.523 E.13051
G1 X125.546 Y85.313 E.03485
G1 X123.454 Y83.222 E.13051
G1 X123.454 Y84.011 E.03485
G1 X125.546 Y86.103 E.13051
G1 X125.546 Y86.893 E.03485
G1 X123.454 Y84.801 E.13051
G1 X123.454 Y85.591 E.03485
G1 X125.546 Y87.683 E.13051
G1 X125.546 Y88.473 E.03485
G1 X123.454 Y86.381 E.13051
G1 X123.454 Y87.171 E.03485
G1 X125.546 Y89.263 E.13051
G1 X125.546 Y90.053 E.03485
G1 X123.454 Y87.961 E.13051
G1 X123.454 Y88.751 E.03485
G1 X125.546 Y90.842 E.13051
G1 X125.546 Y91.632 E.03485
G1 X123.454 Y89.54 E.13051
G1 X123.454 Y90.33 E.03485
G1 X125.546 Y92.422 E.13051
G1 X125.546 Y93.212 E.03485
G1 X123.454 Y91.12 E.13051
G1 X123.454 Y91.91 E.03485
G1 X125.546 Y94.002 E.13051
G1 X125.546 Y94.792 E.03485
G1 X123.454 Y92.7 E.13051
G1 X123.454 Y93.49 E.03485
G1 X125.546 Y95.582 E.13051
G1 X125.546 Y96.371 E.03485
G1 X123.454 Y94.28 E.13051
G1 X123.454 Y95.07 E.03485
G1 X125.546 Y97.161 E.13051
G1 X125.546 Y97.951 E.03485
G1 X123.454 Y95.859 E.13051
G1 X123.454 Y96.649 E.03485
G1 X125.546 Y98.741 E.13051
G1 X125.546 Y99.531 E.03485
G1 X123.454 Y97.439 E.13051
G1 X123.454 Y98.229 E.03485
G1 X125.546 Y100.321 E.13051
G1 X125.546 Y101.111 E.03485
G1 X123.454 Y99.019 E.13051
G1 X123.454 Y99.809 E.03485
G1 X125.546 Y101.9 E.13051
G1 X125.546 Y102.69 E.03485
G1 X123.454 Y100.599 E.13051
G1 X123.454 Y101.388 E.03485
G1 X125.546 Y103.48 E.13051
G1 X125.546 Y104.27 E.03485
G1 X123.454 Y102.178 E.13051
G1 X123.454 Y102.968 E.03485
G1 X125.546 Y105.06 E.13051
G1 X125.546 Y105.85 E.03485
G1 X123.454 Y103.758 E.13051
G1 X123.454 Y104.548 E.03485
G1 X125.546 Y106.64 E.13051
G1 X125.546 Y107.43 E.03485
G1 X123.454 Y105.338 E.13051
G1 X123.454 Y106.128 E.03485
G1 X125.546 Y108.219 E.13051
G1 X125.546 Y109.009 E.03485
G1 X123.454 Y106.917 E.13051
G1 X123.454 Y107.707 E.03485
G1 X125.546 Y109.799 E.13051
G1 X125.546 Y110.589 E.03485
G1 X123.454 Y108.497 E.13051
G1 X123.454 Y109.287 E.03485
G1 X125.546 Y111.379 E.13051
G1 X125.546 Y112.169 E.03485
G1 X123.454 Y110.077 E.13051
G1 X123.454 Y110.867 E.03485
G1 X125.546 Y112.959 E.13051
G1 X125.546 Y113.748 E.03485
G1 X123.454 Y111.657 E.13051
G1 X123.454 Y112.447 E.03485
G1 X125.546 Y114.538 E.13051
G1 X125.546 Y115.328 E.03485
G1 X123.454 Y113.236 E.13051
G1 X123.454 Y114.026 E.03485
G1 X125.546 Y116.118 E.13051
G1 X125.546 Y116.908 E.03485
G1 X123.454 Y114.816 E.13051
G1 X123.454 Y115.606 E.03485
G1 X125.546 Y117.698 E.13051
G1 X125.546 Y118.488 E.03485
G1 X123.454 Y116.396 E.13051
G1 X123.454 Y117.186 E.03485
G1 X125.546 Y119.277 E.13051
G1 X125.546 Y120.067 E.03485
G1 X123.454 Y117.976 E.13051
G1 X123.454 Y118.765 E.03485
G1 X125.546 Y120.857 E.13051
G1 X125.546 Y121.647 E.03485
G1 X123.454 Y119.555 E.13051
G1 X123.454 Y120.345 E.03485
G1 X125.546 Y122.437 E.13051
G1 X125.546 Y123.227 E.03485
G1 X123.454 Y121.135 E.13051
G1 X123.454 Y121.925 E.03485
G1 X125.546 Y124.017 E.13051
G1 X125.546 Y124.807 E.03485
G1 X123.454 Y122.715 E.13051
G1 X123.454 Y123.505 E.03485
G1 X125.546 Y125.596 E.13051
G1 X125.546 Y126.386 E.03485
G1 X123.454 Y124.294 E.13051
G1 X123.454 Y125.084 E.03485
G1 X125.546 Y127.176 E.13051
G1 X125.546 Y127.966 E.03485
G1 X123.454 Y125.874 E.13051
G1 X123.454 Y126.664 E.03485
G1 X125.546 Y128.756 E.13051
G1 X125.546 Y129.546 E.03485
G1 X123.454 Y127.454 E.13051
G1 X123.454 Y128.244 E.03485
G1 X125.546 Y130.336 E.13051
G1 X125.546 Y131.125 E.03485
G1 X123.454 Y129.034 E.13051
G1 X123.454 Y129.824 E.03485
G1 X125.546 Y131.915 E.13051
G1 X125.546 Y132.705 E.03485
G1 X123.454 Y130.613 E.13051
G1 X123.454 Y131.403 E.03485
G1 X125.546 Y133.495 E.13051
G1 X125.546 Y134.285 E.03485
G1 X123.454 Y132.193 E.13051
G1 X123.454 Y132.983 E.03485
G1 X125.546 Y135.075 E.13051
G1 X125.546 Y135.865 E.03485
G1 X123.454 Y133.773 E.13051
G1 X123.454 Y134.563 E.03485
G1 X125.546 Y136.654 E.13051
G1 X125.546 Y137.444 E.03485
G1 X123.454 Y135.353 E.13051
G1 X123.454 Y136.142 E.03485
G1 X125.546 Y138.234 E.13051
G1 X125.546 Y139.024 E.03485
G1 X123.454 Y136.932 E.13051
G1 X123.454 Y137.722 E.03485
G1 X125.546 Y139.814 E.13051
G1 X125.546 Y140.604 E.03485
G1 X123.454 Y138.512 E.13051
G1 X123.454 Y139.302 E.03485
G1 X125.546 Y141.394 E.13051
G1 X125.546 Y142.184 E.03485
G1 X123.454 Y140.092 E.13051
G1 X123.454 Y140.882 E.03485
G1 X125.546 Y142.973 E.13051
G1 X125.546 Y143.763 E.03485
G1 X123.454 Y141.671 E.13051
G1 X123.454 Y142.461 E.03485
G1 X125.546 Y144.553 E.13051
G1 X125.546 Y145.343 E.03485
G1 X123.454 Y143.251 E.13051
G1 X123.454 Y144.041 E.03485
G1 X125.546 Y146.133 E.13051
G1 X125.546 Y146.923 E.03485
G1 X123.454 Y144.831 E.13051
G1 X123.454 Y145.621 E.03485
G1 X125.546 Y147.713 E.13051
G1 X125.546 Y148.502 E.03485
G1 X123.454 Y146.411 E.13051
G1 X123.454 Y147.201 E.03485
G1 X125.546 Y149.292 E.13051
G1 X125.546 Y150.082 E.03485
G1 X123.454 Y147.99 E.13051
G1 X123.454 Y148.78 E.03485
G1 X125.546 Y150.872 E.13051
G1 X125.546 Y151.662 E.03485
G1 X123.454 Y149.57 E.13051
G1 X123.454 Y150.36 E.03485
G1 X125.546 Y152.452 E.13051
G1 X125.546 Y153.242 E.03485
G1 X123.454 Y151.15 E.13051
G1 X123.454 Y151.94 E.03485
G1 X125.546 Y154.032 E.13051
G1 X125.546 Y154.821 E.03485
G1 X123.454 Y152.73 E.13051
G1 X123.454 Y153.519 E.03485
G1 X125.546 Y155.611 E.13051
G1 X125.546 Y156.401 E.03485
G1 X123.454 Y154.309 E.13051
G1 X123.454 Y155.099 E.03485
G1 X125.546 Y157.191 E.13051
G1 X125.546 Y157.981 E.03485
G1 X123.454 Y155.889 E.13051
G1 X123.454 Y156.679 E.03485
G1 X125.546 Y158.771 E.13051
G1 X125.546 Y159.561 E.03485
M73 P5 R43
M73 P5 R43
G1 X123.454 Y157.469 E.13051
G1 X123.454 Y158.259 E.03485
G1 X125.546 Y160.35 E.13051
G1 X125.546 Y161.14 E.03485
G1 X123.454 Y159.048 E.13051
G1 X123.454 Y159.838 E.03485
G1 X125.546 Y161.93 E.13051
G1 X125.546 Y162.046 E.00511
G1 X124.872 Y162.046 E.02974
G1 X123.454 Y160.628 E.08845
G1 X123.454 Y161.418 E.03485
G1 X124.333 Y162.297 E.05481
G1 E-1.6 F2400
;WIPE_START
G1 F9000
G1 X123.454 Y161.418
G1 X123.454 Y160.66
;WIPE_END
G1 X121.045 Y153.418 Z.6
G1 X94.203 Y72.73 Z.6
G1 Z.2
G1 E1.6 F1800
;WIDTH:0.625984
G1 F1200
G1 X94.821 Y73.348 E.0402
G1 X95.16 Y72.863 E.02727
G1 X94.454 Y72.156 E.04599
G1 X94.454 Y71.332 E.03798
G1 X95.5 Y72.378 E.06811
G1 X95.528 Y72.337 E.00228
G1 X95.529 Y71.583 E.03475
G1 X94.454 Y70.507 E.07003
G1 X94.454 Y69.683 E.03798
G1 X95.53 Y70.759 E.07011
G1 X95.532 Y69.936 E.03792
G1 X94.454 Y68.858 E.07019
G1 X94.454 Y68.034 E.03798
G1 X95.533 Y69.112 E.07026
G1 X95.534 Y68.289 E.03792
G1 X94.454 Y67.209 E.07034
G1 X94.454 Y66.384 E.03798
G1 X95.535 Y67.465 E.07041
G1 X95.536 Y66.642 E.03792
G1 X94.454 Y65.56 E.07049
G1 X94.454 Y64.735 E.03798
G1 X95.537 Y65.819 E.07057
G1 X95.539 Y64.995 E.03792
G1 X94.454 Y63.911 E.07064
G1 X94.454 Y63.086 E.03798
G1 X95.54 Y64.172 E.07072
G1 X95.541 Y63.348 E.03792
G1 X94.454 Y62.262 E.0708
G1 X94.454 Y61.437 E.03798
G1 X95.542 Y62.525 E.07087
G1 X95.543 Y61.702 E.03792
G1 X94.454 Y60.612 E.07095
G1 X94.454 Y60.2 E.01901
G1 X94.866 Y60.2 E.01897
G1 X95.795 Y61.129 E.0605
; stop printing object Braccio Lungo 1 id:0 copy 0
;TIME_ELAPSED:143.336502

;LAYER_CHANGE
;Z:0.4
;HEIGHT:0.2
;BEFORE_LAYER_CHANGE
