;TIME:2319.47
;Filament used:3.07187m
;Layer height:0.200
; HEADER_BLOCK_START
; generated by Creality_Print V6.0.5.1840 on 2025-06-04 at 20:31:06
; total layer number: 220
; filament_density: 1.24
; filament_diameter: 1.75
; max_z_height: 44.00
; HEADER_BLOCK_END

; MINX = 73.81
; MINY = 95.50
; MINZ = 0.00
; MAXX = 146.19
; MAXY = 124.50
; MAXZ = 44.00

; THUMBNAIL_BLOCK_START

;
; THUMBNAIL_BLOCK_END

; THUMBNAIL_BLOCK_START

;
; THUMBNAIL_BLOCK_END

; external perimeters extrusion width = 0.42mm
; perimeters extrusion width = 0.45mm
; infill extrusion width = 0.45mm
; solid infill extrusion width = 0.42mm
; top infill extrusion width = 0.42mm
; support material extrusion width = 0.40mm
; first layer extrusion width = 0.60mm

; EXECUTABLE_BLOCK_START
M73 P0 R38
M201 X5000 Y5000 Z500 E5000
M203 X500 Y500 Z30 E100
M204 P5000 R2500 T5000 ; sets acceleration (P, T) and retract acceleration (R), mm/sec^2
M205 X10.00 Y10.00 Z0.40 E5.00 ; sets the jerk limits, mm/sec
;TYPE:Custom
M220 S100 ;Reset Feedrate 
M221 S100 ;Reset Flowrate 
 
M140 S75 ;Set final bed temp 
G28 ;Home 
 
G92 E0 ;Reset Extruder 
G1 Z2.0 F3000 ;Move Z Axis up 
M104 S200 ;Set final nozzle temp 
G1 X-2.1 Y20 Z0.28 F5000.0 ;Move to start position 
M190 S75 ;Wait for bed temp to stabilize 
M109 S200 ;Wait for nozzle temp to stabilize 
G1 X-2.1 Y145.0 Z0.28 F1500.0 E15 ;Draw the first line 
G1 X-2.4 Y145.0 Z0.28 F5000.0 ;Move to side a little 
G1 X-2.4 Y20 Z0.28 F1500.0 E30 ;Draw the second line 
G92 E0  ;Reset Extruder 
G1 E-1.0000 F1800 ;Retract a bit 
G1 Z2.0 F3000 ;Move Z Axis up 
G1 E0.0000 F1800
G90
G21
M83 ; use relative distances for extrusion
" "
G1 E-1.6 F2400
M106 S0
;LAYER_CHANGE
;Z:0.2
;HEIGHT:0.2
;BEFORE_LAYER_CHANGE
;0.2
G92 E0

;_SET_FAN_SPEED_CHANGING_LAYER
M204 P125
M205 X10 Y10
; printing object Braccio Corto 2 id:8171063952611762432 copy 0
M204 T125
G1 Z.4 F9000
G1 X141.768 Y118.752
G1 Z.2
G1 E1.6 F1800
;TYPE:Inner wall
;WIDTH:0.629975
G1 F600
G1 X141.772 Y104.417 E.66471
;WIDTH:0.664633
G1 X141.722 Y103.741 E.03331
G1 X141.68 Y103.606 E.00695
;WIDTH:0.636235
G1 X141.639 Y103.471 E.00663
;WIDTH:0.607836
G1 X141.346 Y102.62 E.04015
;WIDTH:0.599999
G1 X140.907 Y101.854 E.03886
G1 X140.317 Y101.179 E.03944
G1 X139.596 Y100.626 E.04
G1 X138.811 Y100.237 E.03854
G1 X137.957 Y100.005 E.03897
G1 X137.201 Y99.936 E.0334
G1 X75.372 Y99.936 E2.72081
G1 X75.372 Y97.064 E.12637
G1 X142.381 Y97.064 E2.94877
G1 X142.375 Y102.729 E.24928
M73 P1 R38
;WIDTH:0.632316
M73 P1 R38
G1 X142.359 Y103.22 E.02287
;WIDTH:0.664633
G2 X142.359 Y104.492 I11.534 J.637 E.0625
;WIDTH:0.629975
G1 X142.347 Y119.784 E.70913
;WIDTH:0.651368
G1 X142.332 Y120.202 E.02013
;WIDTH:0.680551
G1 X142.317 Y120.621 E.02109
G1 X141.379 Y120.621 E.04726
G1 X141.701 Y120.187 E.02721
G1 X141.734 Y119.929 E.0131
;WIDTH:0.651368
G1 X141.768 Y119.671 E.0125
;WIDTH:0.629975
G1 X141.768 Y118.792 E.0408
G1 E-1.6 F2400
;WIPE_START
G1 F9000
G1 X141.768 Y116.792
;WIPE_END
G1 X141.198 Y119.679 Z.6
G1 Z.2
G1 E1.6 F1800
;WIDTH:0.599999
G1 F600
G1 X141.199 Y119.671 E.00034
G1 X141.199 Y104.443 E.67012
G1 X141.102 Y103.635 E.0358
G1 X140.855 Y102.882 E.03488
G1 X140.476 Y102.207 E.03407
G1 X139.965 Y101.61 E.03461
G1 X139.334 Y101.117 E.03523
G1 X138.649 Y100.77 E.03377
G1 X137.901 Y100.559 E.0342
G1 X137.201 Y100.493 E.03096
G1 X74.815 Y100.493 E2.74532
G1 X74.815 Y96.507 E.1754
M73 P1 R37
M73 P1 R37
G1 X142.939 Y96.507 E2.99782
G1 X142.913 Y121.218 E1.0874
M73 P2 R37
M73 P2 R37
G1 X141.181 Y121.218 E.07623
;WIDTH:0.638574
G1 X140.773 Y121.199 E.01925
;WIDTH:0.677148
G1 X140.364 Y121.18 E.0205
;WIDTH:0.678374
G1 X129.088 Y121.193 E.56603
;WIDTH:0.656785
G1 X127.97 Y121.193 E.05421
G3 X128.992 Y120.594 I1.58 J1.525 E.05818
;WIDTH:0.678374
G1 X129.5 Y120.546 E.0256
G1 X140.501 Y120.546 E.55219
;WIDTH:0.677148
G1 X140.689 Y120.438 E.01085
;WIDTH:0.638574
G1 X140.877 Y120.331 E.01019
;WIDTH:0.599999
G1 X141.143 Y119.972 E.01968
G1 X141.191 Y119.718 E.01136
G1 X140.392 Y119.94 F9000
;TYPE:Outer wall
G1 F600
G1 X140.535 Y119.891 E.00663
G2 X140.642 Y119.671 I-.171 J-.22 E.01115
G1 X140.642 Y104.477 E.66864
G1 X140.57 Y103.799 E.03
G1 X140.364 Y103.145 E.03018
G1 X140.045 Y102.561 E.02928
G1 X139.612 Y102.041 E.02978
G1 X139.071 Y101.608 E.03046
G1 X138.487 Y101.303 E.02901
G1 X137.846 Y101.113 E.02944
G1 X137.201 Y101.05 E.02851
G1 X74.258 Y101.05 E2.76984
G1 X74.258 Y95.95 E.22443
G1 X143.154 Y95.95 E3.0318
G1 X143.496 Y95.986 E.01515
G1 X143.47 Y121.542 E1.1246
G1 X143.255 Y121.754 E.01328
M73 P3 R37
M73 P3 R37
G1 X143.152 Y121.775 E.00462
G1 X127.217 Y121.779 E.70124
G1 X127.037 Y121.687 E.0089
G1 X127.221 Y121.242 E.02121
G1 X127.529 Y120.802 E.02363
G1 X127.928 Y120.442 E.02365
G1 X128.384 Y120.177 E.0232
G1 X128.9 Y120.008 E.02391
G1 X129.452 Y119.95 E.02442
G1 X140.354 Y119.95 E.47974
G1 E-1.6 F2400
;WIPE_START
G1 F9000
G1 X140.535 Y119.891
G1 X140.624 Y119.772
G1 X140.642 Y119.671
G1 X140.642 Y118.113
;WIPE_END
G1 Z.6
G1 X142.239 Y98.329
G1 Z.6
G1 Z.2
G1 E1.6 F1800
;TYPE:Bottom surface
;WIDTH:0.600855
G1 F1200
G1 X141.365 Y97.454 E.05451
G1 X140.576 Y97.454 E.03478
G1 X141.987 Y98.866 E.08799
G1 X141.986 Y99.653 E.03469
G1 X139.787 Y97.454 E.13705
G1 X138.998 Y97.454 E.03478
G1 X141.984 Y100.44 E.18612
G1 X141.982 Y101.227 E.03469
G1 X138.209 Y97.454 E.23518
G1 X137.42 Y97.454 E.03478
G1 X141.98 Y102.015 E.28425
G1 X141.978 Y102.802 E.03469
G1 X141.747 Y102.57 E.01444
G1 X141.693 Y102.441 E.00618
G2 X139.12 Y99.944 I-4.483 J2.045 E.1617
G1 X136.631 Y97.454 E.15519
G1 X135.842 Y97.454 E.03478
G1 X138.001 Y99.617 E.13471
G2 X137.153 Y99.554 I-.739 J4.21 E.03757
G1 X135.052 Y97.454 E.13089
G1 X134.263 Y97.454 E.03478
G1 X136.363 Y99.554 E.13089
G1 X135.574 Y99.554 E.03478
G1 X133.474 Y97.454 E.13088
G1 X132.685 Y97.454 E.03478
G1 X134.785 Y99.554 E.13087
G1 X133.996 Y99.554 E.03478
G1 X131.896 Y97.454 E.13087
G1 X131.107 Y97.454 E.03478
G1 X133.207 Y99.554 E.13086
G1 X132.418 Y99.554 E.03478
G1 X130.318 Y97.454 E.13085
G1 X129.529 Y97.454 E.03478
G1 X131.629 Y99.553 E.13085
G1 X130.839 Y99.553 E.03478
G1 X128.74 Y97.454 E.13084
G1 X127.951 Y97.454 E.03478
G1 X130.05 Y99.553 E.13083
G1 X129.261 Y99.553 E.03478
G1 X127.162 Y97.454 E.13083
G1 X126.373 Y97.454 E.03478
G1 X128.472 Y99.553 E.13082
G1 X127.683 Y99.553 E.03478
G1 X125.584 Y97.454 E.13081
G1 X124.795 Y97.454 E.03478
G1 X126.894 Y99.553 E.13081
G1 X126.104 Y99.553 E.03478
G1 X124.006 Y97.454 E.1308
G1 X123.217 Y97.454 E.03478
G1 X125.315 Y99.553 E.13079
G1 X124.526 Y99.552 E.03478
G1 X122.428 Y97.454 E.13079
G1 X121.639 Y97.454 E.03478
G1 X123.737 Y99.552 E.13078
G1 X122.948 Y99.552 E.03478
G1 X120.85 Y97.454 E.13077
G1 X120.061 Y97.454 E.03478
G1 X122.159 Y99.552 E.13077
G1 X121.37 Y99.552 E.03478
G1 X119.272 Y97.454 E.13076
G1 X118.483 Y97.454 E.03478
G1 X120.58 Y99.552 E.13075
G1 X119.791 Y99.552 E.03478
G1 X117.694 Y97.454 E.13075
G1 X116.905 Y97.454 E.03478
G1 X119.002 Y99.552 E.13074
G1 X118.213 Y99.552 E.03478
G1 X116.116 Y97.454 E.13073
G1 X115.326 Y97.454 E.03478
G1 X117.424 Y99.552 E.13073
G1 X116.635 Y99.551 E.03478
G1 X114.537 Y97.454 E.13072
G1 X113.748 Y97.454 E.03478
G1 X115.846 Y99.551 E.13071
G1 X115.056 Y99.551 E.03478
G1 X112.959 Y97.454 E.13071
G1 X112.17 Y97.454 E.03478
G1 X114.267 Y99.551 E.1307
G1 X113.478 Y99.551 E.03478
G1 X111.381 Y97.454 E.13069
G1 X110.592 Y97.454 E.03478
G1 X112.689 Y99.551 E.13069
G1 X111.9 Y99.551 E.03478
G1 X109.803 Y97.454 E.13068
G1 X109.014 Y97.454 E.03478
G1 X111.111 Y99.551 E.13067
G1 X110.322 Y99.551 E.03478
G1 X108.225 Y97.454 E.13067
G1 X107.436 Y97.454 E.03478
G1 X109.532 Y99.55 E.13066
G1 X108.743 Y99.55 E.03478
G1 X106.647 Y97.454 E.13065
G1 X105.858 Y97.454 E.03478
G1 X107.954 Y99.55 E.13065
G1 X107.165 Y99.55 E.03478
G1 X105.069 Y97.454 E.13064
G1 X104.28 Y97.454 E.03478
G1 X106.376 Y99.55 E.13063
G1 X105.587 Y99.55 E.03478
G1 X103.491 Y97.454 E.13063
G1 X102.702 Y97.454 E.03478
G1 X104.798 Y99.55 E.13062
G1 X104.008 Y99.55 E.03478
G1 X101.913 Y97.454 E.13061
G1 X101.124 Y97.454 E.03478
G1 X103.219 Y99.55 E.13061
G1 X102.43 Y99.55 E.03478
G1 X100.335 Y97.454 E.1306
G1 X99.546 Y97.454 E.03478
G1 X101.641 Y99.549 E.13059
G1 X100.852 Y99.549 E.03478
G1 X98.757 Y97.454 E.13059
G1 X97.968 Y97.454 E.03478
G1 X100.063 Y99.549 E.13058
G1 X99.274 Y99.549 E.03478
G1 X97.179 Y97.454 E.13057
G1 X96.39 Y97.454 E.03478
G1 X98.484 Y99.549 E.13057
G1 X97.695 Y99.549 E.03478
G1 X95.601 Y97.454 E.13056
G1 X94.811 Y97.454 E.03478
G1 X96.906 Y99.549 E.13056
G1 X96.117 Y99.549 E.03478
G1 X94.022 Y97.454 E.13055
G1 X93.233 Y97.454 E.03478
G1 X95.328 Y99.549 E.13054
G1 X94.539 Y99.548 E.03478
G1 X92.444 Y97.454 E.13054
G1 X91.655 Y97.454 E.03478
G1 X93.75 Y99.548 E.13053
G1 X92.96 Y99.548 E.03478
G1 X90.866 Y97.454 E.13052
G1 X90.077 Y97.454 E.03478
G1 X92.171 Y99.548 E.13052
G1 X91.382 Y99.548 E.03478
G1 X89.288 Y97.454 E.13051
G1 X88.499 Y97.454 E.03478
G1 X90.593 Y99.548 E.1305
G1 X89.804 Y99.548 E.03478
G1 X87.71 Y97.454 E.1305
G1 X86.921 Y97.454 E.03478
G1 X89.015 Y99.548 E.13049
G1 X88.225 Y99.548 E.03478
G1 X86.132 Y97.454 E.13048
G1 X85.343 Y97.454 E.03478
G1 X87.436 Y99.547 E.13048
M73 P4 R37
M73 P4 R37
G1 X86.647 Y99.547 E.03478
G1 X84.554 Y97.454 E.13047
G1 X83.765 Y97.454 E.03478
G1 X85.858 Y99.547 E.13046
G1 X85.069 Y99.547 E.03478
G1 X82.976 Y97.454 E.13046
G1 X82.187 Y97.454 E.03478
G1 X84.28 Y99.547 E.13045
G1 X83.491 Y99.547 E.03478
G1 X81.398 Y97.454 E.13044
G1 X80.609 Y97.454 E.03478
G1 X82.701 Y99.547 E.13044
G1 X81.912 Y99.547 E.03478
G1 X79.82 Y97.454 E.13043
G1 X79.031 Y97.454 E.03478
G1 X81.123 Y99.547 E.13042
G1 X80.334 Y99.547 E.03478
G1 X78.242 Y97.454 E.13042
G1 X77.453 Y97.454 E.03478
G1 X79.545 Y99.546 E.13041
G1 X78.756 Y99.546 E.03478
G1 X76.664 Y97.454 E.1304
G1 X75.875 Y97.454 E.03478
G1 X77.967 Y99.546 E.1304
G1 X77.177 Y99.546 E.03478
G1 X75.762 Y98.13 E.08824
G1 X75.762 Y98.919 E.03478
G1 X76.639 Y99.797 E.05468
; stop printing object Braccio Corto 2 id:8171063952611762432 copy 0
;TIME_ELAPSED:96.163994

;LAYER_CHANGE
;Z:0.4
;HEIGHT:0.2
;BEFORE_LAYER_CHANGE
;0.4
G92 E0

G1 E-1.6 F2400
;WIPE_START
G1 F9000
G1 X75.762 Y98.919
G1 X75.762 Y98.16
;WIPE_END
;_SET_FAN_SPEED_CHANGING_LAYER
M204 P2500
; printing object Braccio Corto 2 id:8171063952611762432 copy 0
M204 T2500
G1 X83.042 Y100.453 Z.6
G1 X141.202 Y118.766 Z.6
G1 Z.4
G1 E1.6 F1800
M204 P2000
;TYPE:Inner wall
;WIDTH:0.449999
G1 F5400
G1 X141.202 Y104.441 E.46065
G1 X141.101 Y103.624 E.02647
G1 X140.855 Y102.878 E.02525
G1 X140.469 Y102.196 E.02521
G1 X139.97 Y101.615 E.02463
G1 X139.332 Y101.114 E.02606
G1 X138.614 Y100.756 E.0258
G1 X137.879 Y100.554 E.02454
G1 X137.193 Y100.491 E.02213
G1 X74.817 Y100.491 E2.0058
G1 X74.817 Y96.509 E.12804
G1 X143.127 Y96.509 E2.19661
G1 X143.483 Y96.543 E.01148
G1 X143.485 Y121.264 E.79496
G1 X143.377 Y121.664 E.01333
G3 X143.098 Y121.773 I-.314 J-.393 E.00977
G1 X127.578 Y121.791 E.49906
G3 X128.95 Y120.579 I1.914 J.785 E.06099
G1 X129.482 Y120.509 E.01723
G1 X140.214 Y120.509 E.3451
G1 X140.606 Y120.428 E.01288
G1 X140.912 Y120.22 E.0119
G1 X141.099 Y119.959 E.01033
G1 X141.202 Y119.521 E.01445
G1 X141.202 Y118.806 E.023
G1 X140.794 Y119.226 F9000
G1 F5400
G1 X140.794 Y104.466 E.47463
G1 X140.712 Y103.742 E.02343
G1 X140.496 Y103.07 E.0227
G1 X140.154 Y102.454 E.02266
G1 X139.71 Y101.928 E.02213
G1 X139.142 Y101.474 E.02338
G1 X138.497 Y101.146 E.02327
G1 X137.839 Y100.959 E.022
G1 X137.193 Y100.898 E.02087
G1 X74.41 Y100.898 E2.01887
M73 P4 R36
M73 P4 R36
G1 X74.41 Y96.102 E.15422
G1 X143.127 Y96.102 E2.20969
G1 X143.615 Y96.147 E.01576
G1 F4510.017
G1 X143.89 Y96.232 E.00926
G1 F4508.752
G1 X143.89 Y97.075 E.02711
G1 F4002.178
G1 X143.892 Y120.543 E.75464
G1 F4000.865
G1 X143.892 Y121.418 E.02814
G1 F3730.702
G1 X143.717 Y121.927 E.01731
G1 X143.414 Y122.128 E.01169
G1 F4317.425
G1 X143.136 Y122.18 E.00909
G1 F4301.8
G1 X142.281 Y122.181 E.02749
G1 F4042.533
G1 X128.091 Y122.197 E.4563
G1 F4026.577
G1 X127.218 Y122.198 E.02807
G1 X127.06 Y122.149 E.00532
G1 F4829.724
G1 X127.164 Y121.732 E.01382
G1 F5400
G1 X127.343 Y121.332 E.01409
G1 X127.591 Y120.974 E.014
G1 X127.95 Y120.627 E.01606
G1 X128.447 Y120.316 E.01885
G1 X128.927 Y120.159 E.01624
G1 X129.46 Y120.102 E.01724
G1 X140.214 Y120.102 E.34581
G1 X140.444 Y120.054 E.00756
G1 X140.624 Y119.932 E.00699
G1 X140.734 Y119.779 E.00606
G1 X140.794 Y119.521 E.00852
G1 X140.794 Y119.266 E.0082
G1 X140.347 Y119.655 F9000
M204 P1000
;TYPE:Outer wall
;WIDTH:0.419999
G1 F2400
G1 X140.402 Y119.521 E.00431
G1 X140.402 Y118.893 E.01871
G1 X140.402 Y105.119 E.41028
G1 X140.402 Y104.489 E.01877
G1 X140.336 Y103.856 E.01896
G1 X140.15 Y103.255 E.01874
G1 X139.851 Y102.702 E.01873
G1 X139.46 Y102.231 E.01823
G1 X138.959 Y101.821 E.01928
G1 X138.384 Y101.521 E.01932
G1 X137.8 Y101.349 E.01813
G1 X137.193 Y101.29 E.01817
G1 X136.563 Y101.29 E.01877
G1 X74.648 Y101.29 E1.84423
G1 X74.018 Y101.29 E.01877
G1 X74.018 Y100.66 E.01877
G1 X74.018 Y96.34 E.12868
G1 X74.018 Y95.71 E.01877
G1 X74.648 Y95.71 E.01877
G1 X142.554 Y95.71 E2.02268
G1 X143.184 Y95.71 E.01877
G1 X143.733 Y95.764 E.01643
G1 X143.947 Y95.837 E.00673
G1 F3000
G1 X144.147 Y95.905 E.00629
M204 P500
;TYPE:Overhang wall
;WIDTH:0.389872
;HEIGHT:0.389872
G1 X144.282 Y95.951 E.00673
G1 X144.284 Y121.483 E1.2039
G3 X144.011 Y122.203 I-8.415 J-2.784 E.03628
G1 X143.565 Y122.498 E.02524
G1 X143.173 Y122.572 E.01882
G1 X127.123 Y122.59 E.75674
G1 X126.65 Y122.414 E.0238
G1 X126.66 Y122.243 E.00811
M204 P1000
;TYPE:Outer wall
;WIDTH:0.419999
;HEIGHT:0.2
G1 F2312.886
G1 X126.669 Y122.098 E.00433
G1 X126.688 Y122.021 E.00236
M106 S0
G1 F2400
G1 X126.801 Y121.564 E.01402
G1 X127.029 Y121.078 E.01599
G1 X127.344 Y120.648 E.01588
G1 X127.789 Y120.244 E.0179
G1 X128.286 Y119.956 E.01711
G1 X128.845 Y119.773 E.01752
G1 X129.44 Y119.71 E.01782
G1 X130.07 Y119.71 E.01877
G1 X139.585 Y119.71 E.28342
G1 X140.214 Y119.71 E.01874
G1 X140.31 Y119.67 E.0031
G1 E-1.6
;WIPE_START
G1 F9000
G1 X140.402 Y119.521
G1 X140.402 Y117.696
;WIPE_END
G1 Z.8
G1 X141.13 Y101.817
G1 Z.8
G1 Z.4
G1 E1.6 F1800
M204 P2500
;TYPE:Internal solid infill
G1 F10800
G3 X141.63 Y102.745 I-6.696 J4.209 E.03142
G1 X141.887 Y103.645 E.02786
G1 X141.971 Y104.471 E.02473
G1 X141.971 Y119.521 E.44831
G1 X141.925 Y119.903 E.01145
G1 X141.741 Y120.379 E.01518
G1 X141.374 Y120.832 E.01737
G1 X141.117 Y121.006 E.00925
G1 X142.716 Y121.004 E.04762
G1 X142.714 Y100.233 E.61871
G1 X141.158 Y101.789 E.06555
G1 X141.697 Y101.881 F9000
;WIDTH:0.558147
G1 F10800
G1 X142.029 Y102.546 E.03025
G1 X142.268 Y103.347 E.03402
G1 X142.268 Y101.31 E.0829
G1 X141.725 Y101.853 E.03123
G1 X142.227 Y120.516 F9000
;WIDTH:0.620107
G1 F10800
G1 X142.25 Y120.371 E.00669
;WIDTH:0.573629
G1 X142.274 Y120.226 E.00615
;WIDTH:0.52715
G1 X142.297 Y120.081 E.00561
;WIDTH:0.480672
G1 X142.32 Y119.936 E.00508
;WIDTH:0.410479
G1 X142.343 Y119.791 E.00426
G1 X142.343 Y104.499 E.44401
;WIDTH:0.426437
G1 X142.326 Y104.123 E.01141
;WIDTH:0.443325
G1 X142.31 Y103.746 E.01191
G1 E-1.6 F2400
;WIPE_START
G1 F9000
G1 X142.326 Y104.123
;WIPE_END
G1 X137.521 Y110.052 Z.8
G1 X128.341 Y121.378 Z.8
G1 Z.4
G1 E1.6 F1800
;WIDTH:0.474699
G1 F10800
G3 X140.215 Y121.358 I8.065 J1249.386 E.40499
;WIDTH:0.45972
G1 X140.501 Y121.371 E.0094
;WIDTH:0.420079
G1 X143.052 Y121.381 E.07602
G1 X143.093 Y121.264 E.00368
G1 X143.091 Y99.323 E.65371
G1 X140.63 Y101.783 E.10368
G1 X140.924 Y102.176 E.0146
G1 X141.293 Y102.914 E.02458
G1 X141.523 Y103.744 E.02568
G1 X141.594 Y104.49 E.02232
G1 X141.594 Y119.521 E.44783
G1 X141.566 Y119.786 E.00792
G1 X141.435 Y120.159 E.01179
G1 X141.162 Y120.52 E.01348
G1 X140.725 Y120.799 E.01545
;WIDTH:0.43324
G1 X140.47 Y120.864 E.0081
;WIDTH:0.471723
G1 X140.215 Y120.928 E.0089
G1 X129.516 Y120.931 E.36243
G1 X129.079 Y120.971 E.01486
G2 X128.371 Y121.351 I.4 J1.593 E.02749
G1 E-1.6 F2400
;WIPE_START
G1 F9000
G1 X128.501 Y121.234
G1 X128.769 Y121.076
G1 X129.079 Y120.971
G1 X129.516 Y120.931
G1 X130.264 Y120.931
;WIPE_END
G1 X134.123 Y114.346 Z.8
G1 X143.383 Y98.551 Z.8
G1 Z.4
G1 E1.6 F1800
;WIDTH:0.420574
G1 F10800
