;TIME:1378.46
;Filament used:1.46927m
;Layer height:0.200
; HEADER_BLOCK_START
; generated by Creality_Print V6.0.5.1840 on 2025-05-31 at 23:00:41
; total layer number: 60
; filament_density: 1.24
; filament_diameter: 1.75
; max_z_height: 12.00
; HEADER_BLOCK_END

; MINX = 95.09
; MINY = 95.09
; MINZ = 0.00
; MAXX = 124.91
; MAXY = 124.91
; MAXZ = 12.00

; THUMBNAIL_BLOCK_START

;
; THUMBNAIL_BLOCK_END

; THUMBNAIL_BLOCK_START

;
; THUMBNAIL_BLOCK_END

; external perimeters extrusion width = 0.42mm
; perimeters extrusion width = 0.45mm
; infill extrusion width = 0.45mm
; solid infill extrusion width = 0.42mm
; top infill extrusion width = 0.42mm
; support material extrusion width = 0.40mm
; first layer extrusion width = 0.60mm

; EXECUTABLE_BLOCK_START
M73 P0 R22
M201 X5000 Y5000 Z500 E5000
M203 X500 Y500 Z30 E100
M204 P5000 R2500 T5000 ; sets acceleration (P, T) and retract acceleration (R), mm/sec^2
M205 X10.00 Y10.00 Z0.40 E5.00 ; sets the jerk limits, mm/sec
;TYPE:Custom
M220 S100 ;Reset Feedrate 
M221 S100 ;Reset Flowrate 
 
M140 S75 ;Set final bed temp 
G28 ;Home 
 
G92 E0 ;Reset Extruder 
G1 Z2.0 F3000 ;Move Z Axis up 
M104 S200 ;Set final nozzle temp 
G1 X-2.1 Y20 Z0.28 F5000.0 ;Move to start position 
M190 S75 ;Wait for bed temp to stabilize 
M109 S200 ;Wait for nozzle temp to stabilize 
G1 X-2.1 Y145.0 Z0.28 F1500.0 E15 ;Draw the first line 
G1 X-2.4 Y145.0 Z0.28 F5000.0 ;Move to side a little 
G1 X-2.4 Y20 Z0.28 F1500.0 E30 ;Draw the second line 
G92 E0  ;Reset Extruder 
G1 E-1.0000 F1800 ;Retract a bit 
G1 Z2.0 F3000 ;Move Z Axis up 
G1 E0.0000 F1800
G90
G21
M83 ; use relative distances for extrusion
" "
G1 E-1.6 F2400
M106 S0
;LAYER_CHANGE
;Z:0.2
;HEIGHT:0.2
;BEFORE_LAYER_CHANGE
;0.2
G92 E0

;_SET_FAN_SPEED_CHANGING_LAYER
M204 P125
M205 X10 Y10
; printing object Rotella id:8171063952611762432 copy 0
M204 T125
G1 Z.4 F9000
G1 X122.037 Y104.348
G1 Z.2
G1 E1.6 F1800
;TYPE:Inner wall
;WIDTH:0.784327
G1 F600
G1 X119.434 Y105.193 E.16027
G1 X121.679 Y103.562 E.1625
G1 X122.072 Y104.334 E.05073
G1 E-1.6 F2400
;WIPE_START
G1 F9000
G1 X120.17 Y104.953
;WIPE_END
G1 X116.07 Y111.391 Z.6
M73 P1 R22
M73 P1 R22
G1 X111.238 Y118.979 Z.6
G1 Z.2
G1 E1.6 F1800
;WIDTH:0.599999
G1 F600
G1 X111.062 Y118.766 E.01217
G1 X110.615 Y118.517 E.02248
G1 X110.244 Y118.447 E.01662
G1 X109.118 Y118.387 E.04961
G1 X108.247 Y118.249 E.03885
G1 X107.204 Y117.97 E.04748
G1 X106.784 Y117.91 E.01869
G1 X106.283 Y118.008 E.02246
G1 X105.844 Y118.287 E.02287
G1 X105.584 Y118.667 E.02027
G1 X105.738 Y118.233 E.02027
G1 X105.706 Y117.714 E.02287
G1 X105.491 Y117.251 E.02246
G1 X105.233 Y116.977 E.01657
G1 X104.357 Y116.267 E.04961
G1 X103.733 Y115.643 E.03885
G1 X103.023 Y114.767 E.04961
G1 X102.749 Y114.509 E.01657
G1 X102.286 Y114.294 E.02246
G1 X101.767 Y114.262 E.02287
G1 X101.333 Y114.416 E.02028
G1 X101.713 Y114.156 E.02028
G1 X101.991 Y113.717 E.02287
G1 X102.09 Y113.216 E.02246
G1 X102.043 Y112.844 E.01651
G1 X101.749 Y111.746 E.05002
G1 X101.613 Y110.882 E.03849
G1 X101.556 Y109.797 E.04778
G1 X101.483 Y109.385 E.01844
G1 X101.234 Y108.938 E.02248
G1 X100.833 Y108.609 E.02284
;WIDTH:0.597558
G1 X100.495 Y108.495 E.01561
G1 X100.852 Y108.49 E.01561
;WIDTH:0.599999
G1 X101.335 Y108.301 E.02284
G1 X101.709 Y107.953 E.02248
G1 X101.891 Y107.622 E.01662
G1 X102.295 Y106.57 E.04961
G1 X102.696 Y105.783 E.03885
G1 X103.31 Y104.838 E.04961
G1 X103.471 Y104.495 E.01666
G1 X103.532 Y103.987 E.02249
G1 X103.401 Y103.485 E.02283
;WIDTH:0.597466
G1 X103.195 Y103.195 E.01557
G1 X103.485 Y103.401 E.01557
;WIDTH:0.599999
G1 X103.987 Y103.532 E.02283
G1 X104.495 Y103.471 E.02249
G1 X104.838 Y103.31 E.01666
G1 X105.783 Y102.696 E.04961
G1 X106.57 Y102.295 E.03885
G1 X107.622 Y101.891 E.04961
G1 X107.953 Y101.709 E.01662
G1 X108.301 Y101.335 E.02248
G1 X108.49 Y100.852 E.02284
;WIDTH:0.597559
G1 X108.495 Y100.495 E.01561
G1 X108.609 Y100.833 E.01561
;WIDTH:0.599999
G1 X108.938 Y101.234 E.02284
G1 X109.385 Y101.483 E.02248
G1 X109.756 Y101.553 E.01662
G1 X110.882 Y101.613 E.04961
G1 X111.753 Y101.751 E.03885
G1 X112.796 Y102.03 E.04748
G1 X113.216 Y102.09 E.01869
G1 X113.717 Y101.992 E.02246
G1 X114.155 Y101.712 E.02286
;WIDTH:0.597689
G1 X114.369 Y101.426 E.01567
G1 X114.263 Y101.767 E.01567
;WIDTH:0.599999
G1 X114.294 Y102.286 E.02286
G1 X114.509 Y102.749 E.02246
G1 X114.767 Y103.023 E.01657
G1 X115.643 Y103.733 E.04961
G1 X116.267 Y104.357 E.03885
G1 X116.977 Y105.233 E.04961
G1 X117.251 Y105.491 E.01657
G1 X117.714 Y105.706 E.02246
G1 X118.233 Y105.737 E.02286
;WIDTH:0.597695
G1 X118.574 Y105.631 E.01567
G1 X118.288 Y105.845 E.01567
;WIDTH:0.599999
G1 X118.009 Y106.283 E.02286
G1 X117.91 Y106.784 E.02246
G1 X117.957 Y107.156 E.01651
G1 X118.251 Y108.254 E.05002
G1 X118.387 Y109.118 E.03849
G1 X118.444 Y110.203 E.04778
G1 X118.517 Y110.615 E.01844
G1 X118.766 Y111.062 E.02248
G1 X119.167 Y111.392 E.02285
G1 X119.607 Y111.522 E.02019
G1 X119.148 Y111.509 E.02019
G1 X118.665 Y111.699 E.02285
G1 X118.291 Y112.047 E.02248
G1 X118.109 Y112.378 E.01662
G1 X117.705 Y113.43 E.04961
G1 X117.304 Y114.217 E.03885
G1 X116.69 Y115.162 E.04961
G1 X116.529 Y115.505 E.01666
G1 X116.468 Y116.013 E.02249
G1 X116.598 Y116.515 E.02284
G1 X116.878 Y116.878 E.02014
G1 X116.515 Y116.598 E.02014
G1 X116.013 Y116.468 E.02284
G1 X115.505 Y116.529 E.02249
G1 X115.162 Y116.69 E.01666
G1 X114.217 Y117.304 E.04961
G1 X113.43 Y117.705 E.03885
G1 X112.378 Y118.109 E.04961
G1 X112.047 Y118.291 E.01662
G1 X111.699 Y118.665 E.02248
G1 X111.509 Y119.148 E.02285
G1 X111.522 Y119.607 E.02019
G1 X111.392 Y119.167 E.02019
G1 X111.263 Y119.01 E.00893
G1 E-1.6 F2400
;WIPE_START
G1 F9000
G1 X111.062 Y118.766
G1 X110.615 Y118.517
G1 X110.244 Y118.447
G1 X109.451 Y118.405
;WIPE_END
G1 X116.127 Y114.706 Z.6
G1 X121.63 Y111.656 Z.6
G1 Z.2
G1 E1.6 F1800
;WIDTH:0.784325
G1 F600
G1 X123.232 Y111.656 E.09383
G1 X123.096 Y112.514 E.05084
G1 X120.458 Y111.656 E.16249
G1 X121.59 Y111.656 E.06632
G1 E-1.6 F2400
;WIPE_START
G1 F9000
G1 X123.232 Y111.656
G1 X123.176 Y112.01
;WIPE_END
G1 X119.741 Y118.826 Z.6
G1 X119.454 Y119.395 Z.6
G1 Z.2
G1 E1.6 F1800
;WIDTH:0.784332
G1 F600
G1 X119.118 Y119.732 E.02789
G1 X117.487 Y117.487 E.1625
G1 X119.732 Y119.118 E.1625
G1 X119.483 Y119.367 E.02061
G1 E-1.6 F2400
;WIPE_START
G1 F9000
G1 X119.118 Y119.732
G1 X118.246 Y118.531
;WIPE_END
G1 X112.169 Y123.15 Z.6
G1 X112.168 Y123.151 Z.6
G1 Z.2
G1 E1.6 F1800
;WIDTH:0.784326
G1 F600
G1 X111.656 Y123.232 E.03035
G1 X111.656 Y120.458 E.1625
G1 X112.514 Y123.096 E.16249
G1 X112.208 Y123.145 E.01815
G1 E-1.6 F2400
;WIPE_START
G1 F9000
G1 X111.656 Y123.232
G1 X111.656 Y121.79
;WIPE_END
G1 X114.197 Y114.593 Z.6
G1 X115.461 Y111.011 Z.6
G1 Z.2
G1 E1.6 F1800
;WIDTH:0.599999
G1 F600
G1 X115.187 Y112.001 E.04521
G1 X114.782 Y112.816 E.04003
M73 P2 R22
M73 P2 R22
G1 X114.546 Y113.202 E.01992
G1 X114.027 Y113.834 E.03599
G3 X112.975 Y114.697 I-5.909 J-6.127 E.05997
G1 X112.253 Y115.083 E.03599
G3 X110.95 Y115.478 I-2.979 J-7.474 E.05998
G1 X110.137 Y115.558 E.03599
G3 X108.87 Y115.449 I.302 J-10.848 E.05597
G1 X107.999 Y115.187 E.04002
G3 X107.025 Y114.697 I4.466 J-10.085 E.04798
G1 X106.235 Y114.083 E.04406
G3 X105.044 Y112.491 I3.662 J-3.98 E.08801
G1 X104.82 Y112.025 E.02274
G1 X104.575 Y111.218 E.03709
G3 X104.437 Y110.073 I12.666 J-2.11 E.05078
G1 X104.522 Y109.05 E.04519
G1 X104.813 Y107.999 E.04796
G1 X105.218 Y107.184 E.04003
G1 X105.454 Y106.798 E.01992
G1 X105.973 Y106.166 E.03599
G3 X106.923 Y105.363 I7.364 J7.748 E.05479
G1 X107.747 Y104.917 E.0412
G3 X109.05 Y104.522 I2.979 J7.475 E.05998
G1 X109.857 Y104.442 E.0357
G3 X111.13 Y104.551 I-.299 J10.975 E.05625
G1 X112.001 Y104.813 E.04002
G3 X112.975 Y105.303 I-4.467 J10.086 E.04798
G1 X113.765 Y105.917 E.04406
G3 X114.956 Y107.509 I-3.662 J3.98 E.08801
G1 X115.18 Y107.975 E.02274
G1 X115.425 Y108.782 E.03709
G3 X115.563 Y109.927 I-12.666 J2.11 E.05078
G1 X115.478 Y110.95 E.04519
G1 X115.472 Y110.972 E.00099
G1 X114.96 Y110.523 F9000
G1 F600
G1 X114.923 Y110.899 E.0166
G1 X114.654 Y111.839 E.04305
G3 X114.115 Y112.848 I-7.811 J-3.526 E.05038
G1 X113.596 Y113.48 E.03599
G3 X112.712 Y114.206 I-6.734 J-7.303 E.05037
G1 X111.991 Y114.592 E.03599
G3 X110.896 Y114.924 I-3.2 J-8.577 E.05037
G1 X110.082 Y115.004 E.03599
G3 X108.997 Y114.906 I.649 J-13.26 E.04797
G1 X108.161 Y114.654 E.03841
G1 X107.288 Y114.206 E.04317
G1 X106.588 Y113.652 E.03927
G1 X106.348 Y113.412 E.01498
G1 X105.881 Y112.844 E.03233
G3 X105.346 Y111.839 I8.327 J-5.086 E.05013
G1 X105.108 Y111.057 E.03599
G3 X104.996 Y109.918 I10.01 J-1.561 E.05037
G1 X105.077 Y109.101 E.03612
G1 X105.346 Y108.161 E.04305
G3 X105.885 Y107.152 I7.81 J3.526 E.05038
G1 X106.404 Y106.52 E.03599
G3 X107.288 Y105.794 I6.734 J7.303 E.05037
G1 X108.009 Y105.408 E.03599
G3 X109.104 Y105.076 I3.2 J8.577 E.05037
G1 X109.911 Y104.997 E.0357
G3 X111.056 Y105.108 I-.415 J10.201 E.05065
G1 X111.839 Y105.346 E.036
G1 X112.712 Y105.794 E.04317
G1 X113.412 Y106.348 E.03927
G1 X113.652 Y106.588 E.01498
G1 X114.119 Y107.156 E.03233
G3 X114.654 Y108.161 I-8.327 J5.086 E.05013
G1 X114.892 Y108.943 E.03599
G3 X115.004 Y110.082 I-10.01 J1.561 E.05037
G1 X114.964 Y110.484 E.01776
G1 X114.447 Y110 F9000
;TYPE:Outer wall
G1 F600
G1 X114.369 Y110.841 E.03719
G1 X114.121 Y111.678 E.03838
G3 X113.684 Y112.495 I-13.59 J-6.739 E.04078
G1 X113.166 Y113.127 E.03599
G3 X112.449 Y113.715 I-12.579 J-14.597 E.04078
G1 X111.728 Y114.1 E.03599
G3 X110.841 Y114.369 I-5.355 J-16.056 E.04078
G1 X110.027 Y114.449 E.03599
G3 X109.123 Y114.363 I2.165 J-27.536 E.03998
G1 X108.322 Y114.121 E.0368
G1 X107.551 Y113.715 E.03838
G1 X106.942 Y113.222 E.03448
G1 X106.316 Y112.495 E.04222
G3 X105.879 Y111.678 I15.853 J-8.999 E.04078
G1 X105.641 Y110.895 E.03599
G1 X105.551 Y110.027 E.03838
G1 X105.631 Y109.159 E.03838
G1 X105.879 Y108.322 E.03838
G3 X106.316 Y107.505 I13.591 J6.739 E.04078
G1 X106.834 Y106.873 E.03599
G3 X107.551 Y106.285 I12.579 J14.597 E.04078
G1 X108.272 Y105.9 E.03599
G3 X109.159 Y105.631 I5.355 J16.056 E.04078
G1 X109.966 Y105.551 E.0357
G3 X110.895 Y105.641 I-1.47 J19.977 E.04106
G1 X111.678 Y105.879 E.036
G1 X112.449 Y106.285 E.03838
G1 X113.058 Y106.778 E.03448
G1 X113.684 Y107.505 E.04222
G3 X114.121 Y108.322 I-15.853 J8.999 E.04078
G1 X114.359 Y109.105 E.03599
G1 X114.448 Y109.96 E.03782
G1 E-1.6 F2400
;WIPE_START
G1 F9000
G1 X114.369 Y110.841
G1 X114.121 Y111.678
G1 X114.007 Y111.892
;WIPE_END
G1 X108.497 Y117.174 Z.6
G1 X104.765 Y120.753 Z.6
G1 Z.2
G1 E1.6 F1800
;TYPE:Inner wall
;WIDTH:0.784327
G1 F600
G1 X104.336 Y122.073 E.08128
G1 X103.562 Y121.679 E.05084
G1 X105.193 Y119.434 E.16249
G1 X104.777 Y120.715 E.07887
G1 E-1.6 F2400
;WIPE_START
G1 F9000
G1 X104.336 Y122.073
G1 X103.826 Y121.813
;WIPE_END
G1 X99.561 Y115.484 Z.6
G1 X99.367 Y115.196 Z.6
G1 Z.2
G1 E1.6 F1800
;WIDTH:0.784328
G1 F600
G1 X100.566 Y114.807 E.07383
G1 X98.321 Y116.438 E.1625
G1 X97.927 Y115.664 E.05084
G1 X99.329 Y115.209 E.08632
G1 E-1.6 F2400
;WIPE_START
G1 F9000
G1 X100.566 Y114.807
G1 X100 Y115.218
;WIPE_END
G1 X99.379 Y108.344 Z.6
G1 Z.2
G1 E1.6 F1800
;WIDTH:0.784325
G1 F600
G1 X96.768 Y108.344 E.15294
G1 X96.904 Y107.486 E.05084
G1 X99.542 Y108.344 E.16249
M73 P3 R22
M73 P3 R22
G1 X99.419 Y108.344 E.00721
G1 E-1.6 F2400
;WIPE_START
G1 F9000
G1 X97.419 Y108.344
;WIPE_END
G1 X101.297 Y101.77 Z.6
G1 X101.6 Y101.256 Z.6
G1 Z.2
G1 E1.6 F1800
;WIDTH:0.784331
G1 F600
G1 X102.513 Y102.513 E.09098
G1 X100.268 Y100.882 E.1625
G1 X100.882 Y100.268 E.05084
G1 X101.577 Y101.224 E.06917
G1 E-1.6 F2400
;WIPE_START
G1 F9000
G1 X102.513 Y102.513
G1 X102.184 Y102.274
;WIPE_END
G1 X108.344 Y99.087 Z.6
G1 Z.2
G1 E1.6 F1800
;WIDTH:0.784261
G1 F600
G1 X108.344 Y99.543 E.02668
G1 X107.486 Y96.904 E.16248
G1 X108.344 Y96.769 E.05083
G1 X108.344 Y99.047 E.13342
G1 E-1.6 F2400
;WIPE_START
G1 F9000
G1 X108.344 Y99.543
G1 X107.879 Y98.112
;WIPE_END
G1 X115.511 Y98.178 Z.6
G1 X116.167 Y98.183 Z.6
G1 Z.2
G1 E1.6 F1800
;WIDTH:0.784326
G1 F600
G1 X116.438 Y98.321 E.0178
G1 X114.807 Y100.566 E.1625
G1 X115.664 Y97.927 E.16249
G1 X116.131 Y98.165 E.0307
G1 E-1.6 F2400
;WIPE_START
G1 F9000
G1 X116.438 Y98.321
G1 X115.464 Y99.661
;WIPE_END
G1 X114.201 Y107.188 Z.6
G1 X112.098 Y119.716 Z.6
G1 Z.2
G1 E1.6 F1800
;WIDTH:0.599999
G1 F600
G1 X112.997 Y122.483 E.12803
G1 X113.204 Y123.187 E.03231
G1 X113.165 Y123.415 E.01017
G1 X113.026 Y123.6 E.01017
G1 X112.779 Y123.712 E.01193
G3 X111.434 Y123.897 I-3.231 J-18.485 E.05978
G1 X111.222 Y123.815 E.01
G1 X111.069 Y123.641 E.01017
G1 X111.007 Y123.356 E.01284
G1 X111.007 Y119.837 E.15483
G1 X110.904 Y119.435 E.01828
G1 X110.706 Y119.195 E.01371
G1 X110.546 Y119.09 E.00839
G1 X110.215 Y119.003 E.01505
G1 X109.06 Y118.942 E.0509
G3 X106.866 Y118.47 I2.473 J-16.823 E.09884
G1 X106.489 Y118.526 E.01679
G1 X106.225 Y118.693 E.01372
G1 X106.002 Y119.045 E.01831
G1 X105.087 Y121.861 E.13029
G1 X104.84 Y122.552 E.03231
G1 X104.675 Y122.714 E.01017
G1 X104.454 Y122.781 E.01017
G1 X104.189 Y122.726 E.01193
G3 X102.994 Y122.089 I8.705 J-17.745 E.05961
G1 X102.869 Y121.894 E.01017
G1 X102.847 Y121.664 E.01017
G1 X102.964 Y121.397 E.01284
G1 X105.033 Y118.55 E.15483
G1 X105.186 Y118.164 E.01831
G1 X105.166 Y117.852 E.01372
G1 X105.098 Y117.674 E.00839
G1 X104.882 Y117.41 E.01501
G1 X103.983 Y116.682 E.0509
G1 X103.318 Y116.017 E.04141
G2 X102.425 Y114.963 I-9.557 J7.191 E.0608
G1 X102.148 Y114.834 E.01348
G1 X101.836 Y114.814 E.01372
G1 X101.45 Y114.967 E.01831
G1 X99.054 Y116.708 E.13029
G1 X98.448 Y117.122 E.03231
G1 X98.219 Y117.156 E.01017
G1 X98.001 Y117.08 E.01017
G1 X97.818 Y116.88 E.01193
G3 X97.226 Y115.662 I17.472 J-9.239 E.05961
G1 X97.239 Y115.433 E.01008
G1 X97.357 Y115.232 E.01025
G1 X97.609 Y115.085 E.01284
G1 X100.955 Y113.998 E.15483
G1 X101.307 Y113.775 E.01832
G1 X101.474 Y113.511 E.01372
G1 X101.523 Y113.327 E.00839
G1 X101.504 Y112.987 E.01498
G1 X101.204 Y111.861 E.05129
G1 X101.058 Y110.94 E.04105
G2 X100.956 Y109.565 I-15.875 J.487 E.06069
G1 X100.805 Y109.294 E.01362
G1 X100.565 Y109.096 E.01371
G2 X100.163 Y108.993 I-.402 J.732 E.01847
G1 X97.202 Y108.993 E.13029
G1 X96.468 Y108.972 E.03231
G1 X96.263 Y108.865 E.01017
G1 X96.131 Y108.675 E.01017
G1 X96.101 Y108.406 E.01193
G3 X96.338 Y107.072 I19.568 J2.796 E.05961
G1 X96.484 Y106.893 E.01017
G1 X96.696 Y106.802 E.01017
G1 X96.987 Y106.831 E.01284
G1 X100.382 Y107.934 E.15709
G1 X100.748 Y107.944 E.0161
G1 X101.037 Y107.83 E.01371
G1 X101.186 Y107.71 E.00839
G1 X101.371 Y107.423 E.01505
G1 X101.786 Y106.343 E.0509
G1 X102.213 Y105.504 E.04142
G2 X102.94 Y104.329 I-9.959 J-6.968 E.06085
G1 X102.976 Y104.024 E.0135
G1 X102.898 Y103.723 E.01371
G2 X102.633 Y103.403 I-.756 J.357 E.01845
G1 X100.238 Y101.663 E.13029
G1 X99.657 Y101.214 E.03231
G1 X99.553 Y101.003 E.01034
G1 X99.558 Y100.776 E.01
G1 X99.692 Y100.54 E.01194
G3 X100.668 Y99.601 I14.174 J13.75 E.0596
G1 X100.891 Y99.542 E.01017
G1 X101.117 Y99.593 E.01017
G1 X101.335 Y99.787 E.01284
G1 X103.433 Y102.675 E.15709
G1 X103.723 Y102.898 E.01608
G1 X104.024 Y102.976 E.01371
G1 X104.215 Y102.967 E.0084
G1 X104.534 Y102.843 E.01508
G1 X105.504 Y102.213 E.0509
M73 P4 R22
M73 P4 R22
G1 X106.343 Y101.786 E.04142
G2 X107.621 Y101.262 I-6.318 J-17.246 E.06081
G1 X107.83 Y101.037 E.01349
G1 X107.944 Y100.748 E.01371
G2 X107.918 Y100.333 I-.821 J-.156 E.01847
G1 X107.003 Y97.517 E.13027
G1 X106.796 Y96.813 E.03233
G1 X106.835 Y96.585 E.01017
G1 X106.974 Y96.4 E.01017
G1 X107.221 Y96.288 E.01191
G3 X108.562 Y96.102 I3.499 J20.265 E.05962
G1 X108.778 Y96.185 E.01017
G1 X108.931 Y96.359 E.01017
G1 X108.993 Y96.644 E.01284
G1 X108.993 Y100.214 E.1571
G1 X109.096 Y100.565 E.0161
G1 X109.294 Y100.805 E.01371
G1 X109.454 Y100.91 E.00839
G1 X109.785 Y100.997 E.01505
G1 X110.94 Y101.058 E.0509
G3 X113.134 Y101.53 I-2.473 J16.822 E.09884
G1 X113.511 Y101.474 E.01679
G1 X113.775 Y101.307 E.01372
G2 X113.998 Y100.955 I-.572 J-.609 E.01851
G1 X114.913 Y98.139 E.13029
G1 X115.16 Y97.448 E.03231
G1 X115.325 Y97.286 E.01017
G1 X115.546 Y97.219 E.01017
G1 X115.811 Y97.274 E.01193
G3 X117.006 Y97.911 I-8.705 J17.746 E.05961
G1 X117.131 Y98.106 E.01017
