;TIME:4361.48
;Filament used:9.38074m
;Layer height:0.200
; HEADER_BLOCK_START
; generated by Creality_Print V6.0.5.1840 on 2025-06-05 at 07:45:52
; total layer number: 45
; filament_density: 1.24
; filament_diameter: 1.75
; max_z_height: 9.00
; HEADER_BLOCK_END

; MINX = 72.75
; MINY = 45.50
; MINZ = 0.00
; MAXX = 147.25
; MAXY = 174.50
; MAXZ = 9.00

; THUMBNAIL_BLOCK_START

;
; THUMBNAIL_BLOCK_END

; THUMBNAIL_BLOCK_START

;
; THUMBNAIL_BLOCK_END

; external perimeters extrusion width = 0.42mm
; perimeters extrusion width = 0.45mm
; infill extrusion width = 0.45mm
; solid infill extrusion width = 0.42mm
; top infill extrusion width = 0.42mm
; support material extrusion width = 0.40mm
; first layer extrusion width = 0.60mm

; EXECUTABLE_BLOCK_START
M73 P0 R72
M201 X5000 Y5000 Z500 E5000
M203 X500 Y500 Z30 E100
M204 P5000 R2500 T5000 ; sets acceleration (P, T) and retract acceleration (R), mm/sec^2
M205 X10.00 Y10.00 Z0.40 E5.00 ; sets the jerk limits, mm/sec
;TYPE:Custom
M220 S100 ;Reset Feedrate 
M221 S100 ;Reset Flowrate 
 
M140 S75 ;Set final bed temp 
G28 ;Home 
 
G92 E0 ;Reset Extruder 
G1 Z2.0 F3000 ;Move Z Axis up 
M104 S200 ;Set final nozzle temp 
G1 X-2.1 Y20 Z0.28 F5000.0 ;Move to start position 
M190 S75 ;Wait for bed temp to stabilize 
M109 S200 ;Wait for nozzle temp to stabilize 
G1 X-2.1 Y145.0 Z0.28 F1500.0 E15 ;Draw the first line 
G1 X-2.4 Y145.0 Z0.28 F5000.0 ;Move to side a little 
G1 X-2.4 Y20 Z0.28 F1500.0 E30 ;Draw the second line 
G92 E0  ;Reset Extruder 
G1 E-1.0000 F1800 ;Retract a bit 
G1 Z2.0 F3000 ;Move Z Axis up 
G1 E0.0000 F1800
G90
G21
M83 ; use relative distances for extrusion
" "
G1 E-1.6 F2400
M106 S0
;LAYER_CHANGE
;Z:0.2
;HEIGHT:0.2
;BEFORE_LAYER_CHANGE
;0.2
G92 E0

;_SET_FAN_SPEED_CHANGING_LAYER
M204 P125
M205 X10 Y10
; printing object Corpo77 id:3978136643238699080 copy 0
M204 T125
G1 Z.4 F9000
G1 X144.898 Y172.936
G1 Z.2
G1 E1.6 F1800
;TYPE:Inner wall
;WIDTH:0.599999
G1 F600
G1 X74.314 Y172.936 E3.10606
G1 X74.314 Y47.064 E5.53901
G1 X145.686 Y47.064 E3.14073
G1 X145.686 Y172.936 E5.53901
G1 X144.938 Y172.936 E.03291
M73 P1 R71
M73 P1 R71
G1 X145.643 Y173.493 F9000
G1 F600
G1 X73.757 Y173.493 E3.16335
G1 X73.757 Y46.507 E5.58804
G1 X146.243 Y46.507 E3.18976
G1 X146.243 Y173.493 E5.58804
G1 X145.683 Y173.493 E.02464
M73 P2 R71
M73 P2 R71
G1 E-1.6 F2400
;WIPE_START
G1 F9000
G1 X143.683 Y173.493
;WIPE_END
G1 X146.8 Y174.05 Z.6
G1 Z.2
G1 E1.6 F1800
;TYPE:Outer wall
G1 F600
G1 X73.2 Y174.05 E3.23879
G1 X73.2 Y45.95 E5.63707
G1 X146.8 Y45.95 E3.23879
M73 P2 R70
M73 P2 R70
G1 X146.8 Y174.01 E5.63531
G1 E-1.6 F2400
M73 P3 R70
;WIPE_START
M73 P3 R70
G1 F9000
G1 X144.8 Y174.011
;WIPE_END
G1 X141.667 Y167.051 Z.6
G1 X100.532 Y75.663 Z.6
G1 Z.2
G1 E1.6 F1800
;TYPE:Inner wall
G1 F600
G1 X100.511 Y75.623 E.00201
G1 X100.436 Y75.171 E.02015
G1 X100.436 Y64.829 E.45514
G1 X100.498 Y64.417 E.01833
G1 X100.673 Y64.051 E.01783
G1 X100.925 Y63.769 E.01663
G1 X101.281 Y63.548 E.01846
G1 X101.733 Y63.436 E.02051
G1 X118.171 Y63.436 E.72336
G1 X118.616 Y63.509 E.01982
G1 X118.996 Y63.706 E.01883
G1 X119.274 Y63.978 E.01713
G1 X119.478 Y64.345 E.01849
G1 X119.564 Y64.756 E.01849
G1 X119.564 Y75.171 E.45832
G1 X119.489 Y75.623 E.02015
G1 X119.286 Y76.007 E.01912
G1 X118.957 Y76.321 E.02
G1 X118.561 Y76.508 E.01927
G1 X118.171 Y76.564 E.01733
G1 X101.829 Y76.564 E.71917
G1 X101.391 Y76.494 E.01952
G1 X100.993 Y76.286 E.01975
G1 X100.714 Y76.007 E.01733
G1 X100.551 Y75.699 E.01535
G1 X101.026 Y75.344 F9000
G1 F600
G1 X100.993 Y75.171 E.00772
G1 X100.993 Y64.829 E.45514
G1 X101.062 Y64.495 E.01499
G1 X101.242 Y64.233 E.01399
G1 X101.5 Y64.06 E.01365
G1 X101.829 Y63.993 E.01475
G1 X118.171 Y63.993 E.71917
G1 X118.5 Y64.06 E.01475
G1 X118.758 Y64.233 E.01365
G1 X118.938 Y64.495 E.01399
G1 X119.007 Y64.829 E.01499
G1 X119.007 Y75.171 E.45514
G1 X118.946 Y75.485 E.01404
G1 X118.76 Y75.765 E.01481
G1 X118.463 Y75.954 E.01549
G1 X118.171 Y76.007 E.01305
G1 X101.829 Y76.007 E.71917
G1 X101.507 Y75.943 E.01442
G1 X101.24 Y75.765 E.01412
G1 X101.054 Y75.485 E.01481
G1 X101.034 Y75.383 E.00456
G1 X101.642 Y75.378 F9000
;TYPE:Outer wall
G1 F600
G1 X101.55 Y75.199 E.00886
G1 X101.55 Y64.829 E.45635
G1 X101.62 Y64.644 E.00868
G1 X101.79 Y64.55 E.00855
G1 X118.171 Y64.55 E.72087
G1 X118.352 Y64.617 E.00848
G1 X118.45 Y64.788 E.00867
G1 X118.45 Y75.171 E.45694
G1 X118.386 Y75.349 E.00833
G1 X118.207 Y75.45 E.00901
G1 X101.829 Y75.45 E.72075
G1 X101.679 Y75.393 E.00704
G1 E-1.6 F2400
;WIPE_START
G1 F9000
G1 X101.55 Y75.199
G1 X101.55 Y73.432
;WIPE_END
G1 Z.6
G1 X100.299 Y75.008
G1 Z.6
G1 Z.2
G1 E1.6 F1800
;TYPE:Bottom surface
;WIDTH:0.601783
G1 F1200
G1 X74.704 Y49.413 E1.59795
G1 X74.704 Y48.623 E.03489
G1 X100.049 Y73.967 E1.5823
G1 X100.049 Y73.177 E.03489
G1 X74.704 Y47.832 E1.58231
G1 X74.704 Y47.454 E.01669
G1 X75.116 Y47.454 E.0182
G1 X100.049 Y72.386 E1.55657
G1 X100.049 Y71.596 E.03489
M73 P3 R69
M73 P3 R69
G1 X75.907 Y47.454 E1.50723
G1 X76.697 Y47.454 E.03489
G1 X100.049 Y70.806 E1.45789
G1 X100.049 Y70.015 E.03489
G1 X77.487 Y47.454 E1.40854
G1 X78.278 Y47.454 E.03489
G1 X100.049 Y69.225 E1.3592
G1 X100.049 Y68.435 E.03489
G1 X79.068 Y47.454 E1.30986
G1 X79.859 Y47.454 E.03489
G1 X100.049 Y67.644 E1.26052
G1 X100.049 Y66.854 E.03489
G1 X80.649 Y47.454 E1.21118
G1 X81.439 Y47.454 E.03489
G1 X100.049 Y66.064 E1.16184
G1 X100.049 Y65.273 E.03489
M73 P4 R69
M73 P4 R69
G1 X82.23 Y47.454 E1.1125
G1 X83.02 Y47.454 E.03489
G1 X100.08 Y64.514 E1.0651
G3 X100.293 Y63.936 I1.735 J.31 E.02732
G1 X83.81 Y47.454 E1.02902
G1 X84.601 Y47.454 E.03489
G1 X100.648 Y63.502 E1.00189
G3 X101.127 Y63.19 I1.065 J1.11 E.02536
G1 X85.391 Y47.454 E.9824
G1 X86.181 Y47.454 E.03489
G1 X101.777 Y63.05 E.97368
G1 X102.563 Y63.046 E.03471
G1 X86.972 Y47.454 E.97343
G1 X87.762 Y47.454 E.03489
G1 X103.354 Y63.046 E.97343
G1 X104.144 Y63.046 E.03489
G1 X88.552 Y47.454 E.97343
G1 X89.343 Y47.454 E.03489
G1 X104.935 Y63.046 E.97343
G1 X105.725 Y63.046 E.03489
G1 X90.133 Y47.454 E.97343
G1 X90.923 Y47.454 E.03489
G1 X106.515 Y63.046 E.97343
G1 X107.306 Y63.046 E.03489
G1 X91.714 Y47.454 E.97343
G1 X92.504 Y47.454 E.03489
G1 X108.096 Y63.046 E.97343
G1 X108.886 Y63.046 E.03489
G1 X93.295 Y47.454 E.97343
G1 X94.085 Y47.454 E.03489
G1 X109.677 Y63.046 E.97343
G1 X110.467 Y63.046 E.03489
G1 X94.875 Y47.454 E.97343
G1 X95.666 Y47.454 E.03489
G1 X111.257 Y63.046 E.97343
G1 X112.048 Y63.046 E.03489
G1 X96.456 Y47.454 E.97343
G1 X97.246 Y47.454 E.03489
G1 X112.838 Y63.046 E.97343
G1 X113.628 Y63.046 E.03489
G1 X98.037 Y47.454 E.97343
G1 X98.827 Y47.454 E.03489
G1 X114.419 Y63.046 E.97343
G1 X115.209 Y63.046 E.03489
G1 X99.617 Y47.454 E.97343
G1 X100.408 Y47.454 E.03489
G1 X115.999 Y63.046 E.97343
G1 X116.79 Y63.046 E.03489
G1 X101.198 Y47.454 E.97343
G1 X101.988 Y47.454 E.03489
G1 X117.58 Y63.046 E.97343
G3 X118.388 Y63.063 I.298 J4.939 E.03571
G1 X102.779 Y47.454 E.97451
G1 X103.569 Y47.454 E.03489
G1 X145.296 Y89.181 E2.60509
G1 X145.296 Y88.391 E.03489
G1 X104.359 Y47.454 E2.55575
G1 X105.15 Y47.454 E.03489
G1 X145.296 Y87.6 E2.50641
G1 X145.296 Y86.81 E.03489
G1 X105.94 Y47.454 E2.45706
G1 X106.73 Y47.454 E.03489
M73 P5 R69
M73 P5 R69
G1 X145.296 Y86.02 E2.40772
G1 X145.296 Y85.229 E.03489
M73 P5 R68
M73 P5 R68
G1 X107.521 Y47.454 E2.35838
G1 X108.311 Y47.454 E.03489
G1 X145.296 Y84.439 E2.30903
G1 X145.296 Y83.648 E.03489
G1 X109.102 Y47.454 E2.25969
G1 X109.892 Y47.454 E.03489
G1 X145.296 Y82.858 E2.21035
G1 X145.296 Y82.068 E.03489
G1 X110.682 Y47.454 E2.161
G1 X111.473 Y47.454 E.03489
G1 X145.296 Y81.277 E2.11166
G1 X145.296 Y80.487 E.03489
G1 X112.263 Y47.454 E2.06232
G1 X113.053 Y47.454 E.03489
G1 X145.296 Y79.697 E2.01297
G1 X145.296 Y78.906 E.03489
G1 X113.844 Y47.454 E1.96363
G1 X114.634 Y47.454 E.03489
G1 X145.296 Y78.116 E1.91429
G1 X145.296 Y77.326 E.03489
G1 X115.424 Y47.454 E1.86494
G1 X116.215 Y47.454 E.03489
G1 X145.296 Y76.535 E1.8156
G1 X145.296 Y75.745 E.03489
G1 X117.005 Y47.454 E1.76626
G1 X117.795 Y47.454 E.03489
G1 X145.296 Y74.955 E1.71691
G1 X145.296 Y74.164 E.03489
G1 X118.586 Y47.454 E1.66757
G1 X119.376 Y47.454 E.03489
G1 X145.296 Y73.374 E1.61823
G1 X145.296 Y72.584 E.03489
G1 X120.166 Y47.454 E1.56888
G1 X120.957 Y47.454 E.03489
G1 X145.296 Y71.793 E1.51954
G1 X145.296 Y71.003 E.03489
M73 P6 R68
M73 P6 R68
G1 X121.747 Y47.454 E1.4702
G1 X122.538 Y47.454 E.03489
G1 X145.296 Y70.212 E1.42085
G1 X145.296 Y69.422 E.03489
G1 X123.328 Y47.454 E1.37151
G1 X124.118 Y47.454 E.03489
G1 X145.296 Y68.632 E1.32217
G1 X145.296 Y67.841 E.03489
G1 X124.909 Y47.454 E1.27282
G1 X125.699 Y47.454 E.03489
G1 X145.296 Y67.051 E1.22348
G1 X145.296 Y66.261 E.03489
G1 X126.489 Y47.454 E1.17414
G1 X127.28 Y47.454 E.03489
G1 X145.296 Y65.47 E1.12479
G1 X145.296 Y64.68 E.03489
G1 X128.07 Y47.454 E1.07545
G1 X128.86 Y47.454 E.03489
G1 X145.296 Y63.89 E1.02611
G1 X145.296 Y63.099 E.03489
G1 X129.651 Y47.454 E.97676
G1 X130.441 Y47.454 E.03489
G1 X145.296 Y62.309 E.92742
G1 X145.296 Y61.519 E.03489
G1 X131.231 Y47.454 E.87808
G1 X132.022 Y47.454 E.03489
G1 X145.296 Y60.728 E.82873
G1 X145.296 Y59.938 E.03489
M73 P6 R67
M73 P6 R67
G1 X132.812 Y47.454 E.77939
G1 X133.602 Y47.454 E.03489
G1 X145.296 Y59.148 E.73005
G1 X145.296 Y58.357 E.03489
G1 X134.393 Y47.454 E.6807
G1 X135.183 Y47.454 E.03489
G1 X145.296 Y57.567 E.63136
G1 X145.296 Y56.776 E.03489
G1 X135.974 Y47.454 E.58202
G1 X136.764 Y47.454 E.03489
G1 X145.296 Y55.986 E.53267
G1 X145.296 Y55.196 E.03489
G1 X137.554 Y47.454 E.48333
G1 X138.345 Y47.454 E.03489
G1 X145.296 Y54.405 E.43399
G1 X145.296 Y53.615 E.03489
G1 X139.135 Y47.454 E.38464
G1 X139.925 Y47.454 E.03489
G1 X145.296 Y52.825 E.3353
G1 X145.296 Y52.034 E.03489
G1 X140.716 Y47.454 E.28596
G1 X141.506 Y47.454 E.03489
G1 X145.296 Y51.244 E.23661
G1 X145.296 Y50.454 E.03489
G1 X142.296 Y47.454 E.18727
G1 X143.087 Y47.454 E.03489
G1 X145.296 Y49.663 E.13793
G1 X145.296 Y48.873 E.03489
G1 X143.877 Y47.454 E.08858
G1 X144.667 Y47.454 E.03489
G1 X145.547 Y48.333 E.05489
G1 E-1.6 F2400
;WIPE_START
G1 F9000
G1 X144.667 Y47.454
G1 X143.911 Y47.454
;WIPE_END
G1 X137.666 Y51.843 Z.6
G1 X119.9 Y64.329 Z.6
G1 Z.2
G1 E1.6 F1800
;TYPE:Gap infill
;WIDTH:0.13891
G1 F600
G2 X119.617 Y63.939 I-4.554 J2.999 E.00366
G1 X119.064 Y63.387 F9000
;WIDTH:0.120411
G1 F600
G1 X118.964 Y63.307 E.00079
;WIDTH:0.156211
G1 X118.858 Y63.235 E.00114
;WIDTH:0.195426
G1 X118.752 Y63.164 E.00154
G1 X118.624 Y63.218 E.00167
G1 E-1.6 F2400
;WIPE_START
G1 F9000
G1 X118.752 Y63.164
G1 X118.858 Y63.235
;WIPE_END
G1 X112.894 Y67.998 Z.6
G1 X101.994 Y76.703 Z.6
G1 Z.2
G1 E1.6 F1800
;TYPE:Bottom surface
;WIDTH:0.601783
G1 F1200
G1 X145.296 Y120.005 E2.70343
G1 X145.296 Y119.214 E.03489
G1 X103.035 Y76.953 E2.63843
G1 X103.825 Y76.953 E.03489
G1 X145.296 Y118.424 E2.58909
G1 X145.296 Y117.634 E.03489
G1 X104.616 Y76.953 E2.53975
G1 X105.406 Y76.953 E.03489
M73 P7 R67
M73 P7 R67
G1 X145.296 Y116.843 E2.4904
G1 X145.296 Y116.053 E.03489
G1 X106.196 Y76.953 E2.44106
G1 X106.987 Y76.953 E.03489
G1 X145.296 Y115.263 E2.39172
G1 X145.296 Y114.472 E.03489
G1 X107.777 Y76.953 E2.34237
G1 X108.568 Y76.953 E.03489
G1 X145.296 Y113.682 E2.29303
G1 X145.296 Y112.891 E.03489
G1 X109.358 Y76.953 E2.24369
G1 X110.148 Y76.953 E.03489
G1 X145.296 Y112.101 E2.19434
G1 X145.296 Y111.311 E.03489
G1 X110.939 Y76.953 E2.145
G1 X111.729 Y76.953 E.03489
G1 X145.296 Y110.52 E2.09566
G1 X145.296 Y109.73 E.03489
G1 X112.519 Y76.953 E2.04631
G1 X113.31 Y76.953 E.03489
G1 X145.296 Y108.94 E1.99697
G1 X145.296 Y108.149 E.03489
G1 X114.1 Y76.953 E1.94763
G1 X114.89 Y76.953 E.03489
G1 X145.296 Y107.359 E1.89828
G1 X145.296 Y106.569 E.03489
G1 X115.681 Y76.953 E1.84894
G1 X116.471 Y76.953 E.03489
M73 P7 R66
M73 P7 R66
G1 X145.296 Y105.778 E1.7996
G1 X145.296 Y104.988 E.03489
G1 X117.261 Y76.953 E1.75025
G1 X118.052 Y76.953 E.03489
G1 X145.296 Y104.198 E1.70091
G1 X145.296 Y103.407 E.03489
G1 X118.74 Y76.851 E1.65796
G2 X119.258 Y76.579 I-.35 J-1.296 E.02605
M73 P8 R66
M73 P8 R66
G1 X145.296 Y102.617 E1.6256
G1 X145.296 Y101.827 E.03489
G1 X119.642 Y76.172 E1.60165
G2 X119.889 Y75.629 I-1.518 J-1.02 E.02646
G1 X145.296 Y101.036 E1.5862
G1 X145.296 Y100.246 E.03489
G1 X119.952 Y74.902 E1.5823
G1 X119.952 Y74.111 E.03488
G1 X145.296 Y99.455 E1.58228
G1 X145.296 Y98.665 E.03489
G1 X119.952 Y73.321 E1.58227
G1 X119.952 Y72.531 E.03488
G1 X145.296 Y97.875 E1.58226
G1 X145.296 Y97.084 E.03489
G1 X119.952 Y71.741 E1.58225
G1 X119.953 Y70.951 E.03488
G1 X145.296 Y96.294 E1.58223
G1 X145.296 Y95.504 E.03489
G1 X119.953 Y70.161 E1.58222
G1 X119.953 Y69.37 E.03488
G1 X145.296 Y94.713 E1.58221
G1 X145.296 Y93.923 E.03489
G1 X119.953 Y68.58 E1.5822
G1 X119.953 Y67.79 E.03488
G1 X145.296 Y93.133 E1.58219
G1 X145.296 Y92.342 E.03489
G1 X119.954 Y67 E1.58217
G1 X119.954 Y66.21 E.03488
G1 X145.296 Y91.552 E1.58216
G1 X145.296 Y90.762 E.03489
G1 X119.954 Y65.42 E1.58215
G2 X119.942 Y64.617 I-6.613 J-.299 E.03547
G1 X145.547 Y90.222 E1.59858
G1 E-1.6 F2400
;WIPE_START
G1 F9000
G1 X144.132 Y88.808
;WIPE_END
G1 X144.467 Y96.433 Z.6
G1 X145.547 Y121.046 Z.6
G1 Z.2
G1 E1.6 F1800
G1 F1200
G1 X74.704 Y50.203 E4.42284
G1 X74.704 Y50.994 E.03489
G1 X145.296 Y121.585 E4.40719
G1 X145.296 Y122.376 E.03489
M73 P9 R66
M73 P9 R66
G1 X74.704 Y51.784 E4.40719
G1 X74.704 Y52.574 E.03489
G1 X145.296 Y123.166 E4.40719
G1 X145.296 Y123.956 E.03489
M73 P9 R65
M73 P9 R65
G1 X74.704 Y53.365 E4.40719
G1 X74.704 Y54.155 E.03489
G1 X145.296 Y124.747 E4.40719
G1 X145.296 Y125.537 E.03489
G1 X74.704 Y54.945 E4.40719
G1 X74.704 Y55.736 E.03489
G1 X145.296 Y126.327 E4.40719
G1 X145.296 Y127.118 E.03489
G1 X74.704 Y56.526 E4.40719
G1 X74.704 Y57.316 E.03489
G1 X145.296 Y127.908 E4.40719
G1 X145.296 Y128.698 E.03489
G1 X74.704 Y58.107 E4.40719
G1 X74.704 Y58.897 E.03489
M73 P10 R65
M73 P10 R65
G1 X145.296 Y129.489 E4.40719
G1 X145.296 Y130.279 E.03489
G1 X74.704 Y59.687 E4.40719
G1 X74.704 Y60.478 E.03489
G1 X145.296 Y131.07 E4.40719
G1 X145.296 Y131.86 E.03489
G1 X74.704 Y61.268 E4.40719
G1 X74.704 Y62.058 E.03489
G1 X145.296 Y132.65 E4.40719
G1 X145.296 Y133.441 E.03489
M73 P10 R64
M73 P10 R64
G1 X74.704 Y62.849 E4.40719
G1 X74.704 Y63.639 E.03489
G1 X145.296 Y134.231 E4.40719
G1 X145.296 Y135.021 E.03489
G1 X74.704 Y64.43 E4.40719
G1 X74.704 Y65.22 E.03489
M73 P11 R64
M73 P11 R64
G1 X145.296 Y135.812 E4.40719
G1 X145.296 Y136.602 E.03489
G1 X74.704 Y66.01 E4.40719
G1 X74.704 Y66.801 E.03489
G1 X145.296 Y137.392 E4.40719
G1 X145.296 Y138.183 E.03489
G1 X74.704 Y67.591 E4.40719
G1 X74.704 Y68.381 E.03489
G1 X145.296 Y138.973 E4.40719
G1 X145.296 Y139.763 E.03489
G1 X74.704 Y69.172 E4.40719
G1 X74.704 Y69.962 E.03489
G1 X145.296 Y140.554 E4.40719
G1 X145.296 Y141.344 E.03489
G1 X74.704 Y70.752 E4.40719
G1 X74.704 Y71.543 E.03489
G1 X145.296 Y142.134 E4.40719
G1 X145.296 Y142.925 E.03489
M73 P12 R63
M73 P12 R63
G1 X74.704 Y72.333 E4.40719
G1 X74.704 Y73.123 E.03489
G1 X145.296 Y143.715 E4.40719
G1 X145.296 Y144.506 E.03489
G1 X74.704 Y73.914 E4.40719
G1 X74.704 Y74.704 E.03489
G1 X145.296 Y145.296 E4.40719
G1 X145.296 Y146.086 E.03489
G1 X74.704 Y75.494 E4.40719
G1 X74.704 Y76.285 E.03489
G1 X145.296 Y146.877 E4.40719
G1 X145.296 Y147.667 E.03489
G1 X74.704 Y77.075 E4.40719
G1 X74.704 Y77.866 E.03489
G1 X145.296 Y148.457 E4.40719
G1 X145.296 Y149.248 E.03489
G1 X74.704 Y78.656 E4.40719
G1 X74.704 Y79.446 E.03489
M73 P13 R63
M73 P13 R63
G1 X145.296 Y150.038 E4.40719
G1 X145.296 Y150.828 E.03489
G1 X74.704 Y80.237 E4.40719
G1 X74.704 Y81.027 E.03489
M73 P13 R62
M73 P13 R62
G1 X145.296 Y151.619 E4.40719
G1 X145.296 Y152.409 E.03489
G1 X74.704 Y81.817 E4.40719
G1 X74.704 Y82.608 E.03489
G1 X145.296 Y153.199 E4.40719
G1 X145.296 Y153.99 E.03489
G1 X74.704 Y83.398 E4.40719
G1 X74.704 Y84.188 E.03489
G1 X145.296 Y154.78 E4.40719
G1 X145.296 Y155.57 E.03489
G1 X74.704 Y84.979 E4.40719
G1 X74.704 Y85.769 E.03489
M73 P14 R62
M73 P14 R62
G1 X145.296 Y156.361 E4.40719
G1 X145.296 Y157.151 E.03489
G1 X74.704 Y86.559 E4.40719
G1 X74.704 Y87.35 E.03489
G1 X145.296 Y157.942 E4.40719
G1 X145.296 Y158.732 E.03489
G1 X74.704 Y88.14 E4.40719
