;TIME:3228.95
;Filament used:4.40655m
;Layer height:0.200
; HEADER_BLOCK_START
; generated by Creality_Print V6.0.5.1840 on 2025-06-01 at 17:25:14
; total layer number: 220
; filament_density: 1.24
; filament_diameter: 1.75
; max_z_height: 44.00
; HEADER_BLOCK_END

; MINX = 88.00
; MINY = 56.00
; MINZ = 0.00
; MAXX = 132.00
; MAXY = 164.00
; MAXZ = 44.00

; THUMBNAIL_BLOCK_START

;
; THUMBNAIL_BLOCK_END

; THUMBNAIL_BLOCK_START

;
; THUMBNAIL_BLOCK_END

; external perimeters extrusion width = 0.42mm
; perimeters extrusion width = 0.45mm
; infill extrusion width = 0.45mm
; solid infill extrusion width = 0.42mm
; top infill extrusion width = 0.42mm
; support material extrusion width = 0.40mm
; first layer extrusion width = 0.60mm

; EXECUTABLE_BLOCK_START
M73 P0 R53
M201 X5000 Y5000 Z500 E5000
M203 X500 Y500 Z30 E100
M204 P5000 R2500 T5000 ; sets acceleration (P, T) and retract acceleration (R), mm/sec^2
M205 X10.00 Y10.00 Z0.40 E5.00 ; sets the jerk limits, mm/sec
;TYPE:Custom
M220 S100 ;Reset Feedrate 
M221 S100 ;Reset Flowrate 
 
M140 S75 ;Set final bed temp 
G28 ;Home 
 
G92 E0 ;Reset Extruder 
G1 Z2.0 F3000 ;Move Z Axis up 
M104 S200 ;Set final nozzle temp 
G1 X-2.1 Y20 Z0.28 F5000.0 ;Move to start position 
M190 S75 ;Wait for bed temp to stabilize 
M109 S200 ;Wait for nozzle temp to stabilize 
G1 X-2.1 Y145.0 Z0.28 F1500.0 E15 ;Draw the first line 
G1 X-2.4 Y145.0 Z0.28 F5000.0 ;Move to side a little 
G1 X-2.4 Y20 Z0.28 F1500.0 E30 ;Draw the second line 
G92 E0  ;Reset Extruder 
G1 E-1.0000 F1800 ;Retract a bit 
G1 Z2.0 F3000 ;Move Z Axis up 
G1 E0.0000 F1800
G90
G21
M83 ; use relative distances for extrusion
" "
G1 E-1.6 F2400
M106 S0
;LAYER_CHANGE
;Z:0.2
;HEIGHT:0.2
;BEFORE_LAYER_CHANGE
;0.2
G92 E0

;_SET_FAN_SPEED_CHANGING_LAYER
M204 P125
M205 X10 Y10
; printing object Braccio Lungo 1 id:85569720085381433 copy 0
M204 T125
G1 Z.4 F9000
G1 X128.567 Y158.092
G1 Z.2
G1 E1.6 F1800
;TYPE:Inner wall
;WIDTH:0.599999
G1 F600
G1 X128.582 Y147.54 E.46435
G1 X130.436 Y144.892 E.14223
G1 X130.436 Y160.19 E.67319
G1 X128.536 Y160.19 E.08362
G1 X128.564 Y160.105 E.00396
G1 X128.567 Y158.132 E.08682
G1 E-1.6 F2400
;WIPE_START
G1 F9000
G1 X128.57 Y156.132
;WIPE_END
G1 X127.945 Y160.288 Z.6
G1 Z.2
G1 E1.6 F1800
G1 F600
G1 X128.007 Y160.104 E.00855
G1 X128.025 Y147.394 E.5593
G1 X128.293 Y146.981 E.02165
G1 X130.988 Y143.132 E.2068
G1 X130.993 Y143.168 E.00159
G1 X130.993 Y160.747 E.77359
G1 X127.91 Y160.747 E.13565
G1 X127.758 Y160.77 E.00678
;WIDTH:0.554984
G1 X127.605 Y160.792 E.00624
;WIDTH:0.509969
G1 X127.453 Y160.815 E.00569
;WIDTH:0.464954
G1 X127.3 Y160.837 E.00514
G1 X127.435 Y160.779 E.00489
;WIDTH:0.509969
G1 X127.57 Y160.721 E.00541
;WIDTH:0.554984
G1 X127.705 Y160.663 E.00594
;WIDTH:0.599999
G1 X127.839 Y160.605 E.00646
G1 X127.933 Y160.326 E.01294
G1 E-1.6 F2400
;WIPE_START
G1 F9000
G1 X128.007 Y160.104
G1 X128.01 Y158.338
;WIPE_END
G1 X121.44 Y154.453 Z.6
G1 X89.564 Y135.603 Z.6
G1 Z.2
G1 E1.6 F1800
G1 F600
G1 X89.564 Y57.564 E3.43413
G1 X92.436 Y57.564 E.12637
G1 X92.436 Y144.969 E3.84626
G1 X92.508 Y146.485 E.06681
M73 P1 R53
M73 P1 R53
G1 X92.716 Y147.972 E.06605
G1 X93.065 Y149.46 E.06728
G1 X93.558 Y150.929 E.06819
G1 X94.17 Y152.313 E.06658
G1 X94.917 Y153.654 E.06753
G1 X95.788 Y154.924 E.06779
G1 X96.761 Y156.095 E.067
G1 X97.838 Y157.172 E.06701
G1 X99.018 Y158.152 E.06752
G1 X100.268 Y159.008 E.06664
G1 X101.623 Y159.764 E.06828
G1 X102.589 Y160.19 E.04646
G1 X89.564 Y160.19 E.57315
G1 X89.564 Y135.643 E1.08019
G1 E-1.6 F2400
;WIPE_START
G1 F9000
G1 X89.564 Y133.643
;WIPE_END
G1 X89.209 Y141.267 Z.6
G1 X89.007 Y145.597 Z.6
G1 Z.2
G1 E1.6 F1800
G1 F600
G1 X89.007 Y57.007 E3.89844
G1 X92.993 Y57.007 E.1754
M73 P1 R52
M73 P1 R52
G1 X92.993 Y144.955 E3.87019
G1 X93.063 Y146.433 E.06511
M73 P2 R52
M73 P2 R52
G1 X93.264 Y147.869 E.06381
G1 X93.602 Y149.307 E.065
G1 X94.078 Y150.728 E.06592
G1 X94.669 Y152.065 E.06432
G1 X95.391 Y153.36 E.06526
G1 X96.233 Y154.588 E.06552
G1 X97.173 Y155.72 E.06474
G1 X98.214 Y156.76 E.06475
G1 X99.354 Y157.707 E.06525
G1 X100.561 Y158.534 E.06438
G1 X101.872 Y159.265 E.06601
G1 X103.214 Y159.857 E.06457
G1 X104.612 Y160.326 E.06489
;WIDTH:0.629807
G1 X105.356 Y160.518 E.03563
;WIDTH:0.659615
G1 X106.101 Y160.709 E.03743
G3 X105.313 Y160.732 I-.553 J-5.419 E.0384
;WIDTH:0.629807
G1 X104.613 Y160.747 E.03245
;WIDTH:0.599999
G1 X89.007 Y160.747 E.68676
G1 X89.007 Y145.637 E.66491
G1 E-1.6 F2400
;WIPE_START
G1 F9000
G1 X89.007 Y143.637
;WIPE_END
G1 X95.999 Y146.698 Z.6
G1 X127.214 Y160.36 Z.6
G1 Z.2
G1 E1.6 F1800
;TYPE:Outer wall
G1 F600
G1 X127.394 Y160.27 E.00887
G1 X127.45 Y160.103 E.00775
G1 X127.468 Y147.278 E.56437
G1 X127.571 Y147.041 E.01139
G1 X130.512 Y142.841 E.22565
G1 X130.76 Y142.612 E.01484
G1 X131.029 Y142.557 E.01204
G1 X131.292 Y142.642 E.01219
G1 X131.478 Y142.838 E.01188
G1 X131.55 Y143.168 E.01484
G1 X131.55 Y160.961 E.78299
G1 X131.514 Y161.304 E.01519
G1 X88.486 Y161.304 E1.89348
G1 X88.45 Y160.98 E.01437
G1 X88.45 Y56.45 E4.59986
G1 X93.55 Y56.45 E.22443
G1 X93.55 Y144.942 E3.89412
G1 X93.619 Y146.381 E.06341
M73 P3 R52
M73 P3 R52
G1 X93.812 Y147.767 E.06156
G1 X94.138 Y149.155 E.06273
G1 X94.598 Y150.526 E.06365
G1 X95.168 Y151.816 E.06206
G1 X95.865 Y153.067 E.06299
G1 X96.678 Y154.252 E.06325
G1 X97.585 Y155.344 E.06248
G1 X98.589 Y156.348 E.06249
G1 X99.69 Y157.262 E.06298
G1 X100.855 Y158.06 E.06212
G1 X102.12 Y158.765 E.06375
G1 X103.415 Y159.337 E.0623
G1 X104.776 Y159.793 E.06313
G1 X106.164 Y160.119 E.06273
G1 X107.576 Y160.316 E.06274
G1 X108.99 Y160.381 E.06229
G1 X127.171 Y160.381 E.8001
G1 X127.178 Y160.378 E.00032
G1 E-1.6 F2400
;WIPE_START
G1 F9000
G1 X127.394 Y160.27
G1 X127.45 Y160.103
G1 X127.452 Y158.521
;WIPE_END
G1 X119.86 Y159.299 Z.6
G1 X106.094 Y160.71 Z.6
G1 Z.2
G1 E1.6 F1800
;TYPE:Inner wall
;WIDTH:0.674814
G1 F600
G1 X106.381 Y160.73 E.01437
;WIDTH:0.634652
G1 X106.668 Y160.75 E.01345
;WIDTH:0.59449
G1 X106.956 Y160.77 E.01254
;WIDTH:0.554327
G1 X107.243 Y160.79 E.01163
;WIDTH:0.514165
G1 X107.53 Y160.809 E.01071
;WIDTH:0.474002
G1 X108.254 Y160.826 E.02468
;WIDTH:0.441371
G1 X108.979 Y160.843 E.02281
;WIDTH:0.40874
G1 X127.171 Y160.843 E.52571
;WIDTH:0.419938
G1 X127.3 Y160.837 E.00384
G1 E-1.6 F2400
;WIPE_START
G1 F9000
G1 X127.171 Y160.843
G1 X125.3 Y160.843
;WIPE_END
G1 Z.6
G1 X128.705 Y158.872
G1 Z.6
G1 Z.2
G1 E1.6 F1800
;TYPE:Bottom surface
;WIDTH:0.625983
G1 F1200
G1 X129.634 Y159.8 E.06049
G1 X130.046 Y159.8 E.01898
G1 X130.046 Y159.388 E.019
G1 X128.957 Y158.298 E.07095
G1 X128.958 Y157.475 E.03792
G1 X130.046 Y158.563 E.07087
G1 X130.046 Y157.739 E.03798
G1 X128.959 Y156.652 E.0708
G1 X128.96 Y155.828 E.03792
G1 X130.046 Y156.914 E.07072
G1 X130.046 Y156.089 E.03798
M73 P3 R51
M73 P3 R51
G1 X128.961 Y155.005 E.07064
G1 X128.963 Y154.181 E.03792
G1 X130.046 Y155.265 E.07057
G1 X130.046 Y154.44 E.03798
G1 X128.964 Y153.358 E.07049
G1 X128.965 Y152.535 E.03792
G1 X130.046 Y153.616 E.07041
G1 X130.046 Y152.791 E.03798
G1 X128.966 Y151.711 E.07034
G1 X128.967 Y150.888 E.03792
G1 X130.046 Y151.967 E.07026
G1 X130.046 Y151.142 E.03798
G1 X128.968 Y150.064 E.07019
G1 X128.97 Y149.241 E.03792
G1 X130.046 Y150.317 E.07011
G1 X130.046 Y149.493 E.03798
G1 X128.971 Y148.418 E.07003
G1 X128.972 Y147.663 E.03475
G1 X129 Y147.622 E.00228
G1 X130.046 Y148.668 E.06811
G1 X130.046 Y147.844 E.03798
G1 X129.34 Y147.138 E.04599
G1 X129.679 Y146.653 E.02727
G1 X130.297 Y147.27 E.0402
G1 E-1.6 F2400
;WIPE_START
G1 F9000
G1 X129.679 Y146.653
G1 X129.34 Y147.138
G1 X129.718 Y147.516
;WIPE_END
G1 X122.587 Y150.236 Z.6
G1 X99.673 Y158.975 Z.6
G1 Z.2
G1 E1.6 F1800
;TYPE:Gap infill
;WIDTH:0.147947
G1 F600
G1 X99.845 Y159.118 E.00186
;WIDTH:0.167036
G1 X100.017 Y159.261 E.00219
;WIDTH:0.207512
G1 X100.144 Y159.358 E.00208
;WIDTH:0.24996
G1 X100.266 Y159.45 E.00251
;WIDTH:0.291559
G1 X100.389 Y159.543 E.00301
;WIDTH:0.333159
G1 X100.511 Y159.636 E.00352
;WIDTH:0.374758
G1 X100.633 Y159.729 E.00402
;WIDTH:0.396826
G1 X100.64 Y159.734 E.00024
G1 X100.311 Y160.051 F9000
;TYPE:Bottom surface
;WIDTH:0.601439
G1 F1200
G1 X89.954 Y149.694 E.64619
G1 X89.954 Y150.484 E.03485
G1 X99.27 Y159.8 E.58127
G1 X98.48 Y159.8 E.03485
G1 X89.954 Y151.274 E.53199
G1 X89.954 Y152.064 E.03485
G1 X97.691 Y159.8 E.48271
G1 X96.901 Y159.8 E.03485
G1 X89.954 Y152.854 E.43342
G1 X89.954 Y153.644 E.03485
G1 X96.111 Y159.8 E.38414
G1 X95.321 Y159.8 E.03485
G1 X89.954 Y154.433 E.33486
G1 X89.954 Y155.223 E.03485
G1 X94.531 Y159.8 E.28558
G1 X93.741 Y159.8 E.03485
G1 X89.954 Y156.013 E.23629
G1 X89.954 Y156.803 E.03485
G1 X92.951 Y159.8 E.18701
G1 X92.162 Y159.8 E.03485
G1 X89.954 Y157.593 E.13773
G1 X89.954 Y158.383 E.03485
G1 X91.372 Y159.8 E.08845
G1 X90.582 Y159.8 E.03485
G1 X89.703 Y158.922 E.0548
G1 E-1.6 F2400
;WIPE_START
G1 F9000
G1 X90.582 Y159.8
G1 X91.34 Y159.8
;WIPE_END
G1 X92.376 Y152.239 Z.6
G1 X92.764 Y149.408 Z.6
G1 Z.2
G1 E1.6 F1800
;TYPE:Gap infill
;WIDTH:0.132912
G1 F600
G1 X92.667 Y149.643 E.00181
G1 E-1.6 F2400
;WIPE_START
G1 F9000
G1 X92.764 Y149.408
;WIPE_END
G1 X93.512 Y151.863 Z.6
G1 Z.2
G1 E1.6 F1800
;WIDTH:0.244007
G1 F600
G1 X93.598 Y151.987 E.0024
;WIDTH:0.222097
G1 X93.684 Y152.112 E.00214
;WIDTH:0.178277
G1 X93.77 Y152.237 E.00162
;WIDTH:0.134456
G1 X93.855 Y152.362 E.00109
;WIDTH:0.111158
G1 X93.879 Y152.395 E.00022
G1 E-1.6 F2400
;WIPE_START
G1 F9000
G1 X93.855 Y152.362
;WIPE_END
G1 X94.985 Y154.287 Z.6
G1 Z.2
G1 E1.6 F1800
;WIDTH:0.124274
G1 F600
G1 X94.854 Y154.129 E.00132
;WIDTH:0.138777
G1 X94.722 Y153.971 E.00156
G1 X94.871 Y153.822 F9000
;TYPE:Bottom surface
;WIDTH:0.601439
G1 F1200
G1 X89.954 Y148.904 E.30681
G1 X89.954 Y148.114 E.03485
G1 X93.424 Y151.584 E.2165
G1 X93.226 Y151.141 E.02143
G1 X92.95 Y150.321 E.03816
G1 X89.954 Y147.325 E.18695
G1 X89.954 Y146.535 E.03485
G1 X92.599 Y149.18 E.16505
G1 X92.36 Y148.15 E.04665
G1 X89.954 Y145.745 E.15008
G1 X89.954 Y144.955 E.03485
G1 X92.217 Y147.218 E.1412
G3 X92.116 Y146.327 I4.962 J-1.013 E.0396
G1 X89.954 Y144.165 E.13491
G1 X89.954 Y143.375 E.03485
G1 X92.074 Y145.495 E.13228
G3 X92.046 Y144.677 I8.045 J-.688 E.03613
G1 X89.954 Y142.585 E.13051
G1 X89.954 Y141.796 E.03485
G1 X92.046 Y143.887 E.13051
G1 X92.046 Y143.097 E.03485
G1 X89.954 Y141.006 E.13051
G1 X89.954 Y140.216 E.03485
G1 X92.046 Y142.308 E.13051
G1 X92.046 Y141.518 E.03485
G1 X89.954 Y139.426 E.13051
G1 X89.954 Y138.636 E.03485
G1 X92.046 Y140.728 E.13051
G1 X92.046 Y139.938 E.03485
G1 X89.954 Y137.846 E.13051
G1 X89.954 Y137.056 E.03485
G1 X92.046 Y139.148 E.13051
G1 X92.046 Y138.358 E.03485
G1 X89.954 Y136.266 E.13051
G1 X89.954 Y135.477 E.03485
G1 X92.046 Y137.568 E.13051
G1 X92.046 Y136.779 E.03485
G1 X89.954 Y134.687 E.13051
G1 X89.954 Y133.897 E.03485
G1 X92.046 Y135.989 E.13051
G1 X92.046 Y135.199 E.03485
G1 X89.954 Y133.107 E.13051
G1 X89.954 Y132.317 E.03485
G1 X92.046 Y134.409 E.13051
G1 X92.046 Y133.619 E.03485
G1 X89.954 Y131.527 E.13051
G1 X89.954 Y130.737 E.03485
G1 X92.046 Y132.829 E.13051
G1 X92.046 Y132.039 E.03485
G1 X89.954 Y129.948 E.13051
G1 X89.954 Y129.158 E.03485
G1 X92.046 Y131.249 E.13051
G1 X92.046 Y130.46 E.03485
G1 X89.954 Y128.368 E.13051
G1 X89.954 Y127.578 E.03485
G1 X92.046 Y129.67 E.13051
G1 X92.046 Y128.88 E.03485
G1 X89.954 Y126.788 E.13051
G1 X89.954 Y125.998 E.03485
G1 X92.046 Y128.09 E.13051
G1 X92.046 Y127.3 E.03485
G1 X89.954 Y125.208 E.13051
G1 X89.954 Y124.419 E.03485
G1 X92.046 Y126.51 E.13051
G1 X92.046 Y125.72 E.03485
G1 X89.954 Y123.629 E.13051
M73 P4 R51
M73 P4 R51
G1 X89.954 Y122.839 E.03485
G1 X92.046 Y124.931 E.13051
G1 X92.046 Y124.141 E.03485
G1 X89.954 Y122.049 E.13051
G1 X89.954 Y121.259 E.03485
G1 X92.046 Y123.351 E.13051
G1 X92.046 Y122.561 E.03485
G1 X89.954 Y120.469 E.13051
G1 X89.954 Y119.679 E.03485
G1 X92.046 Y121.771 E.13051
G1 X92.046 Y120.981 E.03485
G1 X89.954 Y118.889 E.13051
G1 X89.954 Y118.1 E.03485
G1 X92.046 Y120.191 E.13051
G1 X92.046 Y119.402 E.03485
G1 X89.954 Y117.31 E.13051
G1 X89.954 Y116.52 E.03485
G1 X92.046 Y118.612 E.13051
G1 X92.046 Y117.822 E.03485
G1 X89.954 Y115.73 E.13051
G1 X89.954 Y114.94 E.03485
G1 X92.046 Y117.032 E.13051
G1 X92.046 Y116.242 E.03485
G1 X89.954 Y114.15 E.13051
G1 X89.954 Y113.36 E.03485
G1 X92.046 Y115.452 E.13051
G1 X92.046 Y114.662 E.03485
G1 X89.954 Y112.571 E.13051
G1 X89.954 Y111.781 E.03485
G1 X92.046 Y113.872 E.13051
G1 X92.046 Y113.083 E.03485
G1 X89.954 Y110.991 E.13051
G1 X89.954 Y110.201 E.03485
G1 X92.046 Y112.293 E.13051
G1 X92.046 Y111.503 E.03485
G1 X89.954 Y109.411 E.13051
G1 X89.954 Y108.621 E.03485
G1 X92.046 Y110.713 E.13051
G1 X92.046 Y109.923 E.03485
G1 X89.954 Y107.831 E.13051
G1 X89.954 Y107.041 E.03485
G1 X92.046 Y109.133 E.13051
G1 X92.046 Y108.343 E.03485
G1 X89.954 Y106.252 E.13051
G1 X89.954 Y105.462 E.03485
G1 X92.046 Y107.554 E.13051
G1 X92.046 Y106.764 E.03485
G1 X89.954 Y104.672 E.13051
G1 X89.954 Y103.882 E.03485
G1 X92.046 Y105.974 E.13051
G1 X92.046 Y105.184 E.03485
G1 X89.954 Y103.092 E.13051
G1 X89.954 Y102.302 E.03485
G1 X92.046 Y104.394 E.13051
G1 X92.046 Y103.604 E.03485
G1 X89.954 Y101.512 E.13051
G1 X89.954 Y100.723 E.03485
G1 X92.046 Y102.814 E.13051
G1 X92.046 Y102.024 E.03485
G1 X89.954 Y99.933 E.13051
G1 X89.954 Y99.143 E.03485
G1 X92.046 Y101.235 E.13051
G1 X92.046 Y100.445 E.03485
G1 X89.954 Y98.353 E.13051
G1 X89.954 Y97.563 E.03485
G1 X92.046 Y99.655 E.13051
G1 X92.046 Y98.865 E.03485
G1 X89.954 Y96.773 E.13051
G1 X89.954 Y95.983 E.03485
G1 X92.046 Y98.075 E.13051
G1 X92.046 Y97.285 E.03485
G1 X89.954 Y95.193 E.13051
G1 X89.954 Y94.404 E.03485
G1 X92.046 Y96.495 E.13051
G1 X92.046 Y95.706 E.03485
G1 X89.954 Y93.614 E.13051
G1 X89.954 Y92.824 E.03485
G1 X92.046 Y94.916 E.13051
G1 X92.046 Y94.126 E.03485
G1 X89.954 Y92.034 E.13051
G1 X89.954 Y91.244 E.03485
G1 X92.046 Y93.336 E.13051
G1 X92.046 Y92.546 E.03485
G1 X89.954 Y90.454 E.13051
G1 X89.954 Y89.664 E.03485
G1 X92.046 Y91.756 E.13051
G1 X92.046 Y90.966 E.03485
G1 X89.954 Y88.875 E.13051
G1 X89.954 Y88.085 E.03485
G1 X92.046 Y90.176 E.13051
G1 X92.046 Y89.387 E.03485
G1 X89.954 Y87.295 E.13051
G1 X89.954 Y86.505 E.03485
G1 X92.046 Y88.597 E.13051
G1 X92.046 Y87.807 E.03485
G1 X89.954 Y85.715 E.13051
G1 X89.954 Y84.925 E.03485
G1 X92.046 Y87.017 E.13051
G1 X92.046 Y86.227 E.03485
G1 X89.954 Y84.135 E.13051
G1 X89.954 Y83.346 E.03485
G1 X92.046 Y85.437 E.13051
G1 X92.046 Y84.647 E.03485
G1 X89.954 Y82.556 E.13051
G1 X89.954 Y81.766 E.03485
G1 X92.046 Y83.858 E.13051
G1 X92.046 Y83.068 E.03485
G1 X89.954 Y80.976 E.13051
G1 X89.954 Y80.186 E.03485
G1 X92.046 Y82.278 E.13051
G1 X92.046 Y81.488 E.03485
G1 X89.954 Y79.396 E.13051
G1 X89.954 Y78.606 E.03485
G1 X92.046 Y80.698 E.13051
G1 X92.046 Y79.908 E.03485
G1 X89.954 Y77.816 E.13051
G1 X89.954 Y77.027 E.03485
G1 X92.046 Y79.118 E.13051
G1 X92.046 Y78.329 E.03485
G1 X89.954 Y76.237 E.13051
G1 X89.954 Y75.447 E.03485
G1 X92.046 Y77.539 E.13051
G1 X92.046 Y76.749 E.03485
G1 X89.954 Y74.657 E.13051
G1 X89.954 Y73.867 E.03485
G1 X92.046 Y75.959 E.13051
G1 X92.046 Y75.169 E.03485
G1 X89.954 Y73.077 E.13051
G1 X89.954 Y72.287 E.03485
G1 X92.046 Y74.379 E.13051
G1 X92.046 Y73.589 E.03485
G1 X89.954 Y71.498 E.13051
G1 X89.954 Y70.708 E.03485
G1 X92.046 Y72.799 E.13051
G1 X92.046 Y72.01 E.03485
G1 X89.954 Y69.918 E.13051
G1 X89.954 Y69.128 E.03485
G1 X92.046 Y71.22 E.13051
G1 X92.046 Y70.43 E.03485
G1 X89.954 Y68.338 E.13051
G1 X89.954 Y67.548 E.03485
G1 X92.046 Y69.64 E.13051
G1 X92.046 Y68.85 E.03485
G1 X89.954 Y66.758 E.13051
G1 X89.954 Y65.968 E.03485
G1 X92.046 Y68.06 E.13051
G1 X92.046 Y67.27 E.03485
G1 X89.954 Y65.179 E.13051
G1 X89.954 Y64.389 E.03485
G1 X92.046 Y66.481 E.13051
G1 X92.046 Y65.691 E.03485
G1 X89.954 Y63.599 E.13051
G1 X89.954 Y62.809 E.03485
G1 X92.046 Y64.901 E.13051
G1 X92.046 Y64.111 E.03485
G1 X89.954 Y62.019 E.13051
G1 X89.954 Y61.229 E.03485
G1 X92.046 Y63.321 E.13051
G1 X92.046 Y62.531 E.03485
G1 X89.954 Y60.439 E.13051
G1 X89.954 Y59.65 E.03485
G1 X92.046 Y61.741 E.13051
G1 X92.046 Y60.951 E.03485
G1 X89.954 Y58.86 E.13051
G1 X89.954 Y58.07 E.03485
G1 X92.046 Y60.162 E.13051
G1 X92.046 Y59.372 E.03485
