;TIME:2959.57
;Filament used:3.40198m
;Layer height:0.200
; HEADER_BLOCK_START
; generated by Creality_Print V6.0.5.1840 on 2025-06-05 at 21:04:23
; total layer number: 98
; filament_density: 1.24
; filament_diameter: 1.75
; max_z_height: 19.60
; HEADER_BLOCK_END

; MINX = 72.09
; MINY = 92.04
; MINZ = 0.00
; MAXX = 147.91
; MAXY = 127.96
; MAXZ = 19.60

; THUMBNAIL_BLOCK_START

;
; THUMBNAIL_BLOCK_END

; THUMBNAIL_BLOCK_START

;
; THUMBNAIL_BLOCK_END

; external perimeters extrusion width = 0.42mm
; perimeters extrusion width = 0.45mm
; infill extrusion width = 0.45mm
; solid infill extrusion width = 0.42mm
; top infill extrusion width = 0.42mm
; support material extrusion width = 0.40mm
; first layer extrusion width = 0.60mm

; EXECUTABLE_BLOCK_START
M73 P0 R49
M201 X5000 Y5000 Z500 E5000
M203 X500 Y500 Z30 E100
M204 P5000 R2500 T5000 ; sets acceleration (P, T) and retract acceleration (R), mm/sec^2
M205 X10.00 Y10.00 Z0.40 E5.00 ; sets the jerk limits, mm/sec
;TYPE:Custom
M220 S100 ;Reset Feedrate 
M221 S100 ;Reset Flowrate 
 
M140 S75 ;Set final bed temp 
G28 ;Home 
 
G92 E0 ;Reset Extruder 
G1 Z2.0 F3000 ;Move Z Axis up 
M104 S200 ;Set final nozzle temp 
G1 X-2.1 Y20 Z0.28 F5000.0 ;Move to start position 
M190 S75 ;Wait for bed temp to stabilize 
M109 S200 ;Wait for nozzle temp to stabilize 
G1 X-2.1 Y145.0 Z0.28 F1500.0 E15 ;Draw the first line 
G1 X-2.4 Y145.0 Z0.28 F5000.0 ;Move to side a little 
G1 X-2.4 Y20 Z0.28 F1500.0 E30 ;Draw the second line 
G92 E0  ;Reset Extruder 
G1 E-1.0000 F1800 ;Retract a bit 
G1 Z2.0 F3000 ;Move Z Axis up 
G1 E0.0000 F1800
G90
G21
M83 ; use relative distances for extrusion
" "
G1 E-1.6 F2400
M106 S0
;LAYER_CHANGE
;Z:0.2
;HEIGHT:0.2
;BEFORE_LAYER_CHANGE
;0.2
G92 E0

;_SET_FAN_SPEED_CHANGING_LAYER
M204 P125
M205 X10 Y10
; printing object Stopper id:1876019627840 copy 0
M204 T125
G1 Z.4 F9000
G1 X68.865 Y100.66
G1 Z.2
G1 E1.6 F1800
;TYPE:Support
;WIDTH:0.6
G1 F600
G3 X73.56 Y107.735 I-.269 J5.274 E.43406
G2 X75.054 Y106.818 I.013 J-1.654 E.08132
G3 X77.807 Y106.084 I3.565 J7.837 E.12596
G3 X79.304 Y106.883 I-.309 J2.379 E.07631
G1 X78.553 Y107.242 E.03661
G1 X77.282 Y108.201 E.07005
G1 X77.282 Y114.583 E.28085
G1 X79.373 Y114.583 E.092
G3 X77.948 Y116.139 I-2.094 J-.487 E.09703
G3 X77.542 Y116.45 I-.526 J-.266 E.02326
G3 X71.811 Y113.575 I-4.721 J2.263 E1.14404
G2 X71.366 Y112.658 I-.611 J-.27 E.051
G3 X70.951 Y110.635 I2.69 J-1.607 E.09261
G3 X68.782 Y100.655 I-2.327 J-4.72 E.8406
G1 X78.431 Y115.651 F9000
M73 P0 R48
M73 P0 R48
G1 F600
G1 X78.431 Y115.084 E.02496
G1 X77.812 Y115.084 E.02724
G1 X77.812 Y115.921 E.03682
G1 E-1.6 F2400
;WIPE_START
G1 F600
G1 X77.812 Y115.084
G1 X78.431 Y115.084
G1 X78.431 Y115.629
;WIPE_END
G1 X77.854 Y108.018 Z.6 F9000
G1 X77.812 Y107.467 Z.6
G1 Z.2
G1 E1.6 F1800
G1 F600
G1 X77.812 Y106.604 E.03796
G2 X77.193 Y106.686 I-.217 J.744 E.02828
G1 X77.193 Y107.634 E.04172
G1 X76.781 Y107.957 E.02304
G1 X76.781 Y115.084 E.31365
G1 X77.193 Y115.084 E.01813
G1 X77.193 Y120.656 E.24516
G3 X76.574 Y121.696 I-3.175 J-1.185 E.05355
G1 X76.574 Y106.873 E.65228
G2 X75.955 Y106.941 I-.239 J.676 E.02834
G1 X75.955 Y122.352 E.67817
G3 X75.336 Y122.805 I-1.559 J-1.478 E.03395
G1 X75.336 Y107.269 E.6837
G3 X74.717 Y107.859 I-.782 J-.2 E.03967
G1 X74.717 Y123.127 E.67189
G3 X74.098 Y123.351 I-.926 J-1.593 E.02912
M73 P1 R48
M73 P1 R48
G1 X74.098 Y108.077 E.67214
G1 X73.479 Y108.295 E.02888
G1 X73.479 Y123.492 E.66875
G3 X72.86 Y123.522 I-.391 J-1.691 E.02742
G1 X72.86 Y103.759 E.86968
G2 X72.241 Y102.777 I-5.526 J2.797 E.05116
G1 X72.241 Y123.482 E.91116
G3 X71.622 Y123.371 I-.003 J-1.761 E.02782
G1 X71.622 Y114.164 E.40516
G1 X71.003 Y114.365 E.02864
G1 X71.003 Y123.17 E.38745
G3 X70.384 Y122.847 I.579 J-1.867 E.03088
G1 X70.384 Y114.688 E.35906
G2 X69.765 Y115.134 I.92 J1.929 E.03376
G1 X69.765 Y122.401 E.3198
G3 X69.146 Y121.773 I1.42 J-2.019 E.039
G1 X69.146 Y115.762 E.26456
G2 X68.527 Y116.708 I6.116 J4.676 E.0498
G1 X68.527 Y121.32 E.20295
G1 E-1.6 F2400
;WIPE_START
G1 F600
G1 X68.527 Y119.32
;WIPE_END
G1 X71.622 Y112.556 Z.6 F9000
G1 Z.2
G1 E1.6 F1800
G1 F600
G1 X71.622 Y102.18 E.45659
G1 X71.003 Y101.763 E.03285
G1 X71.003 Y110.064 E.36531
G1 X70.384 Y110.338 E.02977
G1 X70.384 Y101.481 E.38973
G2 X69.765 Y101.292 I-.838 J1.63 E.02864
G1 X69.765 Y110.527 E.40641
G3 X69.146 Y110.639 I-.621 J-1.666 E.02783
G1 X69.146 Y101.179 E.41628
G1 X68.527 Y101.142 E.02729
G1 X68.527 Y110.676 E.41956
G3 X67.908 Y110.608 I-.12 J-1.752 E.02755
G1 X67.908 Y101.211 E.41354
G2 X67.289 Y101.351 I.078 J1.782 E.02808
G1 X67.289 Y110.468 E.40122
G3 X66.67 Y110.247 I.299 J-1.815 E.02908
G1 X66.67 Y101.572 E.38177
G1 X66.051 Y101.891 E.03066
G1 X66.051 Y109.927 E.35363
G1 X65.432 Y109.45 E.0344
G1 X65.432 Y102.369 E.3116
G2 X64.813 Y103.035 I1.506 J2.021 E.04023
G1 X64.813 Y108.784 E.25299
G3 X64.194 Y107.656 I5.241 J-3.61 E.05672
G1 X64.194 Y103.55 E.18065
G1 E-1.6 F2400
;WIPE_START
G1 F600
G1 X64.194 Y105.55
;WIPE_END
G1 X71.794 Y106.258 Z.6 F9000
G1 X80.392 Y107.059 Z.6
G1 Z.2
G1 E1.6 F1800
;TYPE:Support interface
;WIDTH:0.4
G1 F600
G1 X80.448 Y108.328 E.03582
G1 X79.562 Y107.442 E.03534
G1 X79.071 Y107.827 E.01761
G1 X79.071 Y107.674 E.00432
G1 X78.69 Y107.781 E.01117
G1 X80.448 Y109.54 E.07014
G1 X80.448 Y110.752 E.03419
G1 X77.968 Y108.271 E.09894
G1 X77.761 Y108.434 E.00741
G1 X77.761 Y109.277 E.02378
G1 X80.448 Y111.964 E.10719
G1 X80.448 Y113.176 E.03419
G1 X77.761 Y110.489 E.10719
G1 X77.761 Y111.701 E.03419
G1 X80.269 Y114.209 E.10005
G1 X78.952 Y114.104 E.03726
M73 P2 R48
M73 P2 R48
G1 X77.761 Y112.913 E.04752
G1 X77.761 Y114.104 E.0336
G1 X78.774 Y114.104 E.02857
G1 E-1.6 F2400
;WIPE_START
G1 F600
G1 X77.761 Y114.104
G1 X77.761 Y113.117
;WIPE_END
G1 X84.993 Y114.084 Z.6 F9000
G1 Z.2
G1 E1.6 F1800
G1 F600
G1 X85.385 Y114.476 E.01564
G2 X86.255 Y114.135 I.344 J-.403 E.0323
G1 X85.07 Y112.949 E.04729
G1 X85.124 Y112.771 E.00524
G3 X85.168 Y111.835 I.517 J-.445 E.02916
G1 X86.111 Y112.778 E.03762
G2 X86.065 Y111.521 I-1.014 J-.593 E.03745
G1 X84.979 Y110.434 E.04334
G3 X84.997 Y109.24 I10.338 J-.443 E.03371
G1 X86.39 Y110.633 E.05559
G2 X86.274 Y109.317 I-2.689 J-.427 E.03766
G1 X85.22 Y108.251 E.0423
G3 X85.29 Y107.109 I.515 J-.541 E.03674
G1 X86.195 Y108.014 E.03608
G2 X86.08 Y106.687 I-2.35 J-.466 E.03805
G1 X84.994 Y105.601 E.04333
G3 X85.586 Y104.981 I2.358 J1.66 E.02427
G1 X86.447 Y105.842 E.03435
G3 X86.105 Y106.514 I-1.314 J-.246 E.02155
G1 X86.46 Y105.664 F9000
G1 F600
G1 X86.46 Y105.653 E.00031
G2 X85.748 Y104.905 I-.621 J-.122 E.03409
G1 E-1.6 F2400
;WIPE_START
G1 F600
G1 X86.068 Y104.846
G1 X86.192 Y104.966
G1 X86.46 Y105.653
G1 X86.46 Y105.664
;WIPE_END
G1 X93.683 Y103.199 Z.6 F9000
G1 X134.272 Y89.349 Z.6
G1 Z.2
G1 E1.6 F1800
;TYPE:Support
;WIDTH:0.6
G1 F600
G3 X137.108 Y90.914 I-.408 J4.093 E.14653
G3 X140.992 Y91.052 I1.803 J3.949 E.17728
G3 X142.888 Y91.197 I.675 J3.66 E.08465
G3 X146.147 Y91.799 I.673 J5.475 E.14813
G3 X149.075 Y95.414 I-.623 J3.498 E.22317
G1 X149.863 Y96.428 E.0565
G2 X149.862 Y98.092 I4.076 J.832 E.07371
G3 X145.383 Y99.701 I-2.8 J-.757 E.2456
G2 X144.237 Y100.67 I1.88 J3.388 E.06646
G3 X141.423 Y100.421 I-1.163 J-2.883 E.12906
G2 X139.822 Y101.199 I.488 J3.04 E.07946
G3 X136.689 Y100.916 I-1.337 J-2.675 E.14577
G3 X134.835 Y101.069 I-1.17 J-2.86 E.08315
G3 X131.813 Y101.025 I-1.476 J-2.489 E.13995
G3 X129.383 Y100.425 I-.285 J-4.062 E.11196
G2 X126.97 Y101.918 I216.354 J352.241 E.12485
G3 X123.856 Y100.906 I-.839 J-2.716 E.15359
G3 X122.023 Y100.572 I-.466 J-2.644 E.08373
G3 X120.431 Y101.034 I-1.678 J-2.81 E.07375
G3 X118.456 Y101.62 I-2.105 J-3.472 E.09163
G2 X117.508 Y102.829 I1.101 J1.84 E.06915
G3 X114.283 Y103.524 I-2.079 J-1.818 E.15555
G2 X113.142 Y104.561 I1.665 J2.98 E.06847
G2 X111.796 Y105.745 I2.02 J3.653 E.07947
G2 X110.069 Y107.361 I5.146 J7.23 E.10441
G3 X109.196 Y107.833 I-1.219 J-1.212 E.04431
G3 X108.418 Y109.282 I-7.963 J-3.344 E.07247
G3 X108.76 Y110.083 I-1.12 J.952 E.03892
G3 X110.685 Y111.835 I-1.076 J3.115 E.11773
G2 X111.205 Y112.418 I.453 J.119 E.04066
G3 X112.479 Y114.344 I-1.558 J2.415 E.1046
G2 X113.49 Y115.074 I2.086 J-1.825 E.05533
G2 X114.226 Y116.651 I7.733 J-2.65 E.07674
G2 X116.024 Y117.206 I1.354 J-1.197 E.08709
G3 X117.288 Y117.9 I.076 J1.359 E.06685
G3 X118.062 Y118.654 I-.264 J1.046 E.04983
G3 X119.999 Y119.6 I-.259 J2.987 E.09703
G3 X122.6 Y120.333 I.667 J2.616 E.12453
G1 X123.622 Y120.212 E.04528
G3 X124.661 Y119.266 I2.352 J1.538 E.0625
G3 X129.609 Y117.959 I2.689 J.162 E.297
G3 X132.589 Y117.628 I1.752 J2.195 E.13916
G3 X135.797 Y117.714 I1.542 J2.356 E.15027
G3 X138.757 Y118.27 I.993 J2.87 E.13867
G3 X141.865 Y118.311 I1.518 J2.689 E.14334
G3 X143.686 Y118.704 I.297 J3.045 E.08333
G3 X145.236 Y118.873 I.552 J2.127 E.07013
G3 X148.237 Y123.246 I.953 J2.562 E.31888
G3 X147.091 Y125.9 I-2.135 J.652 E.13837
G1 X146.585 Y126.451 E.03289
G3 X143.732 Y125.968 I-.886 J-3.432 E.13114
G3 X141.99 Y126.497 I-2.067 J-3.678 E.08076
G2 X140.397 Y125.928 I-5.145 J11.898 E.07447
G3 X139.511 Y124.755 I3.94 J-3.897 E.0649
G3 X138.345 Y124.76 I-.594 J-2.39 E.05182
G3 X135.708 Y125.544 I-2.146 J-2.392 E.12507
G2 X134.252 Y125.515 I-.751 J1.125 E.0677
G3 X132.105 Y125.037 I-.405 J-3.241 E.0987
G3 X130.067 Y125.323 I-1.519 J-3.417 E.09176
G3 X126.603 Y126.031 I-2.192 J-1.896 E.16734
G2 X125.752 Y127.18 I6.407 J5.635 E.06299
G1 X125.692 Y127.211 E.00298
M73 P2 R47
M73 P2 R47
G3 X119.246 Y128.914 I-3.962 J-1.944 E.33258
G3 X115.491 Y125.988 I.292 J-4.246 E.22232
G3 X113.344 Y124.45 I.429 J-2.866 E.12064
G3 X111.789 Y123.62 I1.117 J-3.966 E.07818
G3 X109.111 Y122.876 I-.758 J-2.463 E.12921
G3 X108.27 Y121.573 I.685 J-1.364 E.07156
G3 X106.451 Y119.411 I1.196 J-2.853 E.12914
G3 X105.36 Y118.33 I.934 J-2.033 E.06898
G1 X104.842 Y117.799 E.03264
G1 X104.816 Y116.765 E.04554
G3 X103.614 Y115.668 I1.59 J-2.949 E.07231
G3 X101.683 Y114.951 I.039 J-3.064 E.09244
G3 X98.606 Y113.683 I-.541 J-3.055 E.15458
G2 X97.608 Y114.36 I-.051 J.998 E.05693
G3 X94.86 Y114.779 I-1.751 J-2.264 E.12776
G3 X92.834 Y115.384 I-2.284 J-3.95 E.09391
G3 X89.303 Y116.088 I-2.192 J-1.791 E.1717
G3 X87.575 Y116.036 I-.773 J-3.05 E.07704
G3 X86.54 Y116.447 I-1.379 J-1.962 E.04946
G1 X82.386 Y116.597 E.18293
G1 X83.428 Y115.355 E.07131
G1 X83.622 Y115.549 E.01209
G1 X84.849 Y115.549 E.05402
G2 X85.23 Y114.929 I-.12 J-.5 E.03557
G2 X86.415 Y114.907 I.563 J-1.574 E.0533
G2 X86.529 Y113.011 I-1.416 J-1.036 E.08829
G2 X86.56 Y111.302 I-1.678 J-.886 E.07802
G2 X86.732 Y109.084 I-2.623 J-1.319 E.10043
G3 X86.743 Y107.43 I2.455 J-.81 E.07407
G2 X86.559 Y106.704 I-14.383 J3.264 E.03298
G2 X86.127 Y104.359 I-1.13 J-1.004 E.12088
G2 X85.12 Y104.72 I.007 J1.602 E.04798
G2 X84.432 Y104.449 I-.48 J.209 E.03615
G1 X84.692 Y102.727 E.07665
G1 X86.277 Y102.966 E.07054
G3 X90.412 Y103.767 I1.666 J2.475 E.20576
G3 X93.304 Y103.349 I1.84 J2.512 E.13385
G3 X94.988 Y102.879 I1.587 J2.436 E.07816
G3 X98.81 Y102.705 I2.027 J2.465 E.18053
G3 X101.777 Y102.226 I1.905 J2.37 E.13834
M73 P3 R47
M73 P3 R47
G3 X103.777 Y102.092 I1.277 J4.045 E.08902
G2 X105.321 Y100.916 I-2.854 J-5.35 E.08579
G3 X106.805 Y100.285 I2.423 J3.639 E.07137
G3 X107.854 Y99.506 I1.599 J1.058 E.05866
G3 X110.339 Y97.15 I2.919 J.591 E.16053
G3 X111.6 Y97.331 I.219 J2.957 E.0565
G3 X112.167 Y95.576 I5.17 J.701 E.0816
G2 X113.454 Y94.725 I-1.287 J-3.344 E.06845
G3 X115.361 Y94.645 I1.137 J4.345 E.08461
G3 X118.644 Y93.859 I2.125 J1.625 E.16077
G3 X120.71 Y93.15 I1.953 J2.327 E.09834
G3 X124.045 Y92.218 I2.416 J2.214 E.1605
G3 X124.639 Y92.125 I.48 J1.117 E.02677
G3 X131.135 Y90.514 I3.888 J1.776 E.33827
G3 X134.188 Y89.344 I2.962 J3.161 E.14755
G1 X148.994 Y99.109 F9000
G1 F600
G1 X148.994 Y96.127 E.13123
G1 X148.552 Y95.557 E.03175
G2 X148.375 Y94.244 I-3.098 J-.252 E.05875
G1 X148.375 Y99.343 E.2244
G3 X147.756 Y99.634 I-.952 J-1.223 E.03034
G1 X147.756 Y93.202 E.28303
G2 X147.137 Y92.699 I-1.406 J1.097 E.03541
G1 X147.137 Y99.73 E.30943
G3 X146.518 Y99.668 I-.196 J-1.155 E.02771
G1 X146.518 Y92.394 E.3201
G3 X145.899 Y92.244 I.343 J-2.769 E.02809
G1 X145.899 Y99.423 E.31591
G1 X145.28 Y99.16 E.02959
G1 X145.28 Y92.026 E.31394
G2 X144.661 Y91.771 I-.856 J1.2 E.02971
G1 X144.661 Y99.597 E.34438
G2 X144.042 Y100.147 I1.083 J1.843 E.03666
G1 X144.042 Y91.644 E.37417
G2 X143.423 Y91.626 I-.347 J1.316 E.02749
G1 X143.423 Y100.36 E.38435
G3 X142.804 Y100.381 I-.352 J-1.27 E.02751
G1 X142.804 Y91.695 E.38223
G2 X142.186 Y91.526 I-2.064 J6.334 E.02825
G1 X142.186 Y100.243 E.3836
G3 X141.567 Y99.897 I.314 J-1.288 E.03159
G1 X141.567 Y91.493 E.36982
G2 X140.948 Y91.569 I-.094 J1.784 E.02759
G1 X140.948 Y100.062 E.37372
G3 X140.329 Y100.227 I-.606 J-1.028 E.02854
G1 X140.329 Y91.313 E.39225
G2 X139.71 Y91.114 I-.771 J1.333 E.02884
G1 X139.71 Y100.637 E.41906
G3 X139.091 Y100.936 I-.723 J-.706 E.03087
G1 X139.091 Y91.019 E.43641
G1 X138.472 Y91.031 E.02724
G1 X138.472 Y101.045 E.44066
G3 X137.853 Y100.958 I.04 J-2.545 E.02757
G1 X137.853 Y91.165 E.43094
G2 X137.234 Y91.41 I.255 J1.552 E.02951
G1 X137.234 Y100.672 E.4076
G1 X136.615 Y100.401 E.02974
G1 X136.615 Y91.134 E.40782
G1 X135.996 Y90.533 E.03796
G1 X135.996 Y100.614 E.44361
G3 X135.377 Y100.641 I-.37 J-1.377 E.02748
G1 X135.377 Y90.157 E.46133
G2 X134.758 Y89.942 I-.771 J1.22 E.02909
G1 X134.683 Y100.541 E.46642
G3 X134.139 Y100.847 I-.695 J-.598 E.02804
G1 X134.139 Y89.843 E.4842
G2 X133.52 Y89.863 I-.261 J1.496 E.02744
G1 X133.52 Y100.998 E.48997
G3 X132.901 Y100.961 I-.181 J-2.171 E.02738
G1 X132.901 Y89.989 E.48281
G2 X132.282 Y90.247 I.374 J1.769 E.02968
M73 P4 R47
M73 P4 R47
G1 X132.282 Y100.719 E.4608
G2 X131.663 Y100.544 I-.41 J.268 E.03089
G1 X131.663 Y90.679 E.43411
G1 X131.209 Y91.177 E.02967
G1 X131.044 Y91.062 E.00887
G1 X131.044 Y100.567 E.41827
G3 X130.425 Y100.432 I-.04 J-1.308 E.02816
G1 X130.425 Y90.63 E.43134
G2 X129.806 Y90.344 I-2.066 J3.646 E.03005
G1 X129.806 Y100.095 E.42912
G1 X129.334 Y99.81 E.02426
G1 X129.187 Y99.934 E.00849
G1 X129.187 Y90.183 E.42911
G2 X128.568 Y90.118 I-.456 J1.383 E.0276
G1 X128.568 Y100.396 E.45225
G2 X127.949 Y100.645 I2.122 J6.167 E.02937
G1 X127.949 Y90.15 E.46181
G2 X127.33 Y90.306 I.846 J4.684 E.0281
G1 X127.33 Y101.166 E.47791
G3 X126.711 Y101.47 I-1.272 J-1.806 E.03047
G1 X126.711 Y90.585 E.47899
G2 X126.092 Y91.015 I.669 J1.625 E.03341
G1 X126.092 Y101.57 E.4645
G3 X125.473 Y101.482 I.052 J-2.574 E.02758
G1 X125.473 Y91.682 E.43125
G3 X124.854 Y92.612 I-3.566 J-1.702 E.04934
G1 X124.854 Y101.189 E.37744
G3 X124.235 Y100.578 I.535 J-1.161 E.03906
G1 X124.235 Y92.683 E.3474
G3 X123.616 Y92.616 I-.192 J-1.119 E.02775
G1 X123.616 Y100.407 E.34282
G3 X122.997 Y100.389 I-.285 J-.845 E.02783
G1 X122.997 Y92.574 E.34388
G2 X122.378 Y92.685 I-.113 J1.156 E.02802
G1 X122.378 Y100.167 E.32925
G1 X121.919 Y100.002 E.02145
G1 X121.759 Y100.138 E.00923
G1 X121.759 Y92.95 E.31632
G2 X121.14 Y93.434 I.553 J1.344 E.03502
G1 X121.14 Y100.423 E.30755
G3 X120.521 Y100.523 I-.489 J-1.058 E.02794
G1 X120.521 Y93.633 E.30319
G2 X119.902 Y93.681 I-.215 J1.255 E.0276
G1 X119.902 Y100.824 E.31432
G3 X119.283 Y101.07 I-.65 J-.731 E.02992
G1 X119.283 Y94.05 E.30893
G3 X118.664 Y94.405 I-.783 J-.649 E.03207
M73 P4 R46
M73 P4 R46
G1 X118.664 Y101.136 E.2962
G2 X118.045 Y101.311 I-.223 J.391 E.03152
G1 X118.045 Y94.17 E.31426
G2 X117.426 Y94.092 I-.639 J2.608 E.02751
G1 X117.426 Y101.965 E.34642
G3 X116.807 Y102.764 I-1.413 J-.455 E.04539
G1 X116.807 Y94.2 E.37687
G2 X116.188 Y94.518 I.243 J1.233 E.03103
G1 X116.188 Y103.135 E.3792
G3 X115.57 Y103.268 I-.779 J-2.128 E.02795
G1 X115.57 Y95.158 E.35686
G1 X114.951 Y95.125 E.02728
G1 X114.951 Y103.223 E.35637
G3 X114.332 Y102.988 I.231 J-1.543 E.02936
G1 X114.332 Y95.091 E.3475
G2 X113.713 Y95.191 I-.081 J1.474 E.0278
G1 X113.713 Y103.351 E.35909
G3 X113.094 Y103.727 I-.944 J-.855 E.03233
M73 P5 R46
M73 P5 R46
G1 X113.094 Y95.68 E.35412
G2 X112.475 Y96.159 I-.045 J.582 E.03774
G1 X112.475 Y104.469 E.36568
G3 X111.856 Y104.843 I-.827 J-.669 E.03248
G1 X111.856 Y97.923 E.30452
G1 X111.237 Y97.751 E.02827
G1 X111.237 Y105.579 E.34448
