;TIME:10171.19
;Filament used:15.98035m
;Layer height:0.200
; HEADER_BLOCK_START
; generated by Creality_Print V6.0.5.1840 on 2025-06-01 at 18:56:58
; total layer number: 95
; filament_density: 1.24
; filament_diameter: 1.75
; max_z_height: 19.00
; HEADER_BLOCK_END

; MINX = 76.00
; MINY = 50.00
; MINZ = 0.00
; MAXX = 144.00
; MAXY = 170.00
; MAXZ = 19.00

; THUMBNAIL_BLOCK_START

;
; THUMBNAIL_BLOCK_END

; THUMBNAIL_BLOCK_START

;
; THUMBNAIL_BLOCK_END

; external perimeters extrusion width = 0.42mm
; perimeters extrusion width = 0.45mm
; infill extrusion width = 0.45mm
; solid infill extrusion width = 0.42mm
; top infill extrusion width = 0.42mm
; first layer extrusion width = 0.60mm

; EXECUTABLE_BLOCK_START
M73 P0 R169
M201 X5000 Y5000 Z500 E5000
M203 X500 Y500 Z30 E100
M204 P5000 R2500 T5000 ; sets acceleration (P, T) and retract acceleration (R), mm/sec^2
M205 X10.00 Y10.00 Z0.40 E5.00 ; sets the jerk limits, mm/sec
;TYPE:Custom
M220 S100 ;Reset Feedrate 
M221 S100 ;Reset Flowrate 
 
M140 S75 ;Set final bed temp 
G28 ;Home 
 
G92 E0 ;Reset Extruder 
G1 Z2.0 F3000 ;Move Z Axis up 
M104 S200 ;Set final nozzle temp 
G1 X-2.1 Y20 Z0.28 F5000.0 ;Move to start position 
M190 S75 ;Wait for bed temp to stabilize 
M109 S200 ;Wait for nozzle temp to stabilize 
G1 X-2.1 Y145.0 Z0.28 F1500.0 E15 ;Draw the first line 
G1 X-2.4 Y145.0 Z0.28 F5000.0 ;Move to side a little 
G1 X-2.4 Y20 Z0.28 F1500.0 E30 ;Draw the second line 
G92 E0  ;Reset Extruder 
G1 E-1.0000 F1800 ;Retract a bit 
G1 Z2.0 F3000 ;Move Z Axis up 
G1 E0.0000 F1800
G90
G21
M83 ; use relative distances for extrusion
" "
G1 E-1.6 F2400
M106 S0
;LAYER_CHANGE
;Z:0.2
;HEIGHT:0.2
;BEFORE_LAYER_CHANGE
;0.2
G92 E0

;_SET_FAN_SPEED_CHANGING_LAYER
M204 P125
M205 X10 Y10
; printing object Base id:95 copy 0
M204 T125
G1 Z.4 F9000
G1 X84.771 Y81.385
G1 Z.2
G1 E1.6 F1800
;TYPE:Inner wall
;WIDTH:0.599999
G1 F600
G1 X84.932 Y81.375 E.00708
G1 X85.259 Y81.398 E.01442
G1 X85.472 Y81.591 E.01266
G3 X86.413 Y83.131 I-5.804 J4.606 E.07962
G1 X86.489 Y83.536 E.01813
G3 X86.336 Y85.011 I-15.425 J-.859 E.06528
G1 X86.251 Y86.168 E.05104
G1 X86.253 Y86.949 E.03436
G1 X86.446 Y89.814 E.12639
G1 X86.439 Y90.678 E.038
G3 X85.937 Y92.584 I-7.986 J-1.084 E.08696
G1 X84.479 Y96.125 E.16853
G3 X83.409 Y97.94 I-9.462 J-4.356 E.09288
G1 X81.61 Y100.19 E.12675
G1 X80.452 Y101.767 E.08611
G1 X79.771 Y102.92 E.0589
G1 X78.8 Y104.93 E.09824
G1 X78.072 Y106.165 E.06308
G1 X77.715 Y106.936 E.03743
G1 X77.564 Y107.427 E.0226
G1 X77.564 Y51.564 E2.45827
G1 X140.161 Y51.564 E2.75458
G1 X140.16 Y89.101 E1.65181
G1 X139.708 Y88.422 E.03591
G1 X138.338 Y86.54 E.10244
G1 X136.604 Y84.419 E.12052
G2 X133.964 Y82.163 I-11.226 J10.465 E.15318
M73 P0 R168
M73 P0 R168
G1 X133.397 Y81.867 E.02815
G1 X132.215 Y81.383 E.05618
G1 X131.597 Y81.086 E.03018
G1 X129.483 Y79.911 E.10643
G1 X128.376 Y79.479 E.05231
G3 X125.086 Y78.523 I13.279 J-51.858 E.1508
G1 X124.228 Y78.317 E.03883
G2 X123.716 Y76.011 I-3.25 J-.489 E.1063
G1 X123.384 Y75.533 E.02564
G1 X122.782 Y74.931 E.03745
G1 X121.982 Y74.367 E.04308
G1 X121.223 Y73.999 E.03711
G1 X120.317 Y73.72 E.04173
G1 X119.545 Y73.598 E.03436
G2 X117.931 Y73.632 I-.65 J7.648 E.0712
G1 X115.226 Y74.036 E.12034
G1 X114.135 Y74.154 E.04831
G1 X112.174 Y74.244 E.08636
G1 X110.639 Y74.221 E.06754
G1 X107.628 Y74.062 E.13268
G1 X100.945 Y73.492 E.29517
G1 X98.766 Y73.383 E.09601
G2 X94.968 Y73.53 I-.681 J31.406 E.16735
G1 X90.925 Y74.188 E.18025
G1 X90.015 Y74.238 E.04014
G1 X86.963 Y74.129 E.13438
G1 X85.524 Y74.214 E.06343
G1 X84.431 Y74.404 E.04881
G2 X82.537 Y75.15 I1.388 J6.306 E.08993
G1 X82.149 Y75.44 E.02133
G1 X81.767 Y75.88 E.02563
G1 X81.543 Y76.32 E.02173
G1 X81.433 Y76.892 E.02564
G1 X81.489 Y77.412 E.02303
G1 X81.696 Y77.895 E.02311
G1 X81.989 Y78.32 E.02272
G1 X81.942 Y78.959 E.02819
G1 X81.985 Y79.477 E.02289
G1 X82.119 Y79.898 E.01943
G1 X82.452 Y80.483 E.02961
G1 X82.655 Y80.683 E.01255
G1 X83.154 Y81.059 E.02749
G2 X83.946 Y81.36 I2.713 J-5.932 E.03732
G2 X84.408 Y81.408 I.535 J-2.908 E.02045
G1 X84.731 Y81.387 E.01427
G1 E-1.6 F2400
;WIPE_START
G1 F9000
G1 X84.932 Y81.375
G1 X85.259 Y81.398
G1 X85.472 Y81.591
G1 X85.822 Y82.07
G1 X86.138 Y82.569
;WIPE_END
G1 X88.567 Y89.805 Z.6
G1 X105.88 Y141.402 Z.6
G1 Z.2
G1 E1.6 F1800
G1 F600
G1 X105.663 Y141.107 E.01614
G1 X104.246 Y139.581 E.09163
G1 X104.012 Y139.053 E.02541
G1 X103.388 Y137.003 E.09428
G1 X102.769 Y135.574 E.06852
G1 X102.771 Y135.498 E.00336
G1 X104.278 Y132.921 E.1314
G1 X104.847 Y131.732 E.05798
G1 X105.157 Y130.707 E.04715
G1 X105.537 Y128.792 E.08592
G3 X106.268 Y127.093 I4.837 J1.075 E.08183
G1 X106.746 Y126.503 E.03343
G1 X109.117 Y124.011 E.15134
G1 X109.776 Y123.232 E.04492
G1 X110.107 Y122.65 E.02948
G1 X110.287 Y122.066 E.02687
G1 X110.316 Y121.657 E.01806
G1 X110.218 Y121.06 E.02661
G2 X109.692 Y120.022 I-5.651 J2.214 E.05129
G3 X108.239 Y117.93 I17.382 J-13.62 E.11217
G1 X107.89 Y117.475 E.02524
G1 X107.391 Y117.018 E.02978
G1 X107.095 Y116.813 E.01582
G1 X106.394 Y116.479 E.03415
G1 X105.554 Y116.269 E.03814
G1 X104.894 Y116.191 E.02925
G1 X104.251 Y116.206 E.02828
;WIDTH:0.569893
G1 X103.609 Y116.222 E.02675
;WIDTH:0.539787
G1 X103.428 Y116.257 E.00722
;WIDTH:0.503916
G1 X103.248 Y116.293 E.0067
;WIDTH:0.468044
G1 X101.825 Y116.496 E.04826
;WIDTH:0.461208
G1 X101.3 Y116.596 E.01769
;WIDTH:0.491241
G1 X100.19 Y116.809 E.04002
;WIDTH:0.488745
G1 X99.826 Y116.647 E.014
G1 X100.219 Y116.394 E.01643
;WIDTH:0.491241
G3 X101.233 Y116.184 I1.207 J3.269 E.03681
;WIDTH:0.461208
G1 X101.764 Y116.113 E.01769
;WIDTH:0.431174
G1 X102.253 Y116.052 E.01514
;WIDTH:0.46462
G1 X102.685 Y115.97 E.01463
;WIDTH:0.502204
G1 X103.116 Y115.887 E.01593
;WIDTH:0.539787
G1 X103.547 Y115.805 E.01724
;WIDTH:0.569893
G1 X104.222 Y115.619 E.02912
;WIDTH:0.599999
G2 X107.69 Y114.401 I-5.369 J-20.826 E.16196
G1 X109.316 Y113.546 E.08085
G1 X112.751 Y111.493 E.1761
G2 X114.368 Y110.295 I-9.075 J-13.934 E.08858
;WIDTH:0.638261
G1 X114.717 Y109.995 E.02163
;WIDTH:0.676523
G1 X115.067 Y109.696 E.02303
;WIDTH:0.698951
G2 X115.858 Y108.823 I-6.6 J-6.774 E.0611
;WIDTH:0.66673
G1 X117.105 Y107.431 E.0921
;WIDTH:0.646366
G1 X118.063 Y106.337 E.06932
;WIDTH:0.598255
G1 X118.56 Y105.818 E.03152
;WIDTH:0.560072
G1 X119.057 Y105.299 E.02935
;WIDTH:0.521889
G1 X119.554 Y104.781 E.02719
;WIDTH:0.496738
G1 X120.242 Y104.02 E.03676
;WIDTH:0.544061
G1 X120.757 Y103.384 E.03239
;WIDTH:0.58564
G1 X121.058 Y102.971 E.02191
;WIDTH:0.627218
G1 X121.359 Y102.558 E.02359
;WIDTH:0.668796
G1 X121.66 Y102.145 E.02527
;WIDTH:0.706838
G1 X121.805 Y101.911 E.0144
;WIDTH:0.744879
G1 X121.95 Y101.678 E.01523
;WIDTH:0.78292
G1 X122.095 Y101.445 E.01605
;WIDTH:0.81222
G1 X122.294 Y101.112 E.02359
;WIDTH:0.841519
G1 X122.493 Y100.778 E.02448
;WIDTH:0.864096
G1 X122.693 Y100.361 E.03001
G1 X122.699 Y100.291 E.00455
;WIDTH:0.82008
G1 X122.705 Y100.222 E.0043
;WIDTH:0.776064
G1 X122.711 Y100.152 E.00406
;WIDTH:0.732048
G1 X122.717 Y100.082 E.00382
;WIDTH:0.688032
G1 X122.724 Y100.012 E.00357
;WIDTH:0.644016
G1 X122.73 Y99.942 E.00333
;WIDTH:0.599999
G2 X123.428 Y97.787 I-11.903 J-5.05 E.09981
G3 X124.272 Y94.138 I36.785 J6.582 E.16488
G2 X124.561 Y92.027 I-7.232 J-2.066 E.0941
G1 X124.387 Y89.966 E.091
G1 X124.395 Y89.561 E.01784
G1 X124.538 Y88.751 E.03617
G1 X124.574 Y88.154 E.02632
G1 X124.516 Y87.595 E.02475
G1 X125.246 Y88.202 E.04174
G1 X125.558 Y88.582 E.02168
G1 X125.8 Y89.059 E.0235
G1 X125.957 Y89.767 E.03194
G1 X126.291 Y92.612 E.12602
G1 X126.33 Y93.453 E.03707
G1 X126.274 Y94.493 E.04582
G1 X126.188 Y95.093 E.02668
G3 X125.232 Y97.811 I-11.449 J-2.498 E.1271
G1 X123.739 Y100.444 E.13322
;WIDTH:0.644016
G1 X123.687 Y100.491 E.00333
;WIDTH:0.688032
G1 X123.635 Y100.538 E.00357
;WIDTH:0.732048
G1 X123.583 Y100.585 E.00382
;WIDTH:0.776064
G1 X123.531 Y100.632 E.00406
;WIDTH:0.82008
G1 X123.479 Y100.679 E.0043
;WIDTH:0.864096
G1 X123.427 Y100.726 E.00455
G1 X123.161 Y101.212 E.03591
;WIDTH:0.841519
G1 X122.929 Y101.54 E.02534
;WIDTH:0.81222
G1 X122.697 Y101.868 E.02441
;WIDTH:0.78292
G1 X122.49 Y102.123 E.01922
;WIDTH:0.744879
G1 X122.282 Y102.378 E.01823
;WIDTH:0.706838
G1 X122.075 Y102.633 E.01724
;WIDTH:0.668796
G1 X121.752 Y103.003 E.02427
;WIDTH:0.627218
G1 X121.429 Y103.373 E.02265
;WIDTH:0.58564
G1 X121.106 Y103.742 E.02104
;WIDTH:0.544061
G1 X120.541 Y104.365 E.03332
;WIDTH:0.496738
G1 X119.66 Y105.305 E.04616
;WIDTH:0.517846
G1 X119.269 Y105.768 E.02275
;WIDTH:0.558051
G1 X118.878 Y106.232 E.02468
;WIDTH:0.598255
G1 X118.487 Y106.695 E.0266
;WIDTH:0.646366
G1 X117.558 Y107.829 E.06987
;WIDTH:0.66673
G1 X116.29 Y109.276 E.09476
;WIDTH:0.698951
G1 X115.846 Y109.835 E.03703
G1 X115.639 Y110.173 E.02052
;WIDTH:0.676523
G1 X115.355 Y110.664 E.02838
;WIDTH:0.638261
G1 X115.072 Y111.155 E.02667
;WIDTH:0.599999
G2 X113.887 Y113.842 I16.896 J9.053 E.12934
G1 X113.555 Y114.989 E.05258
G1 X113.113 Y117.187 E.09862
G1 X112.673 Y118.736 E.07089
G1 X112.454 Y119.808 E.04814
G2 X112.371 Y120.979 I12.534 J1.477 E.05168
G1 X112.436 Y123.199 E.09772
G1 X112.391 Y126.331 E.13785
G2 X112.703 Y128.425 I8.145 J-.142 E.09342
G1 X112.896 Y129.098 E.03082
G1 X113.332 Y130.147 E.04999
G1 X114.848 Y133.033 E.14344
G1 X116.055 Y134.99 E.1012
G2 X117.646 Y136.939 I12.276 J-8.403 E.11085
G1 X118.952 Y138.185 E.07943
G1 X119.931 Y138.98 E.05548
G1 X120.952 Y139.607 E.05273
G1 X121.863 Y139.977 E.04326
G1 X124.056 Y140.536 E.09958
G1 X124.886 Y140.862 E.03926
G1 X125.245 Y140.967 E.01645
G1 X125.705 Y140.963 E.02026
G1 X126.137 Y140.811 E.02017
G1 X126.488 Y140.535 E.01962
G1 X126.703 Y140.225 E.01661
G1 X126.889 Y139.757 E.02216
G1 X126.962 Y139.294 E.02065
G1 X126.932 Y138.826 E.02064
G1 X126.738 Y138.141 E.03133
G1 X124.909 Y134.298 E.18729
G3 X124.592 Y133.251 I3.352 J-1.588 E.04832
G3 X125.41 Y129.212 I8.206 J-.439 E.18328
G1 X125.837 Y128.221 E.0475
G1 X126.447 Y126.531 E.07905
G1 X126.662 Y126.168 E.01858
G1 X127.029 Y125.85 E.02134
G1 X128.033 Y125.184 E.05304
G1 X128.682 Y124.62 E.03781
G1 X130.117 Y123.094 E.0922
G3 X131.297 Y122.164 I6.291 J6.767 E.06617
G1 X133.172 Y120.963 E.09801
G2 X134.278 Y119.915 I-4.881 J-6.258 E.06713
G1 X135.454 Y118.48 E.08165
G1 X135.913 Y118.016 E.02873
G1 X137.308 Y116.75 E.0829
G2 X138.879 Y114.617 I-9.168 J-8.397 E.11678
G1 X139.328 Y113.787 E.04153
G1 X140.161 Y112.037 E.08531
G1 X140.161 Y168.436 E2.48186
G1 X78.952 Y168.436 E2.69351
G1 X78.453 Y168.32 E.02253
G1 X78.098 Y168.099 E.0184
G1 X77.812 Y167.794 E.0184
G1 X77.64 Y167.413 E.0184
G1 X77.564 Y166.923 E.0218
G1 X77.564 Y126.136 E1.79484
;WIDTH:0.64349
G1 X77.586 Y126.053 E.00406
;WIDTH:0.686981
G1 X77.608 Y125.971 E.00435
;WIDTH:0.730471
G1 X77.629 Y125.888 E.00465
;WIDTH:0.773962
G1 X77.651 Y125.805 E.00494
;WIDTH:0.817453
G1 X77.673 Y125.723 E.00523
;WIDTH:0.860943
G1 X77.695 Y125.64 E.00553
G1 X77.676 Y125.137 E.03249
;WIDTH:0.824336
G1 X77.658 Y124.635 E.03103
;WIDTH:0.787729
G1 X77.64 Y124.133 E.02958
;WIDTH:0.751121
G1 X77.64 Y121.306 E.15813
G3 X78.343 Y124.071 I-39.366 J11.485 E.15965
;WIDTH:0.787729
G1 X78.398 Y124.574 E.02978
;WIDTH:0.824336
G1 X78.453 Y125.077 E.03124
;WIDTH:0.860943
G1 X78.508 Y125.581 E.03271
G1 X78.539 Y125.643 E.00452
;WIDTH:0.817453
G1 X78.571 Y125.706 E.00428
;WIDTH:0.773962
G1 X78.602 Y125.768 E.00404
;WIDTH:0.730471
G1 X78.633 Y125.831 E.0038
;WIDTH:0.686981
G1 X78.664 Y125.894 E.00356
;WIDTH:0.64349
G1 X78.695 Y125.956 E.00332
;WIDTH:0.599999
G1 X78.894 Y126.902 E.04252
G1 X79.249 Y127.852 E.04462
G1 X80.06 Y129.393 E.07664
G1 X80.41 Y130.198 E.0386
G1 X80.605 Y130.873 E.03093
G1 X80.869 Y132.085 E.05461
G1 X81.318 Y133.256 E.05517
G1 X81.705 Y133.874 E.03209
G1 X82.191 Y134.447 E.03309
G1 X83.487 Y135.631 E.07723
G2 X83.371 Y137.427 I6.854 J1.347 E.07944
G2 X83.883 Y141.074 I48.876 J-5.005 E.16209
G2 X84.466 Y143.336 I16.517 J-3.052 E.10285
G1 X84.77 Y144.125 E.03721
G1 X85.093 Y144.729 E.03015
G1 X85.483 Y145.24 E.0283
G1 X85.765 Y145.502 E.01697
G1 X86.372 Y145.888 E.03163
G1 X86.852 Y146.04 E.02214
G1 X87.414 Y146.087 E.02481
G1 X87.748 Y146.063 E.01474
G1 X88.264 Y145.933 E.02342
G1 X88.872 Y145.651 E.02947
G1 X89.445 Y145.253 E.03071
G2 X90.344 Y144.31 I-3.481 J-4.221 E.05748
G1 X91.3 Y142.884 E.07554
G1 X91.833 Y142.275 E.03563
G1 X92.644 Y141.519 E.0488
G1 X93.979 Y140.386 E.07704
G3 X94.849 Y139.844 I2.256 J2.649 E.04528
G1 X95.062 Y139.942 E.01033
G1 X95.564 Y140.343 E.02829
G2 X96.771 Y141.416 I8.603 J-8.466 E.07113
G1 X97.216 Y141.718 E.02363
G2 X99.041 Y142.647 I11.524 J-20.379 E.09018
G1 X100.78 Y143.406 E.08346
G2 X103.184 Y144.368 I10.014 J-21.546 E.11399
G1 X104.152 Y144.618 E.04399
G1 X104.485 Y144.662 E.01479
G1 X105.186 Y144.634 E.03087
G1 X105.713 Y144.433 E.0248
G1 X106.053 Y144.176 E.01878
G1 X106.363 Y143.766 E.02261
G1 X106.517 Y143.382 E.01821
G1 X106.573 Y142.885 E.02199
G1 X106.49 Y142.419 E.02085
G1 X106.316 Y141.994 E.02021
G1 X105.904 Y141.434 E.03058
G1 X105.729 Y142.14 F9000
G1 F600
G1 X105.26 Y141.491 E.03523
G1 X103.947 Y140.115 E.08369
G1 X103.71 Y139.762 E.01873
G1 X103.485 Y139.234 E.02524
G1 X102.877 Y137.225 E.09236
G1 X102.163 Y135.577 E.07903
G1 X102.269 Y135.252 E.01505
G1 X103.776 Y132.68 E.13116
G1 X104.326 Y131.531 E.05607
G1 X104.611 Y130.598 E.04292
G1 X104.995 Y128.661 E.0869
G3 X105.811 Y126.772 I5.089 J1.077 E.09116
G1 X106.327 Y126.135 E.03607
G1 X108.696 Y123.646 E.15121
G1 X109.236 Y123.025 E.03623
G1 X109.498 Y122.635 E.02064
G1 X109.696 Y122.146 E.02321
G1 X109.756 Y121.771 E.01675
G1 X109.691 Y121.254 E.02289
G2 X108.878 Y119.859 I-4.893 J1.917 E.07137
G1 X108.471 Y119.301 E.03037
G1 X107.701 Y118.125 E.06184
G1 X107.359 Y117.725 E.02318
G1 X106.839 Y117.307 E.02938
G1 X106.24 Y117.014 E.02933
G1 X105.477 Y116.821 E.03465
G1 X104.894 Y116.748 E.02582
G1 X103.609 Y116.749 E.05654
G1 X101.927 Y116.958 E.07461
G3 X100.122 Y117.319 I-4.912 J-19.849 E.08104
G3 X98.805 Y116.693 I3.679 J-9.436 E.06421
G1 X100.108 Y115.891 E.06733
G1 X100.65 Y115.755 E.02458
G1 X102.111 Y115.602 E.06464
G1 X103.137 Y115.378 E.04624
G2 X106.512 Y114.292 I-11.349 J-41.07 E.15603
G2 X108.353 Y113.424 I-4.098 J-11.077 E.08967
G1 X109.031 Y113.067 E.03373
G1 X112.442 Y111.029 E.17486
G2 X114.708 Y109.213 I-7.766 J-12.01 E.128
G1 X117.668 Y105.945 E.19405
G1 X119.121 Y104.521 E.08954
G2 X120.316 Y103.092 I-9.603 J-9.242 E.08204
G1 X121.114 Y101.888 E.06358
G2 X122.06 Y100.089 I-32.079 J-18.011 E.08945
G2 X122.883 Y97.676 I-11.535 J-5.279 E.11237
G1 X123.257 Y95.846 E.08219
G2 X123.912 Y93.232 I-58.333 J-16.003 E.11861
G2 X124.006 Y92.074 I-5.288 J-1.012 E.05122
G1 X123.824 Y89.917 E.09524
G1 X123.847 Y89.464 E.01997
G1 X123.995 Y88.586 E.03917
G1 X124.011 Y88.024 E.02476
G1 X123.932 Y87.485 E.02396
G1 X123.619 Y86.351 E.05177
G1 X124.628 Y86.972 E.05215
G1 X125.422 Y87.605 E.04467
G3 X126.332 Y88.886 I-2.139 J2.483 E.06984
G1 X126.507 Y89.674 E.03551
G1 X126.847 Y92.566 E.12813
G1 X126.888 Y93.455 E.03917
G1 X126.829 Y94.547 E.04814
G1 X126.735 Y95.199 E.02896
G3 X125.73 Y98.062 I-12.068 J-2.628 E.13388
G1 X123.744 Y101.564 E.17717
G3 X122.797 Y102.733 I-8.388 J-5.829 E.06628
G1 X120.072 Y105.589 E.17368
G1 X118.008 Y108.196 E.14634
G1 X116.748 Y109.649 E.08463
G2 X115.091 Y112.355 I11.281 J8.768 E.1399
G2 X114.097 Y115.121 I13.416 J6.383 E.12955
M73 P0 R167
M73 P0 R167
G1 X113.649 Y117.339 E.09957
G1 X113.214 Y118.868 E.06996
G2 X112.928 Y120.963 I10.969 J2.566 E.09318
G1 X112.993 Y123.195 E.09827
G1 X112.947 Y126.298 E.13655
G2 X113.24 Y128.28 I7.605 J-.113 E.08841
G1 X113.411 Y128.887 E.02776
G1 X113.822 Y129.882 E.04738
G1 X115.334 Y132.76 E.14305
G1 X116.513 Y134.674 E.09894
G2 X118.031 Y136.536 I11.712 J-7.997 E.10583
G1 X119.337 Y137.782 E.07943
G1 X120.23 Y138.51 E.05071
G1 X121.17 Y139.095 E.0487
G1 X122 Y139.437 E.03954
G1 X124.227 Y140.004 E.10111
G1 X125.243 Y140.398 E.04794
G1 X125.561 Y140.422 E.01404
G1 X125.867 Y140.323 E.01417
G1 X126.125 Y140.102 E.01495
G1 X126.331 Y139.67 E.02105
G1 X126.408 Y139.235 E.01944
G1 X126.39 Y138.954 E.01238
G1 X126.235 Y138.38 E.02616
G1 X124.292 Y134.297 E.19899
G1 X124.076 Y133.628 E.0309
G3 X124.019 Y132.448 I4.55 J-.812 E.05214
